(G-CODE GENERATED BY FLATCAM v8.994 - www.flatcam.org - Version Date: 2020/11/7)

(Name: ledDeviceServerEsp32Pio-PTH.drl_cnc)
(Type: G-code from Geometry)
(Units: MM)

(Created on Monday, 22 November 2021 at 09:26)

(This preprocessor is the default preprocessor used by FlatCAM.)
(It is made to work with MACH3 compatible motion controllers.)


(TOOLS DIAMETER: )
(Tool: 1 -> Dia: 0.762)
(Tool: 2 -> Dia: 0.8)
(Tool: 3 -> Dia: 1.0)
(Tool: 4 -> Dia: 1.52)

(FEEDRATE Z: )
(Tool: 1 -> Feedrate: 80.0)
(Tool: 2 -> Feedrate: 80.0)
(Tool: 3 -> Feedrate: 80.0)
(Tool: 4 -> Feedrate: 80.0)

(FEEDRATE RAPIDS: )
(Tool: 1 -> Feedrate Rapids: 1500)
(Tool: 2 -> Feedrate Rapids: 1500)
(Tool: 3 -> Feedrate Rapids: 1500)
(Tool: 4 -> Feedrate Rapids: 1500)

(Z_CUT: )
(Tool: 1 -> Z_Cut: -1.7)
(Tool: 2 -> Z_Cut: -1.7)
(Tool: 3 -> Z_Cut: -1.7)
(Tool: 4 -> Z_Cut: -1.7)

(Tools Offset: )
(Tool: 3 -> Offset Z: 0.0)

(Z_MOVE: )
(Tool: 1 -> Z_Move: 3.0)
(Tool: 2 -> Z_Move: 3.0)
(Tool: 3 -> Z_Move: 3.0)
(Tool: 4 -> Z_Move: 3.0)

(Z Toolchange: 15.0 mm)
(X,Y Toolchange: 0.0000, 0.0000 mm)
(Z Start: None mm)
(Z End: 4.0 mm)
(X,Y End: None mm)
(Steps per circle: 64)
(Preprocessor Excellon: default)

(X range:    4.8940 ...   71.3000  mm)
(Y range:   15.5170 ...   62.2670  mm)

(Spindle Speed: 1000 RPM)
G21
G90
G94

G01 F80.00

M5
G00 Z15.0000
T3
G00 X0.0000 Y0.0000                
M6
(MSG, Change to Tool Dia = 1.0000 ||| Total drills for tool T3 = 4)
M0
G00 Z15.0000

G01 F80.00
M03 S1000
G00 X70.8000 Y60.1550
G01 Z-1.7000
G01 Z0
G00 Z3.0000
G00 X55.4000 Y60.1550
G01 Z-1.7000
G01 Z0
G00 Z3.0000
G00 X60.6000 Y30.7550
G01 Z-1.7000
G01 Z0
G00 Z3.0000
G00 X65.6000 Y30.7550
G01 Z-1.7000
G01 Z0
G00 Z3.0000
M05
G00 Z4.00


