(G-CODE GENERATED BY FLATCAM v8.994 - www.flatcam.org - Version Date: 2020/11/7)

(Name: ledDeviceServerEsp32Pio-F_Cu.gbr_iso_combined_cnc)
(Type: G-code from Geometry)
(Units: MM)

(Created on Monday, 22 November 2021 at 09:34)

(This preprocessor is the default preprocessor used by FlatCAM.)
(It is made to work with MACH3 compatible motion controllers.)

(TOOL DIAMETER: 0.1527 mm)
(Feedrate_XY: 80.0 mm/min)
(Feedrate_Z: 50.0 mm/min)
(Feedrate rapids 1500.0 mm/min)

(Z_Cut: -0.2001 mm)
(Z_Move: 2.0 mm)
(Z Start: None mm)
(Z End: 15.0 mm)
(X,Y End: None mm)
(Steps per circle: 64)
(Preprocessor Geometry: default)

(X range:    8.8515 ...   76.6855  mm)
(Y range:   14.5785 ...   65.9900  mm)

(Spindle Speed: 1000.0 RPM)
G21
G90
G94

G01 F80.00

M5
G00 Z15.0000
G00 X0.0000 Y0.0000
T2
M6    
(MSG, Change to Tool Dia = 0.1527)
M0
G00 Z15.0000

M03 S1000.0
G01 F80.00
G00 X13.7233 Y23.5197
G01 F50.00
G01 Z-0.2001
G01 F80.00
G01 X13.7193 Y23.5982
G01 X13.7072 Y23.6796
G01 X13.6873 Y23.7594
G01 X13.6595 Y23.8368
G01 X13.6244 Y23.9112
G01 X13.5821 Y23.9818
G01 X13.5331 Y24.0478
G01 X13.4778 Y24.1088
G01 X13.4168 Y24.1641
G01 X13.3508 Y24.2131
G01 X13.2802 Y24.2554
G01 X13.2058 Y24.2905
G01 X13.1284 Y24.3183
G01 X13.0486 Y24.3382
G01 X12.9672 Y24.3503
G01 X12.8850 Y24.3543
G01 X12.8028 Y24.3503
G01 X12.7214 Y24.3382
G01 X12.6416 Y24.3183
G01 X12.5642 Y24.2905
G01 X12.4898 Y24.2554
G01 X12.4192 Y24.2131
G01 X12.3532 Y24.1641
G01 X12.2922 Y24.1088
G01 X12.2369 Y24.0478
G01 X12.1879 Y23.9818
G01 X12.1456 Y23.9112
G01 X12.1105 Y23.8368
G01 X12.0827 Y23.7594
G01 X12.0628 Y23.6796
G01 X12.0507 Y23.5982
G01 X12.0467 Y23.5160
G01 X12.0507 Y23.4338
G01 X12.0628 Y23.3524
G01 X12.0827 Y23.2726
G01 X12.1105 Y23.1952
G01 X12.1456 Y23.1208
G01 X12.1879 Y23.0502
G01 X12.2369 Y22.9842
G01 X12.2922 Y22.9232
G01 X12.3532 Y22.8679
G01 X12.4192 Y22.8189
G01 X12.4898 Y22.7766
G01 X12.5642 Y22.7415
G01 X12.6416 Y22.7137
G01 X12.7214 Y22.6938
G01 X12.8028 Y22.6817
G01 X12.8850 Y22.6777
G01 X12.9672 Y22.6817
G01 X13.0486 Y22.6938
G01 X13.1284 Y22.7137
G01 X13.2058 Y22.7415
G01 X13.2802 Y22.7766
G01 X13.3508 Y22.8189
G01 X13.4168 Y22.8679
G01 X13.4778 Y22.9232
G01 X13.5331 Y22.9842
G01 X13.5821 Y23.0502
G01 X13.6244 Y23.1208
G01 X13.6595 Y23.1952
G01 X13.6873 Y23.2726
G01 X13.7072 Y23.3524
G01 X13.7193 Y23.4338
G01 X13.7233 Y23.5123
G01 X13.7233 Y23.5197
G00 Z2.0000
G00 X13.8453 Y23.5257
G01 F50.00
G01 Z-0.2001
G01 F80.00
G01 X13.8409 Y23.6101
G01 X13.8271 Y23.7034
G01 X13.8042 Y23.7948
G01 X13.7724 Y23.8836
G01 X13.7321 Y23.9688
G01 X13.6836 Y24.0496
G01 X13.6275 Y24.1253
G01 X13.5642 Y24.1952
G01 X13.4943 Y24.2585
G01 X13.4186 Y24.3146
G01 X13.3378 Y24.3631
G01 X13.2526 Y24.4034
G01 X13.1638 Y24.4352
G01 X13.0724 Y24.4581
G01 X12.9791 Y24.4719
G01 X12.8850 Y24.4765
G01 X12.7909 Y24.4719
G01 X12.6976 Y24.4581
G01 X12.6062 Y24.4352
G01 X12.5174 Y24.4034
G01 X12.4322 Y24.3631
G01 X12.3514 Y24.3146
G01 X12.2757 Y24.2585
G01 X12.2058 Y24.1952
G01 X12.1425 Y24.1253
G01 X12.0864 Y24.0496
G01 X12.0379 Y23.9688
G01 X11.9976 Y23.8836
G01 X11.9658 Y23.7948
G01 X11.9429 Y23.7034
G01 X11.9291 Y23.6101
G01 X11.9245 Y23.5160
G01 X11.9291 Y23.4219
G01 X11.9429 Y23.3286
G01 X11.9658 Y23.2372
G01 X11.9976 Y23.1484
G01 X12.0379 Y23.0632
G01 X12.0864 Y22.9824
G01 X12.1425 Y22.9067
G01 X12.2058 Y22.8368
G01 X12.2757 Y22.7735
G01 X12.3514 Y22.7174
G01 X12.4322 Y22.6689
G01 X12.5174 Y22.6286
G01 X12.6062 Y22.5968
G01 X12.6976 Y22.5739
G01 X12.7909 Y22.5601
G01 X12.8850 Y22.5555
G01 X12.9791 Y22.5601
G01 X13.0724 Y22.5739
G01 X13.1638 Y22.5968
G01 X13.2526 Y22.6286
G01 X13.3378 Y22.6689
G01 X13.4186 Y22.7174
G01 X13.4943 Y22.7735
G01 X13.5642 Y22.8368
G01 X13.6275 Y22.9067
G01 X13.6836 Y22.9824
G01 X13.7321 Y23.0632
G01 X13.7724 Y23.1484
G01 X13.8042 Y23.2372
G01 X13.8271 Y23.3286
G01 X13.8409 Y23.4219
G01 X13.8453 Y23.5063
G01 X13.8453 Y23.5257
G00 Z2.0000
G00 X14.4000 Y29.4065
G01 F50.00
G01 Z-0.2001
G01 F80.00
G01 X16.4049 Y29.4065
G01 X16.4195 Y29.4074
G01 X16.4291 Y29.4086
G01 X16.4482 Y29.4124
G01 X16.4669 Y29.4181
G01 X16.4849 Y29.4255
G01 X16.4978 Y29.4323
G01 X16.5062 Y29.4373
G01 X16.5221 Y29.4485
G01 X16.5297 Y29.4547
G01 X16.5404 Y29.4646
G01 X16.5535 Y29.4791
G01 X16.5651 Y29.4947
G01 X16.5727 Y29.5072
G01 X16.5795 Y29.5201
G01 X16.5869 Y29.5381
G01 X16.5913 Y29.5521
G01 X16.5947 Y29.5663
G01 X16.5970 Y29.5807
G01 X16.5985 Y29.6001
G01 X16.5985 Y31.9050
G01 X16.5983 Y31.9147
G01 X16.5970 Y31.9293
G01 X16.5937 Y31.9485
G01 X16.5913 Y31.9579
G01 X16.5869 Y31.9719
G01 X16.5795 Y31.9899
G01 X16.5727 Y32.0028
G01 X16.5677 Y32.0112
G01 X16.5565 Y32.0271
G01 X16.5438 Y32.0419
G01 X16.5333 Y32.0521
G01 X16.5259 Y32.0585
G01 X16.5103 Y32.0701
G01 X16.4978 Y32.0777
G01 X16.4849 Y32.0845
G01 X16.4669 Y32.0919
G01 X16.4482 Y32.0976
G01 X16.4339 Y32.1006
G01 X16.4195 Y32.1026
G01 X16.4049 Y32.1035
G01 X14.4000 Y32.1035
G01 X14.3805 Y32.1026
G01 X14.3709 Y32.1014
G01 X14.3565 Y32.0987
G01 X14.3377 Y32.0935
G01 X14.3240 Y32.0884
G01 X14.3151 Y32.0845
G01 X14.3064 Y32.0801
G01 X14.2938 Y32.0727
G01 X14.2779 Y32.0615
G01 X14.2667 Y32.0521
G01 X14.2596 Y32.0454
G01 X14.2465 Y32.0309
G01 X14.2377 Y32.0193
G01 X14.2297 Y32.0071
G01 X14.2227 Y31.9943
G01 X14.2148 Y31.9764
G01 X14.2100 Y31.9626
G01 X14.2053 Y31.9437
G01 X14.2024 Y31.9245
G01 X14.2015 Y31.9099
G01 X14.2017 Y29.5953
G01 X14.2036 Y29.5759
G01 X14.2074 Y29.5568
G01 X14.2115 Y29.5427
G01 X14.2185 Y29.5246
G01 X14.2273 Y29.5072
G01 X14.2377 Y29.4907
G01 X14.2497 Y29.4753
G01 X14.2631 Y29.4612
G01 X14.2779 Y29.4485
G01 X14.2897 Y29.4399
G01 X14.3064 Y29.4299
G01 X14.3240 Y29.4216
G01 X14.3424 Y29.4150
G01 X14.3613 Y29.4103
G01 X14.3805 Y29.4074
G01 X14.4000 Y29.4065
G00 Z2.0000
G00 X14.4000 Y29.5287
G01 F50.00
G01 Z-0.2001
G01 F80.00
G01 X16.4019 Y29.5287
G01 X16.4112 Y29.5295
G01 X16.4186 Y29.5309
G01 X16.4257 Y29.5331
G01 X16.4326 Y29.5360
G01 X16.4393 Y29.5395
G01 X16.4470 Y29.5448
G01 X16.4526 Y29.5497
G01 X16.4578 Y29.5551
G01 X16.4624 Y29.5610
G01 X16.4664 Y29.5674
G01 X16.4698 Y29.5741
G01 X16.4719 Y29.5793
G01 X16.4741 Y29.5864
G01 X16.4752 Y29.5919
G01 X16.4760 Y29.5975
G01 X16.4763 Y29.6050
G01 X16.4763 Y31.9050
G01 X16.4760 Y31.9125
G01 X16.4749 Y31.9199
G01 X16.4725 Y31.9289
G01 X16.4698 Y31.9359
G01 X16.4655 Y31.9443
G01 X16.4613 Y31.9505
G01 X16.4566 Y31.9563
G01 X16.4499 Y31.9628
G01 X16.4440 Y31.9674
G01 X16.4393 Y31.9705
G01 X16.4343 Y31.9732
G01 X16.4275 Y31.9762
G01 X16.4222 Y31.9781
G01 X16.4149 Y31.9799
G01 X16.4075 Y31.9810
G01 X16.4000 Y31.9813
G01 X14.4000 Y31.9813
G01 X14.3907 Y31.9808
G01 X14.3833 Y31.9795
G01 X14.3743 Y31.9769
G01 X14.3674 Y31.9740
G01 X14.3607 Y31.9705
G01 X14.3545 Y31.9663
G01 X14.3487 Y31.9616
G01 X14.3422 Y31.9549
G01 X14.3376 Y31.9490
G01 X14.3345 Y31.9443
G01 X14.3310 Y31.9376
G01 X14.3288 Y31.9325
G01 X14.3264 Y31.9254
G01 X14.3248 Y31.9181
G01 X14.3240 Y31.9125
G01 X14.3237 Y31.9050
G01 X14.3237 Y29.6031
G01 X14.3242 Y29.5957
G01 X14.3255 Y29.5883
G01 X14.3275 Y29.5811
G01 X14.3302 Y29.5741
G01 X14.3336 Y29.5674
G01 X14.3376 Y29.5610
G01 X14.3422 Y29.5551
G01 X14.3474 Y29.5497
G01 X14.3530 Y29.5448
G01 X14.3592 Y29.5405
G01 X14.3657 Y29.5368
G01 X14.3725 Y29.5338
G01 X14.3796 Y29.5314
G01 X14.3851 Y29.5301
G01 X14.3925 Y29.5290
G01 X14.4000 Y29.5287
G00 Z2.0000
G00 X21.6263 Y30.7587
G01 F50.00
G01 Z-0.2001
G01 F80.00
G01 X21.6204 Y30.8752
G01 X21.6028 Y30.9942
G01 X21.5735 Y31.1110
G01 X21.5330 Y31.2243
G01 X21.4815 Y31.3331
G01 X21.4197 Y31.4363
G01 X21.3480 Y31.5330
G01 X21.2672 Y31.6222
G01 X21.1780 Y31.7030
G01 X21.0813 Y31.7747
G01 X20.9781 Y31.8365
G01 X20.8693 Y31.8880
G01 X20.7560 Y31.9285
G01 X20.6392 Y31.9578
G01 X20.5202 Y31.9754
G01 X20.4000 Y31.9813
G01 X20.2798 Y31.9754
G01 X20.1608 Y31.9578
G01 X20.0440 Y31.9285
G01 X19.9307 Y31.8880
G01 X19.8219 Y31.8365
G01 X19.7187 Y31.7747
G01 X19.6220 Y31.7030
G01 X19.5328 Y31.6222
G01 X19.4520 Y31.5330
G01 X19.3803 Y31.4363
G01 X19.3185 Y31.3331
G01 X19.2670 Y31.2243
G01 X19.2265 Y31.1110
G01 X19.1972 Y30.9942
G01 X19.1796 Y30.8752
G01 X19.1737 Y30.7550
G01 X19.1796 Y30.6348
G01 X19.1972 Y30.5158
G01 X19.2265 Y30.3990
G01 X19.2670 Y30.2857
G01 X19.3185 Y30.1769
G01 X19.3803 Y30.0737
G01 X19.4520 Y29.9770
G01 X19.5328 Y29.8878
G01 X19.6220 Y29.8070
G01 X19.7187 Y29.7353
G01 X19.8219 Y29.6735
G01 X19.9307 Y29.6220
G01 X20.0440 Y29.5815
G01 X20.1608 Y29.5522
G01 X20.2798 Y29.5346
G01 X20.4000 Y29.5287
G01 X20.5202 Y29.5346
G01 X20.6392 Y29.5522
G01 X20.7560 Y29.5815
G01 X20.8693 Y29.6220
G01 X20.9781 Y29.6735
G01 X21.0813 Y29.7353
G01 X21.1780 Y29.8070
G01 X21.2672 Y29.8878
G01 X21.3480 Y29.9770
G01 X21.4197 Y30.0737
G01 X21.4815 Y30.1769
G01 X21.5330 Y30.2857
G01 X21.5735 Y30.3990
G01 X21.6028 Y30.5158
G01 X21.6204 Y30.6348
G01 X21.6263 Y30.7513
G01 X21.6263 Y30.7587
G00 Z2.0000
G00 X21.7483 Y30.7647
G01 F50.00
G01 Z-0.2001
G01 F80.00
G01 X21.7420 Y30.8872
G01 X21.7226 Y31.0181
G01 X21.6904 Y31.1465
G01 X21.6459 Y31.2711
G01 X21.5893 Y31.3907
G01 X21.5212 Y31.5042
G01 X21.4424 Y31.6105
G01 X21.3535 Y31.7085
G01 X21.2555 Y31.7974
G01 X21.1492 Y31.8762
G01 X21.0357 Y31.9443
G01 X20.9161 Y32.0009
G01 X20.7915 Y32.0454
G01 X20.6631 Y32.0776
G01 X20.5322 Y32.0970
G01 X20.4000 Y32.1035
G01 X20.2678 Y32.0970
G01 X20.1369 Y32.0776
G01 X20.0085 Y32.0454
G01 X19.8839 Y32.0009
G01 X19.7643 Y31.9443
G01 X19.6508 Y31.8762
G01 X19.5445 Y31.7974
G01 X19.4465 Y31.7085
G01 X19.3576 Y31.6105
G01 X19.2788 Y31.5042
G01 X19.2107 Y31.3907
G01 X19.1541 Y31.2711
G01 X19.1096 Y31.1465
G01 X19.0774 Y31.0181
G01 X19.0580 Y30.8872
G01 X19.0515 Y30.7550
G01 X19.0580 Y30.6228
G01 X19.0774 Y30.4919
G01 X19.1096 Y30.3635
G01 X19.1541 Y30.2389
G01 X19.2107 Y30.1193
G01 X19.2788 Y30.0058
G01 X19.3576 Y29.8995
G01 X19.4465 Y29.8015
G01 X19.5445 Y29.7126
G01 X19.6508 Y29.6338
G01 X19.7643 Y29.5657
G01 X19.8839 Y29.5091
G01 X20.0085 Y29.4646
G01 X20.1369 Y29.4324
G01 X20.2678 Y29.4130
G01 X20.4000 Y29.4065
G01 X20.5322 Y29.4130
G01 X20.6631 Y29.4324
G01 X20.7915 Y29.4646
G01 X20.9161 Y29.5091
G01 X21.0357 Y29.5657
G01 X21.1492 Y29.6338
G01 X21.2555 Y29.7126
G01 X21.3535 Y29.8015
G01 X21.4424 Y29.8995
G01 X21.5212 Y30.0058
G01 X21.5893 Y30.1193
G01 X21.6459 Y30.2389
G01 X21.6904 Y30.3635
G01 X21.7226 Y30.4919
G01 X21.7420 Y30.6228
G01 X21.7483 Y30.7453
G01 X21.7483 Y30.7647
G00 Z2.0000
G00 X23.2233 Y23.5197
G01 F50.00
G01 Z-0.2001
G01 F80.00
G01 X23.2193 Y23.5982
G01 X23.2072 Y23.6796
G01 X23.1873 Y23.7594
G01 X23.1595 Y23.8368
G01 X23.1244 Y23.9112
G01 X23.0821 Y23.9818
G01 X23.0331 Y24.0478
G01 X22.9778 Y24.1088
G01 X22.9168 Y24.1641
G01 X22.8508 Y24.2131
G01 X22.7802 Y24.2554
G01 X22.7058 Y24.2905
G01 X22.6284 Y24.3183
G01 X22.5486 Y24.3382
G01 X22.4672 Y24.3503
G01 X22.3850 Y24.3543
G01 X22.3028 Y24.3503
G01 X22.2214 Y24.3382
G01 X22.1416 Y24.3183
G01 X22.0642 Y24.2905
G01 X21.9898 Y24.2554
G01 X21.9192 Y24.2131
G01 X21.8532 Y24.1641
G01 X21.7922 Y24.1088
G01 X21.7369 Y24.0478
G01 X21.6879 Y23.9818
G01 X21.6456 Y23.9112
G01 X21.6105 Y23.8368
G01 X21.5827 Y23.7594
G01 X21.5628 Y23.6796
G01 X21.5507 Y23.5982
G01 X21.5467 Y23.5160
G01 X21.5507 Y23.4338
G01 X21.5628 Y23.3524
G01 X21.5827 Y23.2726
G01 X21.6105 Y23.1952
G01 X21.6456 Y23.1208
G01 X21.6879 Y23.0502
G01 X21.7369 Y22.9842
G01 X21.7922 Y22.9232
G01 X21.8532 Y22.8679
G01 X21.9192 Y22.8189
G01 X21.9898 Y22.7766
G01 X22.0642 Y22.7415
G01 X22.1416 Y22.7137
G01 X22.2214 Y22.6938
G01 X22.3028 Y22.6817
G01 X22.3850 Y22.6777
G01 X22.4672 Y22.6817
G01 X22.5486 Y22.6938
G01 X22.6284 Y22.7137
G01 X22.7058 Y22.7415
G01 X22.7802 Y22.7766
G01 X22.8508 Y22.8189
G01 X22.9168 Y22.8679
G01 X22.9778 Y22.9232
G01 X23.0331 Y22.9842
G01 X23.0821 Y23.0502
G01 X23.1244 Y23.1208
G01 X23.1595 Y23.1952
G01 X23.1873 Y23.2726
G01 X23.2072 Y23.3524
G01 X23.2193 Y23.4338
G01 X23.2233 Y23.5123
G01 X23.2233 Y23.5197
G00 Z2.0000
G00 X23.3453 Y23.5257
G01 F50.00
G01 Z-0.2001
G01 F80.00
G01 X23.3409 Y23.6101
G01 X23.3271 Y23.7034
G01 X23.3042 Y23.7948
G01 X23.2724 Y23.8836
G01 X23.2321 Y23.9688
G01 X23.1836 Y24.0496
G01 X23.1275 Y24.1253
G01 X23.0642 Y24.1952
G01 X22.9943 Y24.2585
G01 X22.9186 Y24.3146
G01 X22.8378 Y24.3631
G01 X22.7526 Y24.4034
G01 X22.6638 Y24.4352
G01 X22.5724 Y24.4581
G01 X22.4791 Y24.4719
G01 X22.3850 Y24.4765
G01 X22.2909 Y24.4719
G01 X22.1976 Y24.4581
G01 X22.1062 Y24.4352
G01 X22.0174 Y24.4034
G01 X21.9322 Y24.3631
G01 X21.8514 Y24.3146
G01 X21.7757 Y24.2585
G01 X21.7058 Y24.1952
G01 X21.6425 Y24.1253
G01 X21.5864 Y24.0496
G01 X21.5379 Y23.9688
G01 X21.4976 Y23.8836
G01 X21.4658 Y23.7948
G01 X21.4429 Y23.7034
G01 X21.4291 Y23.6101
G01 X21.4245 Y23.5160
G01 X21.4291 Y23.4219
G01 X21.4429 Y23.3286
G01 X21.4658 Y23.2372
G01 X21.4976 Y23.1484
G01 X21.5379 Y23.0632
G01 X21.5864 Y22.9824
G01 X21.6425 Y22.9067
G01 X21.7058 Y22.8368
G01 X21.7757 Y22.7735
G01 X21.8514 Y22.7174
G01 X21.9322 Y22.6689
G01 X22.0174 Y22.6286
G01 X22.1062 Y22.5968
G01 X22.1976 Y22.5739
G01 X22.2909 Y22.5601
G01 X22.3850 Y22.5555
G01 X22.4791 Y22.5601
G01 X22.5724 Y22.5739
G01 X22.6638 Y22.5968
G01 X22.7526 Y22.6286
G01 X22.8378 Y22.6689
G01 X22.9186 Y22.7174
G01 X22.9943 Y22.7735
G01 X23.0642 Y22.8368
G01 X23.1275 Y22.9067
G01 X23.1836 Y22.9824
G01 X23.2321 Y23.0632
G01 X23.2724 Y23.1484
G01 X23.3042 Y23.2372
G01 X23.3271 Y23.3286
G01 X23.3409 Y23.4219
G01 X23.3453 Y23.5063
G01 X23.3453 Y23.5257
G00 Z2.0000
G00 X31.0057 Y23.0909
G01 F50.00
G01 Z-0.2001
G01 F80.00
G01 X31.8057 Y23.0909
G01 X31.8738 Y23.0944
G01 X31.9376 Y23.1039
G01 X31.9984 Y23.1191
G01 X32.0056 Y23.1212
G01 X32.0645 Y23.1424
G01 X32.1212 Y23.1691
G01 X32.1278 Y23.1726
G01 X32.1814 Y23.2049
G01 X32.2348 Y23.2445
G01 X32.2839 Y23.2890
G01 X32.3285 Y23.3382
G01 X32.3680 Y23.3915
G01 X32.4022 Y23.4485
G01 X32.4305 Y23.5085
G01 X32.4529 Y23.5709
G01 X32.4690 Y23.6353
G01 X32.4788 Y23.7010
G01 X32.4820 Y23.7673
G01 X32.4788 Y23.8336
G01 X32.4690 Y23.8992
G01 X32.4529 Y23.9636
G01 X32.4305 Y24.0261
G01 X32.4022 Y24.0861
G01 X32.3680 Y24.1430
G01 X32.3285 Y24.1964
G01 X32.2839 Y24.2455
G01 X32.2348 Y24.2901
G01 X32.1814 Y24.3296
G01 X32.1245 Y24.3638
G01 X32.0645 Y24.3921
G01 X32.0020 Y24.4145
G01 X31.9376 Y24.4306
G01 X31.8757 Y24.4399
G01 X31.8682 Y24.4406
G01 X31.8057 Y24.4436
G01 X31.0057 Y24.4436
G01 X30.9375 Y24.4402
G01 X30.8737 Y24.4306
G01 X30.8130 Y24.4155
G01 X30.8058 Y24.4133
G01 X30.7469 Y24.3921
G01 X30.6902 Y24.3655
G01 X30.6836 Y24.3619
G01 X30.6299 Y24.3296
G01 X30.5766 Y24.2901
G01 X30.5274 Y24.2455
G01 X30.4853 Y24.1992
G01 X30.4805 Y24.1934
G01 X30.4433 Y24.1430
G01 X30.4092 Y24.0861
G01 X30.3823 Y24.0295
G01 X30.3795 Y24.0226
G01 X30.3596 Y23.9672
G01 X30.3575 Y23.9600
G01 X30.3423 Y23.8992
G01 X30.3326 Y23.8336
G01 X30.3293 Y23.7673
G01 X30.3323 Y23.7047
G01 X30.3330 Y23.6973
G01 X30.3417 Y23.6390
G01 X30.3431 Y23.6317
G01 X30.3585 Y23.5709
G01 X30.3795 Y23.5119
G01 X30.3823 Y23.5050
G01 X30.4075 Y23.4518
G01 X30.4110 Y23.4452
G01 X30.4433 Y23.3915
G01 X30.4829 Y23.3382
G01 X30.5248 Y23.2917
G01 X30.5301 Y23.2864
G01 X30.5766 Y23.2445
G01 X30.6299 Y23.2049
G01 X30.6869 Y23.1708
G01 X30.7434 Y23.1439
G01 X30.7503 Y23.1411
G01 X30.8093 Y23.1201
G01 X30.8737 Y23.1039
G01 X30.9357 Y23.0946
G01 X30.9431 Y23.0939
G01 X31.0057 Y23.0909
G00 Z2.0000
G00 X31.0057 Y22.9688
G01 F50.00
G01 Z-0.2001
G01 F80.00
G01 X31.8106 Y22.9688
G01 X31.8839 Y22.9726
G01 X31.9567 Y22.9832
G01 X31.9710 Y22.9862
G01 X32.0281 Y23.0006
G01 X32.0467 Y23.0062
G01 X32.1113 Y23.0296
G01 X32.1821 Y23.0631
G01 X32.2411 Y23.0981
G01 X32.2573 Y23.1090
G01 X32.3122 Y23.1500
G01 X32.3703 Y23.2026
G01 X32.4229 Y23.2607
G01 X32.4696 Y23.3237
G01 X32.5099 Y23.3909
G01 X32.5434 Y23.4617
G01 X32.5698 Y23.5355
G01 X32.5888 Y23.6115
G01 X32.6003 Y23.6890
G01 X32.6042 Y23.7673
G01 X32.6003 Y23.8455
G01 X32.5888 Y23.9231
G01 X32.5698 Y23.9991
G01 X32.5434 Y24.0729
G01 X32.5099 Y24.1437
G01 X32.4696 Y24.2109
G01 X32.4229 Y24.2738
G01 X32.3703 Y24.3319
G01 X32.3196 Y24.3782
G01 X32.3046 Y24.3905
G01 X32.2493 Y24.4312
G01 X32.1821 Y24.4715
G01 X32.1113 Y24.5050
G01 X32.0467 Y24.5284
G01 X32.0281 Y24.5340
G01 X31.9710 Y24.5483
G01 X31.9567 Y24.5513
G01 X31.8839 Y24.5619
G01 X31.8106 Y24.5657
G01 X31.0057 Y24.5658
G01 X30.9274 Y24.5619
G01 X30.8499 Y24.5504
G01 X30.7739 Y24.5314
G01 X30.7001 Y24.5050
G01 X30.6293 Y24.4715
G01 X30.5621 Y24.4312
G01 X30.4991 Y24.3845
G01 X30.4410 Y24.3319
G01 X30.3948 Y24.2812
G01 X30.3824 Y24.2662
G01 X30.3417 Y24.2109
G01 X30.3015 Y24.1437
G01 X30.2719 Y24.0818
G01 X30.2644 Y24.0638
G01 X30.2416 Y23.9991
G01 X30.2225 Y23.9231
G01 X30.2122 Y23.8552
G01 X30.2103 Y23.8358
G01 X30.2072 Y23.7673
G01 X30.2110 Y23.6890
G01 X30.2208 Y23.6211
G01 X30.2246 Y23.6020
G01 X30.2416 Y23.5355
G01 X30.2680 Y23.4617
G01 X30.2971 Y23.3996
G01 X30.3063 Y23.3824
G01 X30.3417 Y23.3237
G01 X30.3884 Y23.2607
G01 X30.4343 Y23.2097
G01 X30.4481 Y23.1959
G01 X30.4991 Y23.1500
G01 X30.5621 Y23.1033
G01 X30.6293 Y23.0631
G01 X30.6912 Y23.0335
G01 X30.7092 Y23.0260
G01 X30.7739 Y23.0032
G01 X30.8499 Y22.9841
G01 X30.9177 Y22.9738
G01 X30.9371 Y22.9719
G01 X31.0057 Y22.9688
G00 Z2.0000
G00 X31.0057 Y20.5509
G01 F50.00
G01 Z-0.2001
G01 F80.00
G01 X31.8057 Y20.5509
G01 X31.8738 Y20.5544
G01 X31.9376 Y20.5639
G01 X31.9984 Y20.5791
G01 X32.0056 Y20.5812
G01 X32.0645 Y20.6024
G01 X32.1245 Y20.6308
G01 X32.1783 Y20.6629
G01 X32.1845 Y20.6671
G01 X32.2348 Y20.7045
G01 X32.2839 Y20.7490
G01 X32.3285 Y20.7982
G01 X32.3680 Y20.8515
G01 X32.4022 Y20.9085
G01 X32.4305 Y20.9685
G01 X32.4529 Y21.0309
G01 X32.4690 Y21.0953
G01 X32.4788 Y21.1610
G01 X32.4820 Y21.2273
G01 X32.4788 Y21.2936
G01 X32.4690 Y21.3592
G01 X32.4529 Y21.4236
G01 X32.4305 Y21.4861
G01 X32.4022 Y21.5461
G01 X32.3680 Y21.6030
G01 X32.3285 Y21.6564
G01 X32.2839 Y21.7055
G01 X32.2348 Y21.7501
G01 X32.1814 Y21.7896
G01 X32.1245 Y21.8238
G01 X32.0645 Y21.8521
G01 X32.0020 Y21.8745
G01 X31.9376 Y21.8906
G01 X31.8757 Y21.8999
G01 X31.8682 Y21.9006
G01 X31.8057 Y21.9036
G01 X31.0057 Y21.9036
G01 X30.9375 Y21.9002
G01 X30.8737 Y21.8906
G01 X30.8130 Y21.8755
G01 X30.8058 Y21.8733
G01 X30.7469 Y21.8521
G01 X30.6869 Y21.8238
G01 X30.6331 Y21.7916
G01 X30.6269 Y21.7875
G01 X30.5766 Y21.7501
G01 X30.5301 Y21.7081
G01 X30.5248 Y21.7028
G01 X30.4829 Y21.6564
G01 X30.4433 Y21.6030
G01 X30.4092 Y21.5461
G01 X30.3823 Y21.4895
G01 X30.3795 Y21.4826
G01 X30.3596 Y21.4272
G01 X30.3575 Y21.4200
G01 X30.3423 Y21.3592
G01 X30.3326 Y21.2936
G01 X30.3293 Y21.2273
G01 X30.3323 Y21.1647
G01 X30.3330 Y21.1573
G01 X30.3417 Y21.0990
G01 X30.3431 Y21.0917
G01 X30.3585 Y21.0309
G01 X30.3795 Y20.9719
G01 X30.3823 Y20.9650
G01 X30.4075 Y20.9118
G01 X30.4110 Y20.9052
G01 X30.4433 Y20.8515
G01 X30.4829 Y20.7982
G01 X30.5274 Y20.7490
G01 X30.5738 Y20.7069
G01 X30.5796 Y20.7021
G01 X30.6299 Y20.6649
G01 X30.6836 Y20.6326
G01 X30.6902 Y20.6291
G01 X30.7469 Y20.6024
G01 X30.8093 Y20.5801
G01 X30.8737 Y20.5639
G01 X30.9357 Y20.5546
G01 X30.9431 Y20.5539
G01 X31.0057 Y20.5509
G00 Z2.0000
G00 X31.0057 Y20.4288
G01 F50.00
G01 Z-0.2001
G01 F80.00
G01 X31.8106 Y20.4288
G01 X31.8839 Y20.4326
G01 X31.9567 Y20.4432
G01 X31.9710 Y20.4462
G01 X32.0281 Y20.4606
G01 X32.0467 Y20.4662
G01 X32.1113 Y20.4896
G01 X32.1821 Y20.5231
G01 X32.2411 Y20.5581
G01 X32.2573 Y20.5690
G01 X32.3122 Y20.6100
G01 X32.3703 Y20.6626
G01 X32.4229 Y20.7207
G01 X32.4696 Y20.7837
G01 X32.5099 Y20.8509
G01 X32.5434 Y20.9217
G01 X32.5698 Y20.9955
G01 X32.5888 Y21.0715
G01 X32.6003 Y21.1490
G01 X32.6042 Y21.2273
G01 X32.6003 Y21.3055
G01 X32.5888 Y21.3831
G01 X32.5698 Y21.4591
G01 X32.5434 Y21.5329
G01 X32.5099 Y21.6037
G01 X32.4696 Y21.6709
G01 X32.4229 Y21.7338
G01 X32.3703 Y21.7919
G01 X32.3122 Y21.8445
G01 X32.2573 Y21.8856
G01 X32.2411 Y21.8964
G01 X32.1821 Y21.9315
G01 X32.1113 Y21.9650
G01 X32.0467 Y21.9884
G01 X32.0281 Y21.9940
G01 X31.9710 Y22.0083
G01 X31.9567 Y22.0113
G01 X31.8839 Y22.0219
G01 X31.8106 Y22.0257
G01 X31.0057 Y22.0258
G01 X30.9274 Y22.0219
G01 X30.8499 Y22.0104
G01 X30.7739 Y21.9914
G01 X30.7001 Y21.9650
G01 X30.6293 Y21.9315
G01 X30.5621 Y21.8912
G01 X30.4991 Y21.8445
G01 X30.4410 Y21.7919
G01 X30.3884 Y21.7338
G01 X30.3474 Y21.6789
G01 X30.3365 Y21.6627
G01 X30.3015 Y21.6037
G01 X30.2719 Y21.5418
G01 X30.2644 Y21.5238
G01 X30.2416 Y21.4591
G01 X30.2225 Y21.3831
G01 X30.2122 Y21.3152
G01 X30.2103 Y21.2958
G01 X30.2072 Y21.2273
G01 X30.2110 Y21.1490
G01 X30.2208 Y21.0811
G01 X30.2246 Y21.0620
G01 X30.2416 Y20.9955
G01 X30.2680 Y20.9217
G01 X30.2971 Y20.8596
G01 X30.3063 Y20.8424
G01 X30.3417 Y20.7837
G01 X30.3884 Y20.7207
G01 X30.4410 Y20.6626
G01 X30.4917 Y20.6164
G01 X30.5068 Y20.6040
G01 X30.5621 Y20.5633
G01 X30.6208 Y20.5279
G01 X30.6380 Y20.5187
G01 X30.7001 Y20.4896
G01 X30.7739 Y20.4632
G01 X30.8499 Y20.4441
G01 X30.9177 Y20.4338
G01 X30.9371 Y20.4319
G01 X31.0057 Y20.4288
G00 Z2.0000
G00 X31.0057 Y18.0109
G01 F50.00
G01 Z-0.2001
G01 F80.00
G01 X31.8057 Y18.0109
G01 X31.8738 Y18.0144
G01 X31.9376 Y18.0239
G01 X31.9984 Y18.0391
G01 X32.0056 Y18.0412
G01 X32.0645 Y18.0624
G01 X32.1245 Y18.0908
G01 X32.1783 Y18.1229
G01 X32.1845 Y18.1271
G01 X32.2348 Y18.1645
G01 X32.2839 Y18.2090
G01 X32.3285 Y18.2582
G01 X32.3680 Y18.3115
G01 X32.4022 Y18.3685
G01 X32.4305 Y18.4285
G01 X32.4529 Y18.4909
G01 X32.4690 Y18.5553
G01 X32.4788 Y18.6210
G01 X32.4820 Y18.6873
G01 X32.4788 Y18.7536
G01 X32.4690 Y18.8192
G01 X32.4529 Y18.8836
G01 X32.4305 Y18.9461
G01 X32.4022 Y19.0061
G01 X32.3680 Y19.0630
G01 X32.3285 Y19.1164
G01 X32.2839 Y19.1655
G01 X32.2348 Y19.2101
G01 X32.1814 Y19.2496
G01 X32.1245 Y19.2838
G01 X32.0645 Y19.3121
G01 X32.0020 Y19.3345
G01 X31.9376 Y19.3506
G01 X31.8757 Y19.3599
G01 X31.8682 Y19.3606
G01 X31.8057 Y19.3636
G01 X31.0057 Y19.3636
G01 X30.9375 Y19.3602
G01 X30.8737 Y19.3506
G01 X30.8130 Y19.3355
G01 X30.8058 Y19.3333
G01 X30.7469 Y19.3121
G01 X30.6869 Y19.2838
G01 X30.6331 Y19.2516
G01 X30.6269 Y19.2475
G01 X30.5766 Y19.2101
G01 X30.5301 Y19.1681
G01 X30.5248 Y19.1628
G01 X30.4829 Y19.1164
G01 X30.4433 Y19.0630
G01 X30.4092 Y19.0061
G01 X30.3823 Y18.9495
G01 X30.3795 Y18.9426
G01 X30.3596 Y18.8872
G01 X30.3575 Y18.8800
G01 X30.3423 Y18.8192
G01 X30.3326 Y18.7536
G01 X30.3293 Y18.6873
G01 X30.3323 Y18.6247
G01 X30.3330 Y18.6173
G01 X30.3417 Y18.5590
G01 X30.3431 Y18.5517
G01 X30.3585 Y18.4909
G01 X30.3795 Y18.4319
G01 X30.3823 Y18.4250
G01 X30.4075 Y18.3718
G01 X30.4110 Y18.3652
G01 X30.4433 Y18.3115
G01 X30.4829 Y18.2582
G01 X30.5274 Y18.2090
G01 X30.5738 Y18.1669
G01 X30.5796 Y18.1621
G01 X30.6299 Y18.1249
G01 X30.6836 Y18.0926
G01 X30.6902 Y18.0891
G01 X30.7469 Y18.0624
G01 X30.8093 Y18.0401
G01 X30.8737 Y18.0239
G01 X30.9357 Y18.0146
G01 X30.9431 Y18.0139
G01 X31.0057 Y18.0109
G00 Z2.0000
G00 X31.0057 Y17.8888
G01 F50.00
G01 Z-0.2001
G01 F80.00
G01 X31.8106 Y17.8888
G01 X31.8839 Y17.8926
G01 X31.9567 Y17.9032
G01 X31.9710 Y17.9062
G01 X32.0281 Y17.9206
G01 X32.0467 Y17.9262
G01 X32.1113 Y17.9496
G01 X32.1821 Y17.9831
G01 X32.2411 Y18.0181
G01 X32.2573 Y18.0290
G01 X32.3122 Y18.0700
G01 X32.3703 Y18.1226
G01 X32.4229 Y18.1807
G01 X32.4696 Y18.2437
G01 X32.5099 Y18.3109
G01 X32.5434 Y18.3817
G01 X32.5698 Y18.4555
G01 X32.5888 Y18.5315
G01 X32.6003 Y18.6090
G01 X32.6042 Y18.6873
G01 X32.6003 Y18.7655
G01 X32.5888 Y18.8431
G01 X32.5698 Y18.9191
G01 X32.5434 Y18.9929
G01 X32.5099 Y19.0637
G01 X32.4696 Y19.1309
G01 X32.4229 Y19.1938
G01 X32.3703 Y19.2519
G01 X32.3122 Y19.3045
G01 X32.2573 Y19.3456
G01 X32.2411 Y19.3564
G01 X32.1821 Y19.3915
G01 X32.1113 Y19.4250
G01 X32.0467 Y19.4484
G01 X32.0281 Y19.4540
G01 X31.9710 Y19.4683
G01 X31.9567 Y19.4713
G01 X31.8839 Y19.4819
G01 X31.8106 Y19.4857
G01 X31.0057 Y19.4858
G01 X30.9274 Y19.4819
G01 X30.8499 Y19.4704
G01 X30.7739 Y19.4514
G01 X30.7001 Y19.4250
G01 X30.6293 Y19.3915
G01 X30.5621 Y19.3512
G01 X30.4991 Y19.3045
G01 X30.4410 Y19.2519
G01 X30.3884 Y19.1938
G01 X30.3474 Y19.1389
G01 X30.3365 Y19.1227
G01 X30.3015 Y19.0637
G01 X30.2719 Y19.0018
G01 X30.2644 Y18.9838
G01 X30.2416 Y18.9191
G01 X30.2225 Y18.8431
G01 X30.2122 Y18.7752
G01 X30.2103 Y18.7558
G01 X30.2072 Y18.6873
G01 X30.2110 Y18.6090
G01 X30.2208 Y18.5411
G01 X30.2246 Y18.5220
G01 X30.2416 Y18.4555
G01 X30.2680 Y18.3817
G01 X30.2971 Y18.3196
G01 X30.3063 Y18.3024
G01 X30.3417 Y18.2437
G01 X30.3884 Y18.1807
G01 X30.4410 Y18.1226
G01 X30.4917 Y18.0764
G01 X30.5068 Y18.0640
G01 X30.5621 Y18.0233
G01 X30.6208 Y17.9879
G01 X30.6380 Y17.9787
G01 X30.7001 Y17.9496
G01 X30.7739 Y17.9232
G01 X30.8499 Y17.9041
G01 X30.9177 Y17.8938
G01 X30.9371 Y17.8919
G01 X31.0057 Y17.8888
G00 Z2.0000
G00 X31.0057 Y15.4709
G01 F50.00
G01 Z-0.2001
G01 F80.00
G01 X31.8057 Y15.4709
G01 X31.8738 Y15.4744
G01 X31.9376 Y15.4839
G01 X31.9984 Y15.4991
G01 X32.0056 Y15.5012
G01 X32.0645 Y15.5224
G01 X32.1245 Y15.5508
G01 X32.1783 Y15.5829
G01 X32.1845 Y15.5871
G01 X32.2348 Y15.6245
G01 X32.2839 Y15.6690
G01 X32.3285 Y15.7182
G01 X32.3680 Y15.7715
G01 X32.4022 Y15.8285
G01 X32.4305 Y15.8885
G01 X32.4529 Y15.9509
G01 X32.4690 Y16.0153
G01 X32.4788 Y16.0810
G01 X32.4820 Y16.1473
G01 X32.4788 Y16.2136
G01 X32.4690 Y16.2792
G01 X32.4529 Y16.3436
G01 X32.4305 Y16.4061
G01 X32.4022 Y16.4661
G01 X32.3680 Y16.5230
G01 X32.3285 Y16.5764
G01 X32.2839 Y16.6255
G01 X32.2348 Y16.6701
G01 X32.1814 Y16.7096
G01 X32.1245 Y16.7438
G01 X32.0645 Y16.7721
G01 X32.0020 Y16.7945
G01 X31.9376 Y16.8106
G01 X31.8757 Y16.8199
G01 X31.8682 Y16.8206
G01 X31.8057 Y16.8236
G01 X31.0057 Y16.8236
G01 X30.9375 Y16.8202
G01 X30.8737 Y16.8106
G01 X30.8130 Y16.7955
G01 X30.8058 Y16.7933
G01 X30.7469 Y16.7721
G01 X30.6869 Y16.7438
G01 X30.6331 Y16.7116
G01 X30.6269 Y16.7075
G01 X30.5766 Y16.6701
G01 X30.5301 Y16.6281
G01 X30.5248 Y16.6228
G01 X30.4829 Y16.5764
G01 X30.4433 Y16.5230
G01 X30.4092 Y16.4661
G01 X30.3823 Y16.4095
G01 X30.3795 Y16.4026
G01 X30.3596 Y16.3472
G01 X30.3575 Y16.3400
G01 X30.3423 Y16.2792
G01 X30.3326 Y16.2136
G01 X30.3293 Y16.1473
G01 X30.3323 Y16.0847
G01 X30.3330 Y16.0773
G01 X30.3417 Y16.0190
G01 X30.3431 Y16.0117
G01 X30.3585 Y15.9509
G01 X30.3795 Y15.8919
G01 X30.3823 Y15.8850
G01 X30.4075 Y15.8318
G01 X30.4110 Y15.8252
G01 X30.4433 Y15.7715
G01 X30.4829 Y15.7182
G01 X30.5274 Y15.6690
G01 X30.5738 Y15.6269
G01 X30.5796 Y15.6221
G01 X30.6299 Y15.5849
G01 X30.6836 Y15.5526
G01 X30.6902 Y15.5491
G01 X30.7469 Y15.5224
G01 X30.8093 Y15.5001
G01 X30.8737 Y15.4839
G01 X30.9357 Y15.4746
G01 X30.9431 Y15.4739
G01 X31.0057 Y15.4709
G00 Z2.0000
G00 X31.0057 Y15.3488
G01 F50.00
G01 Z-0.2001
G01 F80.00
G01 X31.8106 Y15.3488
G01 X31.8839 Y15.3526
G01 X31.9567 Y15.3632
G01 X31.9710 Y15.3662
G01 X32.0281 Y15.3806
G01 X32.0467 Y15.3862
G01 X32.1113 Y15.4096
G01 X32.1821 Y15.4431
G01 X32.2411 Y15.4781
G01 X32.2573 Y15.4890
G01 X32.3122 Y15.5300
G01 X32.3703 Y15.5826
G01 X32.4229 Y15.6407
G01 X32.4696 Y15.7037
G01 X32.5099 Y15.7709
G01 X32.5434 Y15.8417
G01 X32.5698 Y15.9155
G01 X32.5888 Y15.9915
G01 X32.6003 Y16.0690
G01 X32.6042 Y16.1473
G01 X32.6003 Y16.2255
G01 X32.5888 Y16.3031
G01 X32.5698 Y16.3791
G01 X32.5434 Y16.4529
G01 X32.5099 Y16.5237
G01 X32.4696 Y16.5909
G01 X32.4229 Y16.6538
G01 X32.3703 Y16.7119
G01 X32.3122 Y16.7645
G01 X32.2573 Y16.8056
G01 X32.2411 Y16.8164
G01 X32.1821 Y16.8515
G01 X32.1113 Y16.8850
G01 X32.0467 Y16.9084
G01 X32.0281 Y16.9140
G01 X31.9710 Y16.9283
G01 X31.9567 Y16.9313
G01 X31.8839 Y16.9419
G01 X31.8106 Y16.9457
G01 X31.0057 Y16.9458
G01 X30.9274 Y16.9419
G01 X30.8499 Y16.9304
G01 X30.7739 Y16.9114
G01 X30.7001 Y16.8850
G01 X30.6293 Y16.8515
G01 X30.5621 Y16.8112
G01 X30.4991 Y16.7645
G01 X30.4410 Y16.7119
G01 X30.3884 Y16.6538
G01 X30.3474 Y16.5989
G01 X30.3365 Y16.5827
G01 X30.3015 Y16.5237
G01 X30.2719 Y16.4618
G01 X30.2644 Y16.4438
G01 X30.2416 Y16.3791
G01 X30.2225 Y16.3031
G01 X30.2122 Y16.2352
G01 X30.2103 Y16.2158
G01 X30.2072 Y16.1473
G01 X30.2110 Y16.0690
G01 X30.2208 Y16.0011
G01 X30.2246 Y15.9820
G01 X30.2416 Y15.9155
G01 X30.2680 Y15.8417
G01 X30.2971 Y15.7796
G01 X30.3063 Y15.7624
G01 X30.3417 Y15.7037
G01 X30.3884 Y15.6407
G01 X30.4410 Y15.5826
G01 X30.4917 Y15.5364
G01 X30.5068 Y15.5240
G01 X30.5621 Y15.4833
G01 X30.6208 Y15.4479
G01 X30.6380 Y15.4387
G01 X30.7001 Y15.4096
G01 X30.7739 Y15.3832
G01 X30.8499 Y15.3641
G01 X30.9177 Y15.3538
G01 X30.9371 Y15.3519
G01 X31.0057 Y15.3488
G00 Z2.0000
G00 X31.0057 Y25.5088
G01 F50.00
G01 Z-0.2001
G01 F80.00
G01 X31.8106 Y25.5088
G01 X31.8839 Y25.5126
G01 X31.9567 Y25.5232
G01 X31.9710 Y25.5262
G01 X32.0281 Y25.5406
G01 X32.0467 Y25.5462
G01 X32.1113 Y25.5696
G01 X32.1821 Y25.6031
G01 X32.2411 Y25.6381
G01 X32.2573 Y25.6490
G01 X32.3122 Y25.6900
G01 X32.3703 Y25.7426
G01 X32.4229 Y25.8007
G01 X32.4696 Y25.8637
G01 X32.5099 Y25.9309
G01 X32.5434 Y26.0017
G01 X32.5698 Y26.0755
G01 X32.5888 Y26.1515
G01 X32.6003 Y26.2290
G01 X32.6042 Y26.3073
G01 X32.6003 Y26.3855
G01 X32.5888 Y26.4631
G01 X32.5698 Y26.5391
G01 X32.5434 Y26.6129
G01 X32.5099 Y26.6837
G01 X32.4696 Y26.7509
G01 X32.4229 Y26.8138
G01 X32.3703 Y26.8719
G01 X32.3196 Y26.9182
G01 X32.3046 Y26.9305
G01 X32.2493 Y26.9712
G01 X32.1821 Y27.0115
G01 X32.1113 Y27.0450
G01 X32.0467 Y27.0684
G01 X32.0281 Y27.0740
G01 X31.9710 Y27.0883
G01 X31.9567 Y27.0913
G01 X31.8839 Y27.1019
G01 X31.8106 Y27.1057
G01 X31.0057 Y27.1058
G01 X30.9274 Y27.1019
G01 X30.8499 Y27.0904
G01 X30.7739 Y27.0714
G01 X30.7001 Y27.0450
G01 X30.6293 Y27.0115
G01 X30.5621 Y26.9712
G01 X30.4991 Y26.9245
G01 X30.4410 Y26.8719
G01 X30.3948 Y26.8212
G01 X30.3824 Y26.8062
G01 X30.3417 Y26.7509
G01 X30.3015 Y26.6837
G01 X30.2719 Y26.6218
G01 X30.2644 Y26.6038
G01 X30.2416 Y26.5391
G01 X30.2225 Y26.4631
G01 X30.2122 Y26.3952
G01 X30.2103 Y26.3758
G01 X30.2072 Y26.3073
G01 X30.2110 Y26.2290
G01 X30.2208 Y26.1611
G01 X30.2246 Y26.1420
G01 X30.2416 Y26.0755
G01 X30.2680 Y26.0017
G01 X30.2971 Y25.9396
G01 X30.3063 Y25.9224
G01 X30.3417 Y25.8637
G01 X30.3884 Y25.8007
G01 X30.4343 Y25.7497
G01 X30.4481 Y25.7359
G01 X30.4991 Y25.6900
G01 X30.5621 Y25.6433
G01 X30.6293 Y25.6031
G01 X30.6912 Y25.5735
G01 X30.7092 Y25.5660
G01 X30.7739 Y25.5432
G01 X30.8499 Y25.5241
G01 X30.9177 Y25.5138
G01 X30.9371 Y25.5119
G01 X31.0057 Y25.5088
G00 Z2.0000
G00 X31.0057 Y25.6309
G01 F50.00
G01 Z-0.2001
G01 F80.00
G01 X31.8057 Y25.6309
G01 X31.8738 Y25.6344
G01 X31.9376 Y25.6439
G01 X31.9984 Y25.6591
G01 X32.0056 Y25.6612
G01 X32.0645 Y25.6824
G01 X32.1212 Y25.7091
G01 X32.1278 Y25.7126
G01 X32.1814 Y25.7449
G01 X32.2348 Y25.7845
G01 X32.2839 Y25.8290
G01 X32.3285 Y25.8782
G01 X32.3680 Y25.9315
G01 X32.4022 Y25.9885
G01 X32.4305 Y26.0485
G01 X32.4529 Y26.1109
G01 X32.4690 Y26.1753
G01 X32.4788 Y26.2410
G01 X32.4820 Y26.3073
G01 X32.4788 Y26.3736
G01 X32.4690 Y26.4392
G01 X32.4529 Y26.5036
G01 X32.4305 Y26.5661
G01 X32.4022 Y26.6261
G01 X32.3680 Y26.6830
G01 X32.3285 Y26.7364
G01 X32.2839 Y26.7855
G01 X32.2348 Y26.8301
G01 X32.1814 Y26.8696
G01 X32.1245 Y26.9038
G01 X32.0645 Y26.9321
G01 X32.0020 Y26.9545
G01 X31.9376 Y26.9706
G01 X31.8757 Y26.9799
G01 X31.8682 Y26.9806
G01 X31.8057 Y26.9836
G01 X31.0057 Y26.9836
G01 X30.9375 Y26.9802
G01 X30.8737 Y26.9706
G01 X30.8130 Y26.9555
G01 X30.8058 Y26.9533
G01 X30.7469 Y26.9321
G01 X30.6902 Y26.9055
G01 X30.6836 Y26.9019
G01 X30.6299 Y26.8696
G01 X30.5766 Y26.8301
G01 X30.5274 Y26.7855
G01 X30.4853 Y26.7392
G01 X30.4805 Y26.7334
G01 X30.4433 Y26.6830
G01 X30.4092 Y26.6261
G01 X30.3823 Y26.5695
G01 X30.3795 Y26.5626
G01 X30.3596 Y26.5072
G01 X30.3575 Y26.5000
G01 X30.3423 Y26.4392
G01 X30.3326 Y26.3736
G01 X30.3293 Y26.3073
G01 X30.3323 Y26.2447
G01 X30.3330 Y26.2373
G01 X30.3417 Y26.1790
G01 X30.3431 Y26.1717
G01 X30.3585 Y26.1109
G01 X30.3795 Y26.0519
G01 X30.3823 Y26.0450
G01 X30.4075 Y25.9918
G01 X30.4110 Y25.9852
G01 X30.4433 Y25.9315
G01 X30.4829 Y25.8782
G01 X30.5248 Y25.8317
G01 X30.5301 Y25.8264
G01 X30.5766 Y25.7845
G01 X30.6299 Y25.7449
G01 X30.6869 Y25.7108
G01 X30.7434 Y25.6839
G01 X30.7503 Y25.6811
G01 X30.8093 Y25.6601
G01 X30.8737 Y25.6439
G01 X30.9357 Y25.6346
G01 X30.9431 Y25.6339
G01 X31.0057 Y25.6309
G00 Z2.0000
G00 X30.7022 Y29.5235
G01 F50.00
G01 Z-0.2001
G01 F80.00
G01 X30.6710 Y29.5220
G01 X30.6365 Y29.5172
G01 X30.6027 Y29.5093
G01 X30.5697 Y29.4982
G01 X30.5379 Y29.4842
G01 X30.5076 Y29.4673
G01 X30.4789 Y29.4476
G01 X30.4548 Y29.4277
G01 X30.4496 Y29.4230
G01 X30.4300 Y29.4034
G01 X30.4252 Y29.3982
G01 X30.4053 Y29.3741
G01 X30.3876 Y29.3484
G01 X30.3839 Y29.3424
G01 X30.3688 Y29.3150
G01 X30.3547 Y29.2832
G01 X30.3437 Y29.2503
G01 X30.3354 Y29.2147
G01 X30.3309 Y29.1820
G01 X30.3293 Y29.1473
G01 X30.3293 Y28.5473
G01 X30.3311 Y28.5104
G01 X30.3362 Y28.4757
G01 X30.3455 Y28.4380
G01 X30.3580 Y28.4033
G01 X30.3738 Y28.3699
G01 X30.3928 Y28.3382
G01 X30.4148 Y28.3085
G01 X30.4396 Y28.2812
G01 X30.4669 Y28.2564
G01 X30.4950 Y28.2354
G01 X30.5250 Y28.2172
G01 X30.5316 Y28.2137
G01 X30.5617 Y28.1996
G01 X30.5964 Y28.1871
G01 X30.6286 Y28.1790
G01 X30.6360 Y28.1775
G01 X30.6688 Y28.1727
G01 X30.7019 Y28.1710
G01 X32.1057 Y28.1709
G01 X32.1388 Y28.1725
G01 X32.1463 Y28.1732
G01 X32.1791 Y28.1782
G01 X32.2149 Y28.1871
G01 X32.2497 Y28.1996
G01 X32.2797 Y28.2137
G01 X32.2864 Y28.2172
G01 X32.3116 Y28.2324
G01 X32.3178 Y28.2365
G01 X32.3444 Y28.2564
G01 X32.3691 Y28.2786
G01 X32.3744 Y28.2839
G01 X32.3966 Y28.3085
G01 X32.4175 Y28.3366
G01 X32.4376 Y28.3699
G01 X32.4519 Y28.3998
G01 X32.4547 Y28.4068
G01 X32.4658 Y28.4380
G01 X32.4740 Y28.4702
G01 X32.4754 Y28.4776
G01 X32.4804 Y28.5123
G01 X32.4820 Y28.5473
G01 X32.4820 Y29.1473
G01 X32.4802 Y29.1842
G01 X32.4748 Y29.2207
G01 X32.4658 Y29.2565
G01 X32.4534 Y29.2913
G01 X32.4393 Y29.3213
G01 X32.4357 Y29.3280
G01 X32.4206 Y29.3532
G01 X32.4164 Y29.3594
G01 X32.3966 Y29.3860
G01 X32.3744 Y29.4107
G01 X32.3691 Y29.4160
G01 X32.3444 Y29.4382
G01 X32.3163 Y29.4591
G01 X32.2864 Y29.4773
G01 X32.2797 Y29.4809
G01 X32.2497 Y29.4950
G01 X32.2149 Y29.5074
G01 X32.1828 Y29.5156
G01 X32.1754 Y29.5170
G01 X32.1426 Y29.5218
G01 X32.1094 Y29.5235
G01 X30.7022 Y29.5235
G00 Z2.0000
G00 X30.6965 Y29.6456
G01 F50.00
G01 Z-0.2001
G01 F80.00
G01 X30.6597 Y29.6437
G01 X30.6141 Y29.6373
G01 X30.5693 Y29.6268
G01 X30.5256 Y29.6121
G01 X30.4835 Y29.5935
G01 X30.4432 Y29.5711
G01 X30.4053 Y29.5451
G01 X30.3768 Y29.5217
G01 X30.3665 Y29.5126
G01 X30.3436 Y29.4898
G01 X30.3313 Y29.4762
G01 X30.3136 Y29.4549
G01 X30.3051 Y29.4440
G01 X30.2868 Y29.4174
G01 X30.2795 Y29.4058
G01 X30.2594 Y29.3695
G01 X30.2408 Y29.3274
G01 X30.2262 Y29.2837
G01 X30.2166 Y29.2434
G01 X30.2142 Y29.2298
G01 X30.2093 Y29.1933
G01 X30.2072 Y29.1473
G01 X30.2072 Y28.5424
G01 X30.2096 Y28.4984
G01 X30.2159 Y28.4548
G01 X30.2189 Y28.4405
G01 X30.2273 Y28.4072
G01 X30.2317 Y28.3933
G01 X30.2416 Y28.3656
G01 X30.2470 Y28.3520
G01 X30.2617 Y28.3210
G01 X30.2708 Y28.3038
G01 X30.2860 Y28.2786
G01 X30.2939 Y28.2663
G01 X30.3143 Y28.2387
G01 X30.3235 Y28.2273
G01 X30.3532 Y28.1948
G01 X30.3821 Y28.1683
G01 X30.3932 Y28.1589
G01 X30.4287 Y28.1328
G01 X30.4622 Y28.1124
G01 X30.4794 Y28.1033
G01 X30.5149 Y28.0867
G01 X30.5610 Y28.0702
G01 X30.5989 Y28.0605
G01 X30.6180 Y28.0567
G01 X30.6471 Y28.0524
G01 X30.6617 Y28.0508
G01 X30.7057 Y28.0488
G01 X32.1106 Y28.0488
G01 X32.1448 Y28.0505
G01 X32.1594 Y28.0517
G01 X32.1981 Y28.0575
G01 X32.2124 Y28.0605
G01 X32.2457 Y28.0689
G01 X32.2596 Y28.0733
G01 X32.2965 Y28.0867
G01 X32.3320 Y28.1033
G01 X32.3492 Y28.1124
G01 X32.3826 Y28.1328
G01 X32.4219 Y28.1619
G01 X32.4582 Y28.1948
G01 X32.4847 Y28.2237
G01 X32.4941 Y28.2348
G01 X32.5202 Y28.2703
G01 X32.5405 Y28.3038
G01 X32.5497 Y28.3210
G01 X32.5662 Y28.3565
G01 X32.5797 Y28.3933
G01 X32.5853 Y28.4120
G01 X32.5946 Y28.4500
G01 X32.6013 Y28.4936
G01 X32.6025 Y28.5081
G01 X32.6042 Y28.5473
G01 X32.6042 Y29.1473
G01 X32.6025 Y29.1864
G01 X32.6006 Y29.2058
G01 X32.5946 Y29.2445
G01 X32.5827 Y29.2920
G01 X32.5662 Y29.3381
G01 X32.5453 Y29.3823
G01 X32.5202 Y29.4242
G01 X32.4910 Y29.4635
G01 X32.4582 Y29.4998
G01 X32.4293 Y29.5263
G01 X32.4181 Y29.5357
G01 X32.3826 Y29.5618
G01 X32.3492 Y29.5821
G01 X32.3320 Y29.5913
G01 X32.2965 Y29.6078
G01 X32.2504 Y29.6243
G01 X32.2124 Y29.6341
G01 X32.1933 Y29.6379
G01 X32.1642 Y29.6422
G01 X32.1497 Y29.6438
G01 X32.1057 Y29.6458
G01 X30.6965 Y29.6456
G00 Z2.0000
G00 X31.0057 Y30.5888
G01 F50.00
G01 Z-0.2001
G01 F80.00
G01 X31.8106 Y30.5888
G01 X31.8839 Y30.5926
G01 X31.9567 Y30.6032
G01 X31.9710 Y30.6062
G01 X32.0281 Y30.6206
G01 X32.0467 Y30.6262
G01 X32.1113 Y30.6496
G01 X32.1821 Y30.6831
G01 X32.2411 Y30.7181
G01 X32.2573 Y30.7290
G01 X32.3122 Y30.7700
G01 X32.3703 Y30.8226
G01 X32.4229 Y30.8807
G01 X32.4696 Y30.9437
G01 X32.5099 Y31.0109
G01 X32.5434 Y31.0817
G01 X32.5698 Y31.1555
G01 X32.5888 Y31.2315
G01 X32.6003 Y31.3090
G01 X32.6042 Y31.3873
G01 X32.6003 Y31.4655
G01 X32.5888 Y31.5431
G01 X32.5698 Y31.6191
G01 X32.5434 Y31.6929
G01 X32.5099 Y31.7637
G01 X32.4696 Y31.8309
G01 X32.4229 Y31.8938
G01 X32.3703 Y31.9519
G01 X32.3196 Y31.9982
G01 X32.3046 Y32.0105
G01 X32.2493 Y32.0512
G01 X32.1821 Y32.0915
G01 X32.1113 Y32.1250
G01 X32.0467 Y32.1484
G01 X32.0281 Y32.1540
G01 X31.9710 Y32.1683
G01 X31.9567 Y32.1713
G01 X31.8839 Y32.1819
G01 X31.8106 Y32.1857
G01 X31.0057 Y32.1858
G01 X30.9274 Y32.1819
G01 X30.8499 Y32.1704
G01 X30.7739 Y32.1514
G01 X30.7001 Y32.1250
G01 X30.6293 Y32.0915
G01 X30.5621 Y32.0512
G01 X30.4991 Y32.0045
G01 X30.4410 Y31.9519
G01 X30.3948 Y31.9012
G01 X30.3824 Y31.8862
G01 X30.3417 Y31.8309
G01 X30.3015 Y31.7637
G01 X30.2719 Y31.7018
G01 X30.2644 Y31.6838
G01 X30.2416 Y31.6191
G01 X30.2225 Y31.5431
G01 X30.2122 Y31.4752
G01 X30.2103 Y31.4558
G01 X30.2072 Y31.3873
G01 X30.2110 Y31.3090
G01 X30.2208 Y31.2411
G01 X30.2246 Y31.2220
G01 X30.2416 Y31.1555
G01 X30.2680 Y31.0817
G01 X30.2971 Y31.0196
G01 X30.3063 Y31.0024
G01 X30.3417 Y30.9437
G01 X30.3884 Y30.8807
G01 X30.4343 Y30.8297
G01 X30.4481 Y30.8159
G01 X30.4991 Y30.7700
G01 X30.5621 Y30.7233
G01 X30.6293 Y30.6831
G01 X30.6912 Y30.6535
G01 X30.7092 Y30.6460
G01 X30.7739 Y30.6232
G01 X30.8499 Y30.6041
G01 X30.9177 Y30.5938
G01 X30.9371 Y30.5919
G01 X31.0057 Y30.5888
G00 Z2.0000
G00 X31.0057 Y30.7109
G01 F50.00
G01 Z-0.2001
G01 F80.00
G01 X31.8057 Y30.7109
G01 X31.8738 Y30.7144
G01 X31.9376 Y30.7239
G01 X31.9984 Y30.7391
G01 X32.0056 Y30.7412
G01 X32.0645 Y30.7624
G01 X32.1212 Y30.7891
G01 X32.1278 Y30.7926
G01 X32.1814 Y30.8249
G01 X32.2348 Y30.8645
G01 X32.2839 Y30.9090
G01 X32.3285 Y30.9582
G01 X32.3680 Y31.0115
G01 X32.4022 Y31.0685
G01 X32.4305 Y31.1285
G01 X32.4529 Y31.1909
G01 X32.4690 Y31.2553
G01 X32.4788 Y31.3210
G01 X32.4820 Y31.3873
G01 X32.4788 Y31.4536
G01 X32.4690 Y31.5192
G01 X32.4529 Y31.5836
G01 X32.4305 Y31.6461
G01 X32.4022 Y31.7061
G01 X32.3680 Y31.7630
G01 X32.3285 Y31.8164
G01 X32.2839 Y31.8655
G01 X32.2348 Y31.9101
G01 X32.1814 Y31.9496
G01 X32.1245 Y31.9838
G01 X32.0645 Y32.0121
G01 X32.0020 Y32.0345
G01 X31.9376 Y32.0506
G01 X31.8757 Y32.0599
G01 X31.8682 Y32.0606
G01 X31.8057 Y32.0636
G01 X31.0057 Y32.0636
G01 X30.9375 Y32.0602
G01 X30.8737 Y32.0506
G01 X30.8130 Y32.0355
G01 X30.8058 Y32.0333
G01 X30.7469 Y32.0121
G01 X30.6902 Y31.9855
G01 X30.6836 Y31.9819
G01 X30.6299 Y31.9496
G01 X30.5766 Y31.9101
G01 X30.5274 Y31.8655
G01 X30.4853 Y31.8192
G01 X30.4805 Y31.8134
G01 X30.4433 Y31.7630
G01 X30.4092 Y31.7061
G01 X30.3823 Y31.6495
G01 X30.3795 Y31.6426
G01 X30.3596 Y31.5872
G01 X30.3575 Y31.5800
G01 X30.3423 Y31.5192
G01 X30.3326 Y31.4536
G01 X30.3293 Y31.3873
G01 X30.3323 Y31.3247
G01 X30.3330 Y31.3173
G01 X30.3417 Y31.2590
G01 X30.3431 Y31.2517
G01 X30.3585 Y31.1909
G01 X30.3795 Y31.1319
G01 X30.3823 Y31.1250
G01 X30.4075 Y31.0718
G01 X30.4110 Y31.0652
G01 X30.4433 Y31.0115
G01 X30.4829 Y30.9582
G01 X30.5248 Y30.9117
G01 X30.5301 Y30.9064
G01 X30.5766 Y30.8645
G01 X30.6299 Y30.8249
G01 X30.6869 Y30.7908
G01 X30.7434 Y30.7639
G01 X30.7503 Y30.7611
G01 X30.8093 Y30.7401
G01 X30.8737 Y30.7239
G01 X30.9357 Y30.7146
G01 X30.9431 Y30.7139
G01 X31.0057 Y30.7109
G00 Z2.0000
G00 X31.0057 Y33.1288
G01 F50.00
G01 Z-0.2001
G01 F80.00
G01 X31.8106 Y33.1288
G01 X31.8839 Y33.1326
G01 X31.9567 Y33.1432
G01 X31.9710 Y33.1462
G01 X32.0281 Y33.1606
G01 X32.0467 Y33.1662
G01 X32.1113 Y33.1896
G01 X32.1821 Y33.2231
G01 X32.2411 Y33.2581
G01 X32.2573 Y33.2690
G01 X32.3122 Y33.3100
G01 X32.3703 Y33.3626
G01 X32.4229 Y33.4207
G01 X32.4696 Y33.4837
G01 X32.5099 Y33.5509
G01 X32.5434 Y33.6217
G01 X32.5698 Y33.6955
G01 X32.5888 Y33.7715
G01 X32.6003 Y33.8490
G01 X32.6042 Y33.9273
G01 X32.6003 Y34.0055
G01 X32.5888 Y34.0831
G01 X32.5698 Y34.1591
G01 X32.5434 Y34.2329
G01 X32.5099 Y34.3037
G01 X32.4696 Y34.3709
G01 X32.4229 Y34.4338
G01 X32.3703 Y34.4919
G01 X32.3196 Y34.5382
G01 X32.3046 Y34.5505
G01 X32.2493 Y34.5912
G01 X32.1821 Y34.6315
G01 X32.1113 Y34.6650
G01 X32.0467 Y34.6884
G01 X32.0281 Y34.6940
G01 X31.9710 Y34.7083
G01 X31.9567 Y34.7113
G01 X31.8839 Y34.7219
G01 X31.8106 Y34.7257
G01 X31.0057 Y34.7258
G01 X30.9274 Y34.7219
G01 X30.8499 Y34.7104
G01 X30.7739 Y34.6914
G01 X30.7001 Y34.6650
G01 X30.6293 Y34.6315
G01 X30.5621 Y34.5912
G01 X30.4991 Y34.5445
G01 X30.4410 Y34.4919
G01 X30.3948 Y34.4412
G01 X30.3824 Y34.4262
G01 X30.3417 Y34.3709
G01 X30.3015 Y34.3037
G01 X30.2719 Y34.2418
G01 X30.2644 Y34.2238
G01 X30.2416 Y34.1591
G01 X30.2225 Y34.0831
G01 X30.2122 Y34.0152
G01 X30.2103 Y33.9958
G01 X30.2072 Y33.9273
G01 X30.2110 Y33.8490
G01 X30.2208 Y33.7811
G01 X30.2246 Y33.7620
G01 X30.2416 Y33.6955
G01 X30.2680 Y33.6217
G01 X30.2971 Y33.5596
G01 X30.3063 Y33.5424
G01 X30.3417 Y33.4837
G01 X30.3884 Y33.4207
G01 X30.4343 Y33.3697
G01 X30.4481 Y33.3559
G01 X30.4991 Y33.3100
G01 X30.5621 Y33.2633
G01 X30.6293 Y33.2231
G01 X30.6912 Y33.1935
G01 X30.7092 Y33.1860
G01 X30.7739 Y33.1632
G01 X30.8499 Y33.1441
G01 X30.9177 Y33.1338
G01 X30.9371 Y33.1319
G01 X31.0057 Y33.1288
G00 Z2.0000
G00 X31.0057 Y33.2509
G01 F50.00
G01 Z-0.2001
G01 F80.00
G01 X31.8057 Y33.2509
G01 X31.8738 Y33.2544
G01 X31.9376 Y33.2639
G01 X31.9984 Y33.2791
G01 X32.0056 Y33.2812
G01 X32.0645 Y33.3024
G01 X32.1212 Y33.3291
G01 X32.1278 Y33.3326
G01 X32.1814 Y33.3649
G01 X32.2348 Y33.4045
G01 X32.2839 Y33.4490
G01 X32.3285 Y33.4982
G01 X32.3680 Y33.5515
G01 X32.4022 Y33.6085
G01 X32.4305 Y33.6685
G01 X32.4529 Y33.7309
G01 X32.4690 Y33.7953
G01 X32.4788 Y33.8610
G01 X32.4820 Y33.9273
G01 X32.4788 Y33.9936
G01 X32.4690 Y34.0592
G01 X32.4529 Y34.1236
G01 X32.4305 Y34.1861
G01 X32.4022 Y34.2461
G01 X32.3680 Y34.3030
G01 X32.3285 Y34.3564
G01 X32.2839 Y34.4055
G01 X32.2348 Y34.4501
G01 X32.1814 Y34.4896
G01 X32.1245 Y34.5238
G01 X32.0645 Y34.5521
G01 X32.0020 Y34.5745
G01 X31.9376 Y34.5906
G01 X31.8757 Y34.5999
G01 X31.8682 Y34.6006
G01 X31.8057 Y34.6036
G01 X31.0057 Y34.6036
G01 X30.9375 Y34.6002
G01 X30.8737 Y34.5906
G01 X30.8130 Y34.5755
G01 X30.8058 Y34.5733
G01 X30.7469 Y34.5521
G01 X30.6902 Y34.5255
G01 X30.6836 Y34.5219
G01 X30.6299 Y34.4896
G01 X30.5766 Y34.4501
G01 X30.5274 Y34.4055
G01 X30.4853 Y34.3592
G01 X30.4805 Y34.3534
G01 X30.4433 Y34.3030
G01 X30.4092 Y34.2461
G01 X30.3823 Y34.1895
G01 X30.3795 Y34.1826
G01 X30.3596 Y34.1272
G01 X30.3575 Y34.1200
G01 X30.3423 Y34.0592
G01 X30.3326 Y33.9936
G01 X30.3293 Y33.9273
G01 X30.3323 Y33.8647
G01 X30.3330 Y33.8573
G01 X30.3417 Y33.7990
G01 X30.3431 Y33.7917
G01 X30.3585 Y33.7309
G01 X30.3795 Y33.6719
G01 X30.3823 Y33.6650
G01 X30.4075 Y33.6118
G01 X30.4110 Y33.6052
G01 X30.4433 Y33.5515
G01 X30.4829 Y33.4982
G01 X30.5248 Y33.4517
G01 X30.5301 Y33.4464
G01 X30.5766 Y33.4045
G01 X30.6299 Y33.3649
G01 X30.6869 Y33.3308
G01 X30.7434 Y33.3039
G01 X30.7503 Y33.3011
G01 X30.8093 Y33.2801
G01 X30.8737 Y33.2639
G01 X30.9357 Y33.2546
G01 X30.9431 Y33.2539
G01 X31.0057 Y33.2509
G00 Z2.0000
G00 X31.0057 Y35.6688
G01 F50.00
G01 Z-0.2001
G01 F80.00
G01 X31.8106 Y35.6688
G01 X31.8839 Y35.6726
G01 X31.9567 Y35.6832
G01 X31.9710 Y35.6862
G01 X32.0281 Y35.7006
G01 X32.0467 Y35.7062
G01 X32.1113 Y35.7296
G01 X32.1821 Y35.7631
G01 X32.2411 Y35.7981
G01 X32.2573 Y35.8090
G01 X32.3122 Y35.8500
G01 X32.3703 Y35.9026
G01 X32.4229 Y35.9607
G01 X32.4696 Y36.0237
G01 X32.5099 Y36.0909
G01 X32.5434 Y36.1617
G01 X32.5698 Y36.2355
G01 X32.5888 Y36.3115
G01 X32.6003 Y36.3890
G01 X32.6042 Y36.4673
G01 X32.6003 Y36.5455
G01 X32.5888 Y36.6231
G01 X32.5698 Y36.6991
G01 X32.5434 Y36.7729
G01 X32.5099 Y36.8437
G01 X32.4696 Y36.9109
G01 X32.4229 Y36.9738
G01 X32.3703 Y37.0319
G01 X32.3196 Y37.0782
G01 X32.3046 Y37.0905
G01 X32.2493 Y37.1312
G01 X32.1821 Y37.1715
G01 X32.1113 Y37.2050
G01 X32.0467 Y37.2284
G01 X32.0281 Y37.2340
G01 X31.9710 Y37.2483
G01 X31.9567 Y37.2513
G01 X31.8839 Y37.2619
G01 X31.8106 Y37.2657
G01 X31.0057 Y37.2658
G01 X30.9274 Y37.2619
G01 X30.8499 Y37.2504
G01 X30.7739 Y37.2314
G01 X30.7001 Y37.2050
G01 X30.6293 Y37.1715
G01 X30.5621 Y37.1312
G01 X30.4991 Y37.0845
G01 X30.4410 Y37.0319
G01 X30.3948 Y36.9812
G01 X30.3824 Y36.9662
G01 X30.3417 Y36.9109
G01 X30.3015 Y36.8437
G01 X30.2719 Y36.7818
G01 X30.2644 Y36.7638
G01 X30.2416 Y36.6991
G01 X30.2225 Y36.6231
G01 X30.2122 Y36.5552
G01 X30.2103 Y36.5358
G01 X30.2072 Y36.4673
G01 X30.2110 Y36.3890
G01 X30.2208 Y36.3211
G01 X30.2246 Y36.3020
G01 X30.2416 Y36.2355
G01 X30.2680 Y36.1617
G01 X30.2971 Y36.0996
G01 X30.3063 Y36.0824
G01 X30.3417 Y36.0237
G01 X30.3884 Y35.9607
G01 X30.4343 Y35.9097
G01 X30.4481 Y35.8959
G01 X30.4991 Y35.8500
G01 X30.5621 Y35.8033
G01 X30.6293 Y35.7631
G01 X30.6912 Y35.7335
G01 X30.7092 Y35.7260
G01 X30.7739 Y35.7032
G01 X30.8499 Y35.6841
G01 X30.9177 Y35.6738
G01 X30.9371 Y35.6719
G01 X31.0057 Y35.6688
G00 Z2.0000
G00 X31.0057 Y35.7909
G01 F50.00
G01 Z-0.2001
G01 F80.00
G01 X31.8057 Y35.7909
G01 X31.8738 Y35.7944
G01 X31.9376 Y35.8039
G01 X31.9984 Y35.8191
G01 X32.0056 Y35.8212
G01 X32.0645 Y35.8424
G01 X32.1212 Y35.8691
G01 X32.1278 Y35.8726
G01 X32.1814 Y35.9049
G01 X32.2348 Y35.9445
G01 X32.2839 Y35.9890
G01 X32.3285 Y36.0382
G01 X32.3680 Y36.0915
G01 X32.4022 Y36.1485
G01 X32.4305 Y36.2085
G01 X32.4529 Y36.2709
G01 X32.4690 Y36.3353
G01 X32.4788 Y36.4010
G01 X32.4820 Y36.4673
G01 X32.4788 Y36.5336
G01 X32.4690 Y36.5992
G01 X32.4529 Y36.6636
G01 X32.4305 Y36.7261
G01 X32.4022 Y36.7861
G01 X32.3680 Y36.8430
G01 X32.3285 Y36.8964
G01 X32.2839 Y36.9455
G01 X32.2348 Y36.9901
G01 X32.1814 Y37.0296
G01 X32.1245 Y37.0638
G01 X32.0645 Y37.0921
G01 X32.0020 Y37.1145
G01 X31.9376 Y37.1306
G01 X31.8757 Y37.1399
G01 X31.8682 Y37.1406
G01 X31.8057 Y37.1436
G01 X31.0057 Y37.1436
G01 X30.9375 Y37.1402
G01 X30.8737 Y37.1306
G01 X30.8130 Y37.1155
G01 X30.8058 Y37.1133
G01 X30.7469 Y37.0921
G01 X30.6902 Y37.0655
G01 X30.6836 Y37.0619
G01 X30.6299 Y37.0296
G01 X30.5766 Y36.9901
G01 X30.5274 Y36.9455
G01 X30.4853 Y36.8992
G01 X30.4805 Y36.8934
G01 X30.4433 Y36.8430
G01 X30.4092 Y36.7861
G01 X30.3823 Y36.7295
G01 X30.3795 Y36.7226
G01 X30.3596 Y36.6672
G01 X30.3575 Y36.6600
G01 X30.3423 Y36.5992
G01 X30.3326 Y36.5336
G01 X30.3293 Y36.4673
G01 X30.3323 Y36.4047
G01 X30.3330 Y36.3973
G01 X30.3417 Y36.3390
G01 X30.3431 Y36.3317
G01 X30.3585 Y36.2709
G01 X30.3795 Y36.2119
G01 X30.3823 Y36.2050
G01 X30.4075 Y36.1518
G01 X30.4110 Y36.1452
G01 X30.4433 Y36.0915
G01 X30.4829 Y36.0382
G01 X30.5248 Y35.9917
G01 X30.5301 Y35.9864
G01 X30.5766 Y35.9445
G01 X30.6299 Y35.9049
G01 X30.6869 Y35.8708
G01 X30.7434 Y35.8439
G01 X30.7503 Y35.8411
G01 X30.8093 Y35.8201
G01 X30.8737 Y35.8039
G01 X30.9357 Y35.7946
G01 X30.9431 Y35.7939
G01 X31.0057 Y35.7909
G00 Z2.0000
G00 X31.0057 Y38.2088
G01 F50.00
G01 Z-0.2001
G01 F80.00
G01 X31.8106 Y38.2088
G01 X31.8839 Y38.2126
G01 X31.9567 Y38.2232
G01 X31.9710 Y38.2262
G01 X32.0281 Y38.2406
G01 X32.0467 Y38.2462
G01 X32.1113 Y38.2696
G01 X32.1821 Y38.3031
G01 X32.2411 Y38.3381
G01 X32.2573 Y38.3490
G01 X32.3122 Y38.3900
G01 X32.3703 Y38.4426
G01 X32.4229 Y38.5007
G01 X32.4696 Y38.5637
G01 X32.5099 Y38.6309
G01 X32.5434 Y38.7017
G01 X32.5698 Y38.7755
G01 X32.5888 Y38.8515
G01 X32.6003 Y38.9290
G01 X32.6042 Y39.0073
G01 X32.6003 Y39.0855
G01 X32.5888 Y39.1631
G01 X32.5698 Y39.2391
G01 X32.5434 Y39.3129
G01 X32.5099 Y39.3837
G01 X32.4696 Y39.4509
G01 X32.4229 Y39.5138
G01 X32.3703 Y39.5719
G01 X32.3196 Y39.6182
G01 X32.3046 Y39.6305
G01 X32.2493 Y39.6712
G01 X32.1821 Y39.7115
G01 X32.1113 Y39.7450
G01 X32.0467 Y39.7684
G01 X32.0281 Y39.7740
G01 X31.9710 Y39.7883
G01 X31.9567 Y39.7913
G01 X31.8839 Y39.8019
G01 X31.8106 Y39.8057
G01 X31.0057 Y39.8058
G01 X30.9274 Y39.8019
G01 X30.8499 Y39.7904
G01 X30.7739 Y39.7714
G01 X30.7001 Y39.7450
G01 X30.6293 Y39.7115
G01 X30.5621 Y39.6712
G01 X30.4991 Y39.6245
G01 X30.4410 Y39.5719
G01 X30.3948 Y39.5212
G01 X30.3824 Y39.5062
G01 X30.3417 Y39.4509
G01 X30.3015 Y39.3837
G01 X30.2719 Y39.3218
G01 X30.2644 Y39.3038
G01 X30.2416 Y39.2391
G01 X30.2225 Y39.1631
G01 X30.2122 Y39.0952
G01 X30.2103 Y39.0758
G01 X30.2072 Y39.0073
G01 X30.2110 Y38.9290
G01 X30.2208 Y38.8611
G01 X30.2246 Y38.8420
G01 X30.2416 Y38.7755
G01 X30.2680 Y38.7017
G01 X30.2971 Y38.6396
G01 X30.3063 Y38.6224
G01 X30.3417 Y38.5637
G01 X30.3884 Y38.5007
G01 X30.4343 Y38.4497
G01 X30.4481 Y38.4359
G01 X30.4991 Y38.3900
G01 X30.5621 Y38.3433
G01 X30.6293 Y38.3031
G01 X30.6912 Y38.2735
G01 X30.7092 Y38.2660
G01 X30.7739 Y38.2432
G01 X30.8499 Y38.2241
G01 X30.9177 Y38.2138
G01 X30.9371 Y38.2119
G01 X31.0057 Y38.2088
G00 Z2.0000
G00 X31.0057 Y38.3309
G01 F50.00
G01 Z-0.2001
G01 F80.00
G01 X31.8057 Y38.3309
G01 X31.8738 Y38.3344
G01 X31.9376 Y38.3439
G01 X31.9984 Y38.3591
G01 X32.0056 Y38.3612
G01 X32.0645 Y38.3824
G01 X32.1212 Y38.4091
G01 X32.1278 Y38.4126
G01 X32.1814 Y38.4449
G01 X32.2348 Y38.4845
G01 X32.2839 Y38.5290
G01 X32.3285 Y38.5782
G01 X32.3680 Y38.6315
G01 X32.4022 Y38.6885
G01 X32.4305 Y38.7485
G01 X32.4529 Y38.8109
G01 X32.4690 Y38.8753
G01 X32.4788 Y38.9410
G01 X32.4820 Y39.0073
G01 X32.4788 Y39.0736
G01 X32.4690 Y39.1392
G01 X32.4529 Y39.2036
G01 X32.4305 Y39.2661
G01 X32.4022 Y39.3261
G01 X32.3680 Y39.3830
G01 X32.3285 Y39.4364
G01 X32.2839 Y39.4855
G01 X32.2348 Y39.5301
G01 X32.1814 Y39.5696
G01 X32.1245 Y39.6038
G01 X32.0645 Y39.6321
G01 X32.0020 Y39.6545
G01 X31.9376 Y39.6706
G01 X31.8757 Y39.6799
G01 X31.8682 Y39.6806
G01 X31.8057 Y39.6836
G01 X31.0057 Y39.6836
G01 X30.9375 Y39.6802
G01 X30.8737 Y39.6706
G01 X30.8130 Y39.6555
G01 X30.8058 Y39.6533
G01 X30.7469 Y39.6321
G01 X30.6902 Y39.6055
G01 X30.6836 Y39.6019
G01 X30.6299 Y39.5696
G01 X30.5766 Y39.5301
G01 X30.5274 Y39.4855
G01 X30.4853 Y39.4392
G01 X30.4805 Y39.4334
G01 X30.4433 Y39.3830
G01 X30.4092 Y39.3261
G01 X30.3823 Y39.2695
G01 X30.3795 Y39.2626
G01 X30.3596 Y39.2072
G01 X30.3575 Y39.2000
G01 X30.3423 Y39.1392
G01 X30.3326 Y39.0736
G01 X30.3293 Y39.0073
G01 X30.3323 Y38.9447
G01 X30.3330 Y38.9373
G01 X30.3417 Y38.8790
G01 X30.3431 Y38.8717
G01 X30.3585 Y38.8109
G01 X30.3795 Y38.7519
G01 X30.3823 Y38.7450
G01 X30.4075 Y38.6918
G01 X30.4110 Y38.6852
G01 X30.4433 Y38.6315
G01 X30.4829 Y38.5782
G01 X30.5248 Y38.5317
G01 X30.5301 Y38.5264
G01 X30.5766 Y38.4845
G01 X30.6299 Y38.4449
G01 X30.6869 Y38.4108
G01 X30.7434 Y38.3839
G01 X30.7503 Y38.3811
G01 X30.8093 Y38.3601
G01 X30.8737 Y38.3439
G01 X30.9357 Y38.3346
G01 X30.9431 Y38.3339
G01 X31.0057 Y38.3309
G00 Z2.0000
G00 X31.0057 Y40.7488
G01 F50.00
G01 Z-0.2001
G01 F80.00
G01 X31.8106 Y40.7488
G01 X31.8839 Y40.7526
G01 X31.9567 Y40.7632
G01 X31.9710 Y40.7662
G01 X32.0281 Y40.7806
G01 X32.0467 Y40.7862
G01 X32.1113 Y40.8096
G01 X32.1821 Y40.8431
G01 X32.2411 Y40.8781
G01 X32.2573 Y40.8890
G01 X32.3122 Y40.9300
G01 X32.3703 Y40.9826
G01 X32.4229 Y41.0407
G01 X32.4696 Y41.1037
G01 X32.5099 Y41.1709
G01 X32.5434 Y41.2417
G01 X32.5698 Y41.3155
G01 X32.5888 Y41.3915
G01 X32.6003 Y41.4690
G01 X32.6042 Y41.5473
G01 X32.6003 Y41.6255
G01 X32.5888 Y41.7031
G01 X32.5698 Y41.7791
G01 X32.5434 Y41.8529
G01 X32.5099 Y41.9237
G01 X32.4696 Y41.9909
G01 X32.4229 Y42.0538
G01 X32.3703 Y42.1119
G01 X32.3196 Y42.1582
G01 X32.3046 Y42.1705
G01 X32.2493 Y42.2112
G01 X32.1821 Y42.2515
G01 X32.1113 Y42.2850
G01 X32.0467 Y42.3084
G01 X32.0281 Y42.3140
G01 X31.9710 Y42.3283
G01 X31.9567 Y42.3313
G01 X31.8839 Y42.3419
G01 X31.8106 Y42.3457
G01 X31.0057 Y42.3458
G01 X30.9274 Y42.3419
G01 X30.8499 Y42.3304
G01 X30.7739 Y42.3114
G01 X30.7001 Y42.2850
G01 X30.6293 Y42.2515
G01 X30.5621 Y42.2112
G01 X30.4991 Y42.1645
G01 X30.4410 Y42.1119
G01 X30.3948 Y42.0612
G01 X30.3824 Y42.0462
G01 X30.3417 Y41.9909
G01 X30.3015 Y41.9237
G01 X30.2719 Y41.8618
G01 X30.2644 Y41.8438
G01 X30.2416 Y41.7791
G01 X30.2225 Y41.7031
G01 X30.2122 Y41.6352
G01 X30.2103 Y41.6158
G01 X30.2072 Y41.5473
G01 X30.2110 Y41.4690
G01 X30.2208 Y41.4011
G01 X30.2246 Y41.3820
G01 X30.2416 Y41.3155
G01 X30.2680 Y41.2417
G01 X30.2971 Y41.1796
G01 X30.3063 Y41.1624
G01 X30.3417 Y41.1037
G01 X30.3884 Y41.0407
G01 X30.4343 Y40.9897
G01 X30.4481 Y40.9759
G01 X30.4991 Y40.9300
G01 X30.5621 Y40.8833
G01 X30.6293 Y40.8431
G01 X30.6912 Y40.8135
G01 X30.7092 Y40.8060
G01 X30.7739 Y40.7832
G01 X30.8499 Y40.7641
G01 X30.9177 Y40.7538
G01 X30.9371 Y40.7519
G01 X31.0057 Y40.7488
G00 Z2.0000
G00 X31.0057 Y40.8709
G01 F50.00
G01 Z-0.2001
G01 F80.00
G01 X31.8057 Y40.8709
G01 X31.8738 Y40.8744
G01 X31.9376 Y40.8839
G01 X31.9984 Y40.8991
G01 X32.0056 Y40.9012
G01 X32.0645 Y40.9224
G01 X32.1212 Y40.9491
G01 X32.1278 Y40.9526
G01 X32.1814 Y40.9849
G01 X32.2348 Y41.0245
G01 X32.2839 Y41.0690
G01 X32.3285 Y41.1182
G01 X32.3680 Y41.1715
G01 X32.4022 Y41.2285
G01 X32.4305 Y41.2885
G01 X32.4529 Y41.3509
G01 X32.4690 Y41.4153
G01 X32.4788 Y41.4810
G01 X32.4820 Y41.5473
G01 X32.4788 Y41.6136
G01 X32.4690 Y41.6792
G01 X32.4529 Y41.7436
G01 X32.4305 Y41.8061
G01 X32.4022 Y41.8661
G01 X32.3680 Y41.9230
G01 X32.3285 Y41.9764
G01 X32.2839 Y42.0255
G01 X32.2348 Y42.0701
G01 X32.1814 Y42.1096
G01 X32.1245 Y42.1438
G01 X32.0645 Y42.1721
G01 X32.0020 Y42.1945
G01 X31.9376 Y42.2106
G01 X31.8757 Y42.2199
G01 X31.8682 Y42.2206
G01 X31.8057 Y42.2236
G01 X31.0057 Y42.2236
G01 X30.9375 Y42.2202
G01 X30.8737 Y42.2106
G01 X30.8130 Y42.1955
G01 X30.8058 Y42.1933
G01 X30.7469 Y42.1721
G01 X30.6902 Y42.1455
G01 X30.6836 Y42.1419
G01 X30.6299 Y42.1096
G01 X30.5766 Y42.0701
G01 X30.5274 Y42.0255
G01 X30.4853 Y41.9792
G01 X30.4805 Y41.9734
G01 X30.4433 Y41.9230
G01 X30.4092 Y41.8661
G01 X30.3823 Y41.8095
G01 X30.3795 Y41.8026
G01 X30.3596 Y41.7472
G01 X30.3575 Y41.7400
G01 X30.3423 Y41.6792
G01 X30.3326 Y41.6136
G01 X30.3293 Y41.5473
G01 X30.3323 Y41.4847
G01 X30.3330 Y41.4773
G01 X30.3417 Y41.4190
G01 X30.3431 Y41.4117
G01 X30.3585 Y41.3509
G01 X30.3795 Y41.2919
G01 X30.3823 Y41.2850
G01 X30.4075 Y41.2318
G01 X30.4110 Y41.2252
G01 X30.4433 Y41.1715
G01 X30.4829 Y41.1182
G01 X30.5248 Y41.0717
G01 X30.5301 Y41.0664
G01 X30.5766 Y41.0245
G01 X30.6299 Y40.9849
G01 X30.6869 Y40.9508
G01 X30.7434 Y40.9239
G01 X30.7503 Y40.9211
G01 X30.8093 Y40.9001
G01 X30.8737 Y40.8839
G01 X30.9357 Y40.8746
G01 X30.9431 Y40.8739
G01 X31.0057 Y40.8709
G00 Z2.0000
G00 X31.0057 Y43.2888
G01 F50.00
G01 Z-0.2001
G01 F80.00
G01 X31.8106 Y43.2888
G01 X31.8839 Y43.2926
G01 X31.9567 Y43.3032
G01 X31.9710 Y43.3062
G01 X32.0281 Y43.3206
G01 X32.0467 Y43.3262
G01 X32.1113 Y43.3496
G01 X32.1821 Y43.3831
G01 X32.2411 Y43.4181
G01 X32.2573 Y43.4290
G01 X32.3122 Y43.4700
G01 X32.3703 Y43.5226
G01 X32.4229 Y43.5807
G01 X32.4696 Y43.6437
G01 X32.5099 Y43.7109
G01 X32.5434 Y43.7817
G01 X32.5698 Y43.8555
G01 X32.5888 Y43.9315
G01 X32.6003 Y44.0090
G01 X32.6042 Y44.0873
G01 X32.6003 Y44.1655
G01 X32.5888 Y44.2431
G01 X32.5698 Y44.3191
G01 X32.5434 Y44.3929
G01 X32.5099 Y44.4637
G01 X32.4696 Y44.5309
G01 X32.4229 Y44.5938
G01 X32.3703 Y44.6519
G01 X32.3196 Y44.6982
G01 X32.3046 Y44.7105
G01 X32.2493 Y44.7512
G01 X32.1821 Y44.7915
G01 X32.1113 Y44.8250
G01 X32.0467 Y44.8484
G01 X32.0281 Y44.8540
G01 X31.9710 Y44.8683
G01 X31.9567 Y44.8713
G01 X31.8839 Y44.8819
G01 X31.8106 Y44.8857
G01 X31.0057 Y44.8858
G01 X30.9274 Y44.8819
G01 X30.8499 Y44.8704
G01 X30.7739 Y44.8514
G01 X30.7001 Y44.8250
G01 X30.6293 Y44.7915
G01 X30.5621 Y44.7512
G01 X30.4991 Y44.7045
G01 X30.4410 Y44.6519
G01 X30.3948 Y44.6012
G01 X30.3824 Y44.5862
G01 X30.3417 Y44.5309
G01 X30.3015 Y44.4637
G01 X30.2719 Y44.4018
G01 X30.2644 Y44.3838
G01 X30.2416 Y44.3191
G01 X30.2225 Y44.2431
G01 X30.2122 Y44.1752
G01 X30.2103 Y44.1558
G01 X30.2072 Y44.0873
G01 X30.2110 Y44.0090
G01 X30.2208 Y43.9411
G01 X30.2246 Y43.9220
G01 X30.2416 Y43.8555
G01 X30.2680 Y43.7817
G01 X30.2971 Y43.7196
G01 X30.3063 Y43.7024
G01 X30.3417 Y43.6437
G01 X30.3884 Y43.5807
G01 X30.4343 Y43.5297
G01 X30.4481 Y43.5159
G01 X30.4991 Y43.4700
G01 X30.5621 Y43.4233
G01 X30.6293 Y43.3831
G01 X30.6912 Y43.3535
G01 X30.7092 Y43.3460
G01 X30.7739 Y43.3232
G01 X30.8499 Y43.3041
G01 X30.9177 Y43.2938
G01 X30.9371 Y43.2919
G01 X31.0057 Y43.2888
G00 Z2.0000
G00 X31.0057 Y43.4109
G01 F50.00
G01 Z-0.2001
G01 F80.00
G01 X31.8057 Y43.4109
G01 X31.8738 Y43.4144
G01 X31.9376 Y43.4239
G01 X31.9984 Y43.4391
G01 X32.0056 Y43.4412
G01 X32.0645 Y43.4624
G01 X32.1212 Y43.4891
G01 X32.1278 Y43.4926
G01 X32.1814 Y43.5249
G01 X32.2348 Y43.5645
G01 X32.2839 Y43.6090
G01 X32.3285 Y43.6582
G01 X32.3680 Y43.7115
G01 X32.4022 Y43.7685
G01 X32.4305 Y43.8285
G01 X32.4529 Y43.8909
G01 X32.4690 Y43.9553
G01 X32.4788 Y44.0210
G01 X32.4820 Y44.0873
G01 X32.4788 Y44.1536
G01 X32.4690 Y44.2192
G01 X32.4529 Y44.2836
G01 X32.4305 Y44.3461
G01 X32.4022 Y44.4061
G01 X32.3680 Y44.4630
G01 X32.3285 Y44.5164
G01 X32.2839 Y44.5655
G01 X32.2348 Y44.6101
G01 X32.1814 Y44.6496
G01 X32.1245 Y44.6838
G01 X32.0645 Y44.7121
G01 X32.0020 Y44.7345
G01 X31.9376 Y44.7506
G01 X31.8757 Y44.7599
G01 X31.8682 Y44.7606
G01 X31.8057 Y44.7636
G01 X31.0057 Y44.7636
G01 X30.9375 Y44.7602
G01 X30.8737 Y44.7506
G01 X30.8130 Y44.7355
G01 X30.8058 Y44.7333
G01 X30.7469 Y44.7121
G01 X30.6902 Y44.6855
G01 X30.6836 Y44.6819
G01 X30.6299 Y44.6496
G01 X30.5766 Y44.6101
G01 X30.5274 Y44.5655
G01 X30.4853 Y44.5192
G01 X30.4805 Y44.5134
G01 X30.4433 Y44.4630
G01 X30.4092 Y44.4061
G01 X30.3823 Y44.3495
G01 X30.3795 Y44.3426
G01 X30.3596 Y44.2872
G01 X30.3575 Y44.2800
G01 X30.3423 Y44.2192
G01 X30.3326 Y44.1536
G01 X30.3293 Y44.0873
G01 X30.3323 Y44.0247
G01 X30.3330 Y44.0173
G01 X30.3417 Y43.9590
G01 X30.3431 Y43.9517
G01 X30.3585 Y43.8909
G01 X30.3795 Y43.8319
G01 X30.3823 Y43.8250
G01 X30.4075 Y43.7718
G01 X30.4110 Y43.7652
G01 X30.4433 Y43.7115
G01 X30.4829 Y43.6582
G01 X30.5248 Y43.6117
G01 X30.5301 Y43.6064
G01 X30.5766 Y43.5645
G01 X30.6299 Y43.5249
G01 X30.6869 Y43.4908
G01 X30.7434 Y43.4639
G01 X30.7503 Y43.4611
G01 X30.8093 Y43.4401
G01 X30.8737 Y43.4239
G01 X30.9357 Y43.4146
G01 X30.9431 Y43.4139
G01 X31.0057 Y43.4109
G00 Z2.0000
G00 X31.0057 Y45.8288
G01 F50.00
G01 Z-0.2001
G01 F80.00
G01 X31.8106 Y45.8288
G01 X31.8839 Y45.8326
G01 X31.9567 Y45.8432
G01 X31.9710 Y45.8462
G01 X32.0281 Y45.8606
G01 X32.0467 Y45.8662
G01 X32.1113 Y45.8896
G01 X32.1821 Y45.9231
G01 X32.2411 Y45.9581
G01 X32.2573 Y45.9690
G01 X32.3122 Y46.0100
G01 X32.3703 Y46.0626
G01 X32.4229 Y46.1207
G01 X32.4696 Y46.1837
G01 X32.5099 Y46.2509
G01 X32.5434 Y46.3217
G01 X32.5698 Y46.3955
G01 X32.5888 Y46.4715
G01 X32.6003 Y46.5490
G01 X32.6042 Y46.6273
G01 X32.6003 Y46.7055
G01 X32.5888 Y46.7831
G01 X32.5698 Y46.8591
G01 X32.5434 Y46.9329
G01 X32.5099 Y47.0037
G01 X32.4696 Y47.0709
G01 X32.4229 Y47.1338
G01 X32.3703 Y47.1919
G01 X32.3196 Y47.2382
G01 X32.3046 Y47.2505
G01 X32.2493 Y47.2912
G01 X32.1821 Y47.3315
G01 X32.1113 Y47.3650
G01 X32.0467 Y47.3884
G01 X32.0281 Y47.3940
G01 X31.9710 Y47.4083
G01 X31.9567 Y47.4113
G01 X31.8839 Y47.4219
G01 X31.8106 Y47.4257
G01 X31.0057 Y47.4258
G01 X30.9274 Y47.4219
G01 X30.8499 Y47.4104
G01 X30.7739 Y47.3914
G01 X30.7001 Y47.3650
G01 X30.6293 Y47.3315
G01 X30.5621 Y47.2912
G01 X30.4991 Y47.2445
G01 X30.4410 Y47.1919
G01 X30.3948 Y47.1412
G01 X30.3824 Y47.1262
G01 X30.3417 Y47.0709
G01 X30.3015 Y47.0037
G01 X30.2719 Y46.9418
G01 X30.2644 Y46.9238
G01 X30.2416 Y46.8591
G01 X30.2225 Y46.7831
G01 X30.2122 Y46.7152
G01 X30.2103 Y46.6958
G01 X30.2072 Y46.6273
G01 X30.2110 Y46.5490
G01 X30.2208 Y46.4811
G01 X30.2246 Y46.4620
G01 X30.2416 Y46.3955
G01 X30.2680 Y46.3217
G01 X30.2971 Y46.2596
G01 X30.3063 Y46.2424
G01 X30.3417 Y46.1837
G01 X30.3884 Y46.1207
G01 X30.4343 Y46.0697
G01 X30.4481 Y46.0559
G01 X30.4991 Y46.0100
G01 X30.5621 Y45.9633
G01 X30.6293 Y45.9231
G01 X30.6912 Y45.8935
G01 X30.7092 Y45.8860
G01 X30.7739 Y45.8632
G01 X30.8499 Y45.8441
G01 X30.9177 Y45.8338
G01 X30.9371 Y45.8319
G01 X31.0057 Y45.8288
G00 Z2.0000
G00 X31.0057 Y45.9509
G01 F50.00
G01 Z-0.2001
G01 F80.00
G01 X31.8057 Y45.9509
G01 X31.8738 Y45.9544
G01 X31.9376 Y45.9639
G01 X31.9984 Y45.9791
G01 X32.0056 Y45.9812
G01 X32.0645 Y46.0024
G01 X32.1212 Y46.0291
G01 X32.1278 Y46.0326
G01 X32.1814 Y46.0649
G01 X32.2348 Y46.1045
G01 X32.2839 Y46.1490
G01 X32.3285 Y46.1982
G01 X32.3680 Y46.2515
G01 X32.4022 Y46.3085
G01 X32.4305 Y46.3685
G01 X32.4529 Y46.4309
G01 X32.4690 Y46.4953
G01 X32.4788 Y46.5610
G01 X32.4820 Y46.6273
G01 X32.4788 Y46.6936
G01 X32.4690 Y46.7592
G01 X32.4529 Y46.8236
G01 X32.4305 Y46.8861
G01 X32.4022 Y46.9461
G01 X32.3680 Y47.0030
G01 X32.3285 Y47.0564
G01 X32.2839 Y47.1055
G01 X32.2348 Y47.1501
G01 X32.1814 Y47.1896
G01 X32.1245 Y47.2238
G01 X32.0645 Y47.2521
G01 X32.0020 Y47.2745
G01 X31.9376 Y47.2906
G01 X31.8757 Y47.2999
G01 X31.8682 Y47.3006
G01 X31.8057 Y47.3036
G01 X31.0057 Y47.3036
G01 X30.9375 Y47.3002
G01 X30.8737 Y47.2906
G01 X30.8130 Y47.2755
G01 X30.8058 Y47.2733
G01 X30.7469 Y47.2521
G01 X30.6902 Y47.2255
G01 X30.6836 Y47.2219
G01 X30.6299 Y47.1896
G01 X30.5766 Y47.1501
G01 X30.5274 Y47.1055
G01 X30.4853 Y47.0592
G01 X30.4805 Y47.0534
G01 X30.4433 Y47.0030
G01 X30.4092 Y46.9461
G01 X30.3823 Y46.8895
G01 X30.3795 Y46.8826
G01 X30.3596 Y46.8272
G01 X30.3575 Y46.8200
G01 X30.3423 Y46.7592
G01 X30.3326 Y46.6936
G01 X30.3293 Y46.6273
G01 X30.3323 Y46.5647
G01 X30.3330 Y46.5573
G01 X30.3417 Y46.4990
G01 X30.3431 Y46.4917
G01 X30.3585 Y46.4309
G01 X30.3795 Y46.3719
G01 X30.3823 Y46.3650
G01 X30.4075 Y46.3118
G01 X30.4110 Y46.3052
G01 X30.4433 Y46.2515
G01 X30.4829 Y46.1982
G01 X30.5248 Y46.1517
G01 X30.5301 Y46.1464
G01 X30.5766 Y46.1045
G01 X30.6299 Y46.0649
G01 X30.6869 Y46.0308
G01 X30.7434 Y46.0039
G01 X30.7503 Y46.0011
G01 X30.8093 Y45.9801
G01 X30.8737 Y45.9639
G01 X30.9357 Y45.9546
G01 X30.9431 Y45.9539
G01 X31.0057 Y45.9509
G00 Z2.0000
G00 X31.0057 Y48.3688
G01 F50.00
G01 Z-0.2001
G01 F80.00
G01 X31.8106 Y48.3688
G01 X31.8839 Y48.3726
G01 X31.9567 Y48.3832
G01 X31.9710 Y48.3862
G01 X32.0281 Y48.4006
G01 X32.0467 Y48.4062
G01 X32.1113 Y48.4296
G01 X32.1821 Y48.4631
G01 X32.2411 Y48.4981
G01 X32.2573 Y48.5090
G01 X32.3122 Y48.5500
G01 X32.3703 Y48.6026
G01 X32.4229 Y48.6607
G01 X32.4696 Y48.7237
G01 X32.5099 Y48.7909
G01 X32.5434 Y48.8617
G01 X32.5698 Y48.9355
G01 X32.5888 Y49.0115
G01 X32.6003 Y49.0890
G01 X32.6042 Y49.1673
G01 X32.6003 Y49.2455
G01 X32.5888 Y49.3231
G01 X32.5698 Y49.3991
G01 X32.5434 Y49.4729
G01 X32.5099 Y49.5437
G01 X32.4696 Y49.6109
G01 X32.4229 Y49.6738
G01 X32.3703 Y49.7319
G01 X32.3196 Y49.7782
G01 X32.3046 Y49.7905
G01 X32.2493 Y49.8312
G01 X32.1821 Y49.8715
G01 X32.1113 Y49.9050
G01 X32.0467 Y49.9284
G01 X32.0281 Y49.9340
G01 X31.9710 Y49.9483
G01 X31.9567 Y49.9513
G01 X31.8839 Y49.9619
G01 X31.8106 Y49.9657
G01 X31.0057 Y49.9658
G01 X30.9274 Y49.9619
G01 X30.8499 Y49.9504
G01 X30.7739 Y49.9314
G01 X30.7001 Y49.9050
G01 X30.6293 Y49.8715
G01 X30.5621 Y49.8312
G01 X30.4991 Y49.7845
G01 X30.4410 Y49.7319
G01 X30.3948 Y49.6812
G01 X30.3824 Y49.6662
G01 X30.3417 Y49.6109
G01 X30.3015 Y49.5437
G01 X30.2719 Y49.4818
G01 X30.2644 Y49.4638
G01 X30.2416 Y49.3991
G01 X30.2225 Y49.3231
G01 X30.2122 Y49.2552
G01 X30.2103 Y49.2358
G01 X30.2072 Y49.1673
G01 X30.2110 Y49.0890
G01 X30.2208 Y49.0211
G01 X30.2246 Y49.0020
G01 X30.2416 Y48.9355
G01 X30.2680 Y48.8617
G01 X30.2971 Y48.7996
G01 X30.3063 Y48.7824
G01 X30.3417 Y48.7237
G01 X30.3884 Y48.6607
G01 X30.4343 Y48.6097
G01 X30.4481 Y48.5959
G01 X30.4991 Y48.5500
G01 X30.5621 Y48.5033
G01 X30.6293 Y48.4631
G01 X30.6912 Y48.4335
G01 X30.7092 Y48.4260
G01 X30.7739 Y48.4032
G01 X30.8499 Y48.3841
G01 X30.9177 Y48.3738
G01 X30.9371 Y48.3719
G01 X31.0057 Y48.3688
G00 Z2.0000
G00 X31.0057 Y48.4909
G01 F50.00
G01 Z-0.2001
G01 F80.00
G01 X31.8057 Y48.4909
G01 X31.8738 Y48.4944
G01 X31.9376 Y48.5039
G01 X31.9984 Y48.5191
G01 X32.0056 Y48.5212
G01 X32.0645 Y48.5424
G01 X32.1212 Y48.5691
G01 X32.1278 Y48.5726
G01 X32.1814 Y48.6049
G01 X32.2348 Y48.6445
G01 X32.2839 Y48.6890
G01 X32.3285 Y48.7382
G01 X32.3680 Y48.7915
G01 X32.4022 Y48.8485
G01 X32.4305 Y48.9085
G01 X32.4529 Y48.9709
G01 X32.4690 Y49.0353
G01 X32.4788 Y49.1010
G01 X32.4820 Y49.1673
G01 X32.4788 Y49.2336
G01 X32.4690 Y49.2992
G01 X32.4529 Y49.3636
G01 X32.4305 Y49.4261
G01 X32.4022 Y49.4861
G01 X32.3680 Y49.5430
G01 X32.3285 Y49.5964
G01 X32.2839 Y49.6455
G01 X32.2348 Y49.6901
G01 X32.1814 Y49.7296
G01 X32.1245 Y49.7638
G01 X32.0645 Y49.7921
G01 X32.0020 Y49.8145
G01 X31.9376 Y49.8306
G01 X31.8757 Y49.8399
G01 X31.8682 Y49.8406
G01 X31.8057 Y49.8436
G01 X31.0057 Y49.8436
G01 X30.9375 Y49.8402
G01 X30.8737 Y49.8306
G01 X30.8130 Y49.8155
G01 X30.8058 Y49.8133
G01 X30.7469 Y49.7921
G01 X30.6902 Y49.7655
G01 X30.6836 Y49.7619
G01 X30.6299 Y49.7296
G01 X30.5766 Y49.6901
G01 X30.5274 Y49.6455
G01 X30.4853 Y49.5992
G01 X30.4805 Y49.5934
G01 X30.4433 Y49.5430
G01 X30.4092 Y49.4861
G01 X30.3823 Y49.4295
G01 X30.3795 Y49.4226
G01 X30.3596 Y49.3672
G01 X30.3575 Y49.3600
G01 X30.3423 Y49.2992
G01 X30.3326 Y49.2336
G01 X30.3293 Y49.1673
G01 X30.3323 Y49.1047
G01 X30.3330 Y49.0973
G01 X30.3417 Y49.0390
G01 X30.3431 Y49.0317
G01 X30.3585 Y48.9709
G01 X30.3795 Y48.9119
G01 X30.3823 Y48.9050
G01 X30.4075 Y48.8518
G01 X30.4110 Y48.8452
G01 X30.4433 Y48.7915
G01 X30.4829 Y48.7382
G01 X30.5248 Y48.6917
G01 X30.5301 Y48.6864
G01 X30.5766 Y48.6445
G01 X30.6299 Y48.6049
G01 X30.6869 Y48.5708
G01 X30.7434 Y48.5439
G01 X30.7503 Y48.5411
G01 X30.8093 Y48.5201
G01 X30.8737 Y48.5039
G01 X30.9357 Y48.4946
G01 X30.9431 Y48.4939
G01 X31.0057 Y48.4909
G00 Z2.0000
G00 X31.0057 Y50.9088
G01 F50.00
G01 Z-0.2001
G01 F80.00
G01 X31.8106 Y50.9088
G01 X31.8839 Y50.9126
G01 X31.9567 Y50.9232
G01 X31.9710 Y50.9262
G01 X32.0281 Y50.9406
G01 X32.0467 Y50.9462
G01 X32.1113 Y50.9696
G01 X32.1821 Y51.0031
G01 X32.2411 Y51.0381
G01 X32.2573 Y51.0490
G01 X32.3122 Y51.0900
G01 X32.3703 Y51.1426
G01 X32.4229 Y51.2007
G01 X32.4696 Y51.2637
G01 X32.5099 Y51.3309
G01 X32.5434 Y51.4017
G01 X32.5698 Y51.4755
G01 X32.5888 Y51.5515
G01 X32.6003 Y51.6290
G01 X32.6042 Y51.7073
G01 X32.6003 Y51.7855
G01 X32.5888 Y51.8631
G01 X32.5698 Y51.9391
G01 X32.5434 Y52.0129
G01 X32.5099 Y52.0837
G01 X32.4696 Y52.1509
G01 X32.4229 Y52.2138
G01 X32.3703 Y52.2719
G01 X32.3196 Y52.3182
G01 X32.3046 Y52.3305
G01 X32.2493 Y52.3712
G01 X32.1821 Y52.4115
G01 X32.1113 Y52.4450
G01 X32.0467 Y52.4684
G01 X32.0281 Y52.4740
G01 X31.9710 Y52.4883
G01 X31.9567 Y52.4913
G01 X31.8839 Y52.5019
G01 X31.8106 Y52.5057
G01 X31.0057 Y52.5058
G01 X30.9274 Y52.5019
G01 X30.8499 Y52.4904
G01 X30.7739 Y52.4714
G01 X30.7001 Y52.4450
G01 X30.6293 Y52.4115
G01 X30.5621 Y52.3712
G01 X30.4991 Y52.3245
G01 X30.4410 Y52.2719
G01 X30.3948 Y52.2212
G01 X30.3824 Y52.2062
G01 X30.3417 Y52.1509
G01 X30.3015 Y52.0837
G01 X30.2719 Y52.0218
G01 X30.2644 Y52.0038
G01 X30.2416 Y51.9391
G01 X30.2225 Y51.8631
G01 X30.2122 Y51.7952
G01 X30.2103 Y51.7758
G01 X30.2072 Y51.7073
G01 X30.2110 Y51.6290
G01 X30.2208 Y51.5611
G01 X30.2246 Y51.5420
G01 X30.2416 Y51.4755
G01 X30.2680 Y51.4017
G01 X30.2971 Y51.3396
G01 X30.3063 Y51.3224
G01 X30.3417 Y51.2637
G01 X30.3884 Y51.2007
G01 X30.4343 Y51.1497
G01 X30.4481 Y51.1359
G01 X30.4991 Y51.0900
G01 X30.5621 Y51.0433
G01 X30.6293 Y51.0031
G01 X30.6912 Y50.9735
G01 X30.7092 Y50.9660
G01 X30.7739 Y50.9432
G01 X30.8499 Y50.9241
G01 X30.9177 Y50.9138
G01 X30.9371 Y50.9119
G01 X31.0057 Y50.9088
G00 Z2.0000
G00 X31.0057 Y51.0309
G01 F50.00
G01 Z-0.2001
G01 F80.00
G01 X31.8057 Y51.0309
G01 X31.8738 Y51.0344
G01 X31.9376 Y51.0439
G01 X31.9984 Y51.0591
G01 X32.0056 Y51.0612
G01 X32.0645 Y51.0824
G01 X32.1212 Y51.1091
G01 X32.1278 Y51.1126
G01 X32.1814 Y51.1449
G01 X32.2348 Y51.1845
G01 X32.2839 Y51.2290
G01 X32.3285 Y51.2782
G01 X32.3680 Y51.3315
G01 X32.4022 Y51.3885
G01 X32.4305 Y51.4485
G01 X32.4529 Y51.5109
G01 X32.4690 Y51.5753
G01 X32.4788 Y51.6410
G01 X32.4820 Y51.7073
G01 X32.4788 Y51.7736
G01 X32.4690 Y51.8392
G01 X32.4529 Y51.9036
G01 X32.4305 Y51.9661
G01 X32.4022 Y52.0261
G01 X32.3680 Y52.0830
G01 X32.3285 Y52.1364
G01 X32.2839 Y52.1855
G01 X32.2348 Y52.2301
G01 X32.1814 Y52.2696
G01 X32.1245 Y52.3038
G01 X32.0645 Y52.3321
G01 X32.0020 Y52.3545
G01 X31.9376 Y52.3706
G01 X31.8757 Y52.3799
G01 X31.8682 Y52.3806
G01 X31.8057 Y52.3836
G01 X31.0057 Y52.3836
G01 X30.9375 Y52.3802
G01 X30.8737 Y52.3706
G01 X30.8130 Y52.3555
G01 X30.8058 Y52.3533
G01 X30.7469 Y52.3321
G01 X30.6902 Y52.3055
G01 X30.6836 Y52.3019
G01 X30.6299 Y52.2696
G01 X30.5766 Y52.2301
G01 X30.5274 Y52.1855
G01 X30.4853 Y52.1392
G01 X30.4805 Y52.1334
G01 X30.4433 Y52.0830
G01 X30.4092 Y52.0261
G01 X30.3823 Y51.9695
G01 X30.3795 Y51.9626
G01 X30.3596 Y51.9072
G01 X30.3575 Y51.9000
G01 X30.3423 Y51.8392
G01 X30.3326 Y51.7736
G01 X30.3293 Y51.7073
G01 X30.3323 Y51.6447
G01 X30.3330 Y51.6373
G01 X30.3417 Y51.5790
G01 X30.3431 Y51.5717
G01 X30.3585 Y51.5109
G01 X30.3795 Y51.4519
G01 X30.3823 Y51.4450
G01 X30.4075 Y51.3918
G01 X30.4110 Y51.3852
G01 X30.4433 Y51.3315
G01 X30.4829 Y51.2782
G01 X30.5248 Y51.2317
G01 X30.5301 Y51.2264
G01 X30.5766 Y51.1845
G01 X30.6299 Y51.1449
G01 X30.6869 Y51.1108
G01 X30.7434 Y51.0839
G01 X30.7503 Y51.0811
G01 X30.8093 Y51.0601
G01 X30.8737 Y51.0439
G01 X30.9357 Y51.0346
G01 X30.9431 Y51.0339
G01 X31.0057 Y51.0309
G00 Z2.0000
G00 X31.0057 Y53.4488
G01 F50.00
G01 Z-0.2001
G01 F80.00
G01 X31.8106 Y53.4488
G01 X31.8839 Y53.4526
G01 X31.9567 Y53.4632
G01 X31.9710 Y53.4662
G01 X32.0281 Y53.4806
G01 X32.0467 Y53.4862
G01 X32.1113 Y53.5096
G01 X32.1821 Y53.5431
G01 X32.2411 Y53.5781
G01 X32.2573 Y53.5890
G01 X32.3122 Y53.6300
G01 X32.3703 Y53.6826
G01 X32.4229 Y53.7407
G01 X32.4696 Y53.8037
G01 X32.5099 Y53.8709
G01 X32.5434 Y53.9417
G01 X32.5698 Y54.0155
G01 X32.5888 Y54.0915
G01 X32.6003 Y54.1690
G01 X32.6042 Y54.2473
G01 X32.6003 Y54.3255
G01 X32.5888 Y54.4031
G01 X32.5698 Y54.4791
G01 X32.5434 Y54.5529
G01 X32.5099 Y54.6237
G01 X32.4696 Y54.6909
G01 X32.4229 Y54.7538
G01 X32.3703 Y54.8119
G01 X32.3122 Y54.8645
G01 X32.2573 Y54.9056
G01 X32.2411 Y54.9164
G01 X32.1821 Y54.9515
G01 X32.1113 Y54.9850
G01 X32.0467 Y55.0084
G01 X32.0281 Y55.0140
G01 X31.9710 Y55.0283
G01 X31.9567 Y55.0313
G01 X31.8839 Y55.0419
G01 X31.8106 Y55.0457
G01 X31.0057 Y55.0458
G01 X30.9274 Y55.0419
G01 X30.8499 Y55.0304
G01 X30.7739 Y55.0114
G01 X30.7001 Y54.9850
G01 X30.6293 Y54.9515
G01 X30.5621 Y54.9112
G01 X30.4991 Y54.8645
G01 X30.4410 Y54.8119
G01 X30.3948 Y54.7612
G01 X30.3824 Y54.7462
G01 X30.3417 Y54.6909
G01 X30.3015 Y54.6237
G01 X30.2719 Y54.5618
G01 X30.2644 Y54.5438
G01 X30.2416 Y54.4791
G01 X30.2225 Y54.4031
G01 X30.2122 Y54.3352
G01 X30.2103 Y54.3158
G01 X30.2072 Y54.2473
G01 X30.2110 Y54.1690
G01 X30.2208 Y54.1011
G01 X30.2246 Y54.0820
G01 X30.2416 Y54.0155
G01 X30.2680 Y53.9417
G01 X30.2971 Y53.8796
G01 X30.3063 Y53.8624
G01 X30.3417 Y53.8037
G01 X30.3884 Y53.7407
G01 X30.4343 Y53.6897
G01 X30.4481 Y53.6759
G01 X30.4991 Y53.6300
G01 X30.5621 Y53.5833
G01 X30.6293 Y53.5431
G01 X30.6912 Y53.5135
G01 X30.7092 Y53.5060
G01 X30.7739 Y53.4832
G01 X30.8499 Y53.4641
G01 X30.9177 Y53.4538
G01 X30.9371 Y53.4519
G01 X31.0057 Y53.4488
G00 Z2.0000
G00 X31.0057 Y53.5709
G01 F50.00
G01 Z-0.2001
G01 F80.00
G01 X31.8057 Y53.5709
G01 X31.8738 Y53.5744
G01 X31.9376 Y53.5839
G01 X31.9984 Y53.5991
G01 X32.0056 Y53.6012
G01 X32.0645 Y53.6224
G01 X32.1245 Y53.6508
G01 X32.1783 Y53.6829
G01 X32.1845 Y53.6871
G01 X32.2348 Y53.7245
G01 X32.2839 Y53.7690
G01 X32.3285 Y53.8182
G01 X32.3680 Y53.8715
G01 X32.4022 Y53.9285
G01 X32.4305 Y53.9885
G01 X32.4529 Y54.0509
G01 X32.4690 Y54.1153
G01 X32.4788 Y54.1810
G01 X32.4820 Y54.2473
G01 X32.4788 Y54.3136
G01 X32.4690 Y54.3792
G01 X32.4529 Y54.4436
G01 X32.4305 Y54.5061
G01 X32.4022 Y54.5661
G01 X32.3680 Y54.6230
G01 X32.3285 Y54.6764
G01 X32.2839 Y54.7255
G01 X32.2348 Y54.7701
G01 X32.1814 Y54.8096
G01 X32.1245 Y54.8438
G01 X32.0645 Y54.8721
G01 X32.0020 Y54.8945
G01 X31.9376 Y54.9106
G01 X31.8757 Y54.9199
G01 X31.8682 Y54.9206
G01 X31.8057 Y54.9236
G01 X31.0057 Y54.9236
G01 X30.9375 Y54.9202
G01 X30.8737 Y54.9106
G01 X30.8130 Y54.8955
G01 X30.8058 Y54.8933
G01 X30.7469 Y54.8721
G01 X30.6902 Y54.8455
G01 X30.6836 Y54.8419
G01 X30.6299 Y54.8096
G01 X30.5766 Y54.7701
G01 X30.5301 Y54.7281
G01 X30.5248 Y54.7228
G01 X30.4829 Y54.6764
G01 X30.4433 Y54.6230
G01 X30.4092 Y54.5661
G01 X30.3823 Y54.5095
G01 X30.3795 Y54.5026
G01 X30.3596 Y54.4472
G01 X30.3575 Y54.4400
G01 X30.3423 Y54.3792
G01 X30.3326 Y54.3136
G01 X30.3293 Y54.2473
G01 X30.3323 Y54.1847
G01 X30.3330 Y54.1773
G01 X30.3417 Y54.1190
G01 X30.3431 Y54.1117
G01 X30.3585 Y54.0509
G01 X30.3795 Y53.9919
G01 X30.3823 Y53.9850
G01 X30.4075 Y53.9318
G01 X30.4110 Y53.9252
G01 X30.4433 Y53.8715
G01 X30.4829 Y53.8182
G01 X30.5248 Y53.7717
G01 X30.5301 Y53.7664
G01 X30.5766 Y53.7245
G01 X30.6299 Y53.6849
G01 X30.6869 Y53.6508
G01 X30.7434 Y53.6239
G01 X30.7503 Y53.6211
G01 X30.8093 Y53.6001
G01 X30.8737 Y53.5839
G01 X30.9357 Y53.5746
G01 X30.9431 Y53.5739
G01 X31.0057 Y53.5709
G00 Z2.0000
G00 X31.0057 Y55.9888
G01 F50.00
G01 Z-0.2001
G01 F80.00
G01 X31.8106 Y55.9888
G01 X31.8839 Y55.9926
G01 X31.9567 Y56.0032
G01 X31.9710 Y56.0062
G01 X32.0281 Y56.0206
G01 X32.0467 Y56.0262
G01 X32.1113 Y56.0496
G01 X32.1821 Y56.0831
G01 X32.2493 Y56.1233
G01 X32.3046 Y56.1640
G01 X32.3196 Y56.1764
G01 X32.3703 Y56.2226
G01 X32.4229 Y56.2807
G01 X32.4696 Y56.3437
G01 X32.5099 Y56.4109
G01 X32.5434 Y56.4817
G01 X32.5698 Y56.5555
G01 X32.5888 Y56.6315
G01 X32.6003 Y56.7090
G01 X32.6042 Y56.7873
G01 X32.6003 Y56.8655
G01 X32.5888 Y56.9431
G01 X32.5698 Y57.0191
G01 X32.5434 Y57.0929
G01 X32.5099 Y57.1637
G01 X32.4696 Y57.2309
G01 X32.4229 Y57.2938
G01 X32.3703 Y57.3519
G01 X32.3196 Y57.3982
G01 X32.3046 Y57.4105
G01 X32.2493 Y57.4512
G01 X32.1821 Y57.4915
G01 X32.1113 Y57.5250
G01 X32.0467 Y57.5484
G01 X32.0281 Y57.5540
G01 X31.9710 Y57.5683
G01 X31.9567 Y57.5713
G01 X31.8839 Y57.5819
G01 X31.8106 Y57.5857
G01 X31.0057 Y57.5858
G01 X30.9274 Y57.5819
G01 X30.8499 Y57.5704
G01 X30.7739 Y57.5514
G01 X30.7001 Y57.5250
G01 X30.6293 Y57.4915
G01 X30.5621 Y57.4512
G01 X30.4991 Y57.4045
G01 X30.4410 Y57.3519
G01 X30.3884 Y57.2938
G01 X30.3474 Y57.2389
G01 X30.3365 Y57.2227
G01 X30.3015 Y57.1637
G01 X30.2719 Y57.1018
G01 X30.2644 Y57.0838
G01 X30.2416 Y57.0191
G01 X30.2225 Y56.9431
G01 X30.2122 Y56.8752
G01 X30.2103 Y56.8558
G01 X30.2072 Y56.7873
G01 X30.2110 Y56.7090
G01 X30.2208 Y56.6411
G01 X30.2246 Y56.6220
G01 X30.2416 Y56.5555
G01 X30.2680 Y56.4817
G01 X30.2971 Y56.4196
G01 X30.3063 Y56.4024
G01 X30.3417 Y56.3437
G01 X30.3884 Y56.2807
G01 X30.4410 Y56.2226
G01 X30.4917 Y56.1764
G01 X30.5068 Y56.1640
G01 X30.5621 Y56.1233
G01 X30.6208 Y56.0879
G01 X30.6380 Y56.0787
G01 X30.7001 Y56.0496
G01 X30.7739 Y56.0232
G01 X30.8499 Y56.0041
G01 X30.9177 Y55.9938
G01 X30.9371 Y55.9919
G01 X31.0057 Y55.9888
G00 Z2.0000
G00 X31.0057 Y56.1109
G01 F50.00
G01 Z-0.2001
G01 F80.00
G01 X31.8057 Y56.1109
G01 X31.8738 Y56.1144
G01 X31.9376 Y56.1239
G01 X31.9984 Y56.1391
G01 X32.0056 Y56.1412
G01 X32.0645 Y56.1624
G01 X32.1212 Y56.1891
G01 X32.1278 Y56.1926
G01 X32.1814 Y56.2249
G01 X32.2348 Y56.2645
G01 X32.2839 Y56.3090
G01 X32.3285 Y56.3582
G01 X32.3680 Y56.4115
G01 X32.4022 Y56.4685
G01 X32.4305 Y56.5285
G01 X32.4529 Y56.5909
G01 X32.4690 Y56.6553
G01 X32.4788 Y56.7210
G01 X32.4820 Y56.7873
G01 X32.4788 Y56.8536
G01 X32.4690 Y56.9192
G01 X32.4529 Y56.9836
G01 X32.4305 Y57.0461
G01 X32.4022 Y57.1061
G01 X32.3680 Y57.1630
G01 X32.3285 Y57.2164
G01 X32.2839 Y57.2655
G01 X32.2348 Y57.3101
G01 X32.1814 Y57.3496
G01 X32.1245 Y57.3838
G01 X32.0645 Y57.4121
G01 X32.0020 Y57.4345
G01 X31.9376 Y57.4506
G01 X31.8757 Y57.4599
G01 X31.8682 Y57.4606
G01 X31.8057 Y57.4636
G01 X31.0057 Y57.4636
G01 X30.9375 Y57.4602
G01 X30.8737 Y57.4506
G01 X30.8130 Y57.4355
G01 X30.8058 Y57.4333
G01 X30.7469 Y57.4121
G01 X30.6902 Y57.3855
G01 X30.6836 Y57.3819
G01 X30.6299 Y57.3496
G01 X30.5766 Y57.3101
G01 X30.5301 Y57.2681
G01 X30.5248 Y57.2628
G01 X30.4829 Y57.2164
G01 X30.4433 Y57.1630
G01 X30.4092 Y57.1061
G01 X30.3823 Y57.0495
G01 X30.3795 Y57.0426
G01 X30.3596 Y56.9872
G01 X30.3575 Y56.9800
G01 X30.3423 Y56.9192
G01 X30.3326 Y56.8536
G01 X30.3293 Y56.7873
G01 X30.3323 Y56.7247
G01 X30.3330 Y56.7173
G01 X30.3417 Y56.6590
G01 X30.3431 Y56.6517
G01 X30.3585 Y56.5909
G01 X30.3795 Y56.5319
G01 X30.3823 Y56.5250
G01 X30.4075 Y56.4718
G01 X30.4110 Y56.4652
G01 X30.4433 Y56.4115
G01 X30.4829 Y56.3582
G01 X30.5274 Y56.3090
G01 X30.5738 Y56.2669
G01 X30.5796 Y56.2621
G01 X30.6299 Y56.2249
G01 X30.6836 Y56.1926
G01 X30.6902 Y56.1891
G01 X30.7469 Y56.1624
G01 X30.8093 Y56.1401
G01 X30.8737 Y56.1239
G01 X30.9357 Y56.1146
G01 X30.9431 Y56.1139
G01 X31.0057 Y56.1109
G00 Z2.0000
G00 X31.0057 Y58.5288
G01 F50.00
G01 Z-0.2001
G01 F80.00
G01 X31.8106 Y58.5288
G01 X31.8839 Y58.5326
G01 X31.9567 Y58.5432
G01 X31.9710 Y58.5462
G01 X32.0281 Y58.5606
G01 X32.0467 Y58.5662
G01 X32.1113 Y58.5896
G01 X32.1821 Y58.6231
G01 X32.2493 Y58.6633
G01 X32.3046 Y58.7040
G01 X32.3196 Y58.7164
G01 X32.3703 Y58.7626
G01 X32.4229 Y58.8207
G01 X32.4696 Y58.8837
G01 X32.5099 Y58.9509
G01 X32.5434 Y59.0217
G01 X32.5698 Y59.0955
G01 X32.5888 Y59.1715
G01 X32.6003 Y59.2490
G01 X32.6042 Y59.3273
G01 X32.6003 Y59.4055
G01 X32.5888 Y59.4831
G01 X32.5698 Y59.5591
G01 X32.5434 Y59.6329
G01 X32.5099 Y59.7037
G01 X32.4696 Y59.7709
G01 X32.4229 Y59.8338
G01 X32.3703 Y59.8919
G01 X32.3122 Y59.9445
G01 X32.2573 Y59.9856
G01 X32.2411 Y59.9964
G01 X32.1821 Y60.0315
G01 X32.1113 Y60.0650
G01 X32.0467 Y60.0884
G01 X32.0281 Y60.0940
G01 X31.9710 Y60.1083
G01 X31.9567 Y60.1113
G01 X31.8839 Y60.1219
G01 X31.8106 Y60.1257
G01 X31.0057 Y60.1258
G01 X30.9274 Y60.1219
G01 X30.8499 Y60.1104
G01 X30.7739 Y60.0914
G01 X30.7001 Y60.0650
G01 X30.6293 Y60.0315
G01 X30.5621 Y59.9912
G01 X30.4991 Y59.9445
G01 X30.4410 Y59.8919
G01 X30.3884 Y59.8338
G01 X30.3474 Y59.7789
G01 X30.3365 Y59.7627
G01 X30.3015 Y59.7037
G01 X30.2719 Y59.6418
G01 X30.2644 Y59.6238
G01 X30.2416 Y59.5591
G01 X30.2225 Y59.4831
G01 X30.2122 Y59.4152
G01 X30.2103 Y59.3958
G01 X30.2072 Y59.3273
G01 X30.2110 Y59.2490
G01 X30.2208 Y59.1811
G01 X30.2246 Y59.1620
G01 X30.2416 Y59.0955
G01 X30.2680 Y59.0217
G01 X30.2971 Y58.9596
G01 X30.3063 Y58.9424
G01 X30.3417 Y58.8837
G01 X30.3884 Y58.8207
G01 X30.4410 Y58.7626
G01 X30.4917 Y58.7164
G01 X30.5068 Y58.7040
G01 X30.5621 Y58.6633
G01 X30.6293 Y58.6231
G01 X30.6912 Y58.5935
G01 X30.7092 Y58.5860
G01 X30.7739 Y58.5632
G01 X30.8499 Y58.5441
G01 X30.9177 Y58.5338
G01 X30.9371 Y58.5319
G01 X31.0057 Y58.5288
G00 Z2.0000
G00 X31.0057 Y58.6509
G01 F50.00
G01 Z-0.2001
G01 F80.00
G01 X31.8057 Y58.6509
G01 X31.8738 Y58.6544
G01 X31.9376 Y58.6639
G01 X31.9984 Y58.6791
G01 X32.0056 Y58.6812
G01 X32.0645 Y58.7024
G01 X32.1212 Y58.7291
G01 X32.1278 Y58.7326
G01 X32.1814 Y58.7649
G01 X32.2348 Y58.8045
G01 X32.2839 Y58.8490
G01 X32.3285 Y58.8982
G01 X32.3680 Y58.9515
G01 X32.4022 Y59.0085
G01 X32.4305 Y59.0685
G01 X32.4529 Y59.1309
G01 X32.4690 Y59.1953
G01 X32.4788 Y59.2610
G01 X32.4820 Y59.3273
G01 X32.4788 Y59.3936
G01 X32.4690 Y59.4592
G01 X32.4529 Y59.5236
G01 X32.4305 Y59.5861
G01 X32.4022 Y59.6461
G01 X32.3680 Y59.7030
G01 X32.3285 Y59.7564
G01 X32.2839 Y59.8055
G01 X32.2348 Y59.8501
G01 X32.1814 Y59.8896
G01 X32.1245 Y59.9238
G01 X32.0645 Y59.9521
G01 X32.0020 Y59.9745
G01 X31.9376 Y59.9906
G01 X31.8757 Y59.9999
G01 X31.8682 Y60.0006
G01 X31.8057 Y60.0036
G01 X31.0057 Y60.0036
G01 X30.9375 Y60.0002
G01 X30.8737 Y59.9906
G01 X30.8130 Y59.9755
G01 X30.8058 Y59.9733
G01 X30.7469 Y59.9521
G01 X30.6902 Y59.9255
G01 X30.6836 Y59.9219
G01 X30.6299 Y59.8896
G01 X30.5766 Y59.8501
G01 X30.5301 Y59.8081
G01 X30.5248 Y59.8028
G01 X30.4829 Y59.7564
G01 X30.4433 Y59.7030
G01 X30.4092 Y59.6461
G01 X30.3823 Y59.5895
G01 X30.3795 Y59.5826
G01 X30.3596 Y59.5272
G01 X30.3575 Y59.5200
G01 X30.3423 Y59.4592
G01 X30.3326 Y59.3936
G01 X30.3293 Y59.3273
G01 X30.3323 Y59.2647
G01 X30.3330 Y59.2573
G01 X30.3417 Y59.1990
G01 X30.3431 Y59.1917
G01 X30.3585 Y59.1309
G01 X30.3795 Y59.0719
G01 X30.3823 Y59.0650
G01 X30.4075 Y59.0118
G01 X30.4110 Y59.0052
G01 X30.4433 Y58.9515
G01 X30.4829 Y58.8982
G01 X30.5274 Y58.8490
G01 X30.5738 Y58.8069
G01 X30.5796 Y58.8021
G01 X30.6299 Y58.7649
G01 X30.6869 Y58.7308
G01 X30.7434 Y58.7039
G01 X30.7503 Y58.7011
G01 X30.8093 Y58.6801
G01 X30.8737 Y58.6639
G01 X30.9357 Y58.6546
G01 X30.9431 Y58.6539
G01 X31.0057 Y58.6509
G00 Z2.0000
G00 X32.2535 Y61.0195
G01 F50.00
G01 Z-0.2001
G01 F80.00
G01 X34.8260 Y63.5920
G01 X65.8304 Y63.5920
G01 X69.4460 Y59.9764
G01 X69.4460 Y43.5820
G01 X69.4510 Y43.4742
G01 X69.4530 Y43.4548
G01 X69.4690 Y43.3481
G01 X69.4976 Y43.2339
G01 X69.5373 Y43.1232
G01 X69.5832 Y43.0255
G01 X69.5924 Y43.0083
G01 X69.6428 Y42.9241
G01 X69.6537 Y42.9079
G01 X69.7182 Y42.8214
G01 X69.7972 Y42.7342
G01 X69.8844 Y42.6552
G01 X69.9709 Y42.5907
G01 X69.9871 Y42.5798
G01 X70.0713 Y42.5294
G01 X70.0885 Y42.5202
G01 X70.1862 Y42.4743
G01 X70.2969 Y42.4346
G01 X70.4111 Y42.4060
G01 X70.5178 Y42.3900
G01 X70.5372 Y42.3880
G01 X70.6353 Y42.3832
G01 X70.6547 Y42.3832
G01 X70.7625 Y42.3888
G01 X70.8789 Y42.4060
G01 X70.9931 Y42.4346
G01 X71.0948 Y42.4708
G01 X71.1127 Y42.4782
G01 X71.2015 Y42.5202
G01 X71.2187 Y42.5294
G01 X71.3111 Y42.5851
G01 X71.4056 Y42.6552
G01 X71.4928 Y42.7342
G01 X71.5655 Y42.8140
G01 X71.5778 Y42.8290
G01 X71.6363 Y42.9079
G01 X71.6472 Y42.9241
G01 X71.7024 Y43.0168
G01 X71.7508 Y43.1187
G01 X71.7562 Y43.1322
G01 X71.7924 Y43.2339
G01 X71.8210 Y43.3481
G01 X71.8382 Y43.4645
G01 X71.8440 Y43.5820
G01 X71.8440 Y60.4730
G01 X71.8382 Y60.5905
G01 X71.8226 Y60.6973
G01 X71.8200 Y60.7117
G01 X71.7924 Y60.8211
G01 X71.7562 Y60.9228
G01 X71.7488 Y60.9407
G01 X71.7024 Y61.0382
G01 X71.6472 Y61.1309
G01 X71.6363 Y61.1471
G01 X71.5718 Y61.2336
G01 X71.4962 Y61.3173
G01 X67.1713 Y65.6422
G01 X67.0876 Y65.7178
G01 X66.9931 Y65.7879
G01 X66.8922 Y65.8484
G01 X66.7903 Y65.8968
G01 X66.7768 Y65.9022
G01 X66.6751 Y65.9384
G01 X66.5609 Y65.9670
G01 X66.4445 Y65.9842
G01 X66.3270 Y65.9900
G01 X34.3294 Y65.9900
G01 X34.2216 Y65.9850
G01 X34.2022 Y65.9830
G01 X34.0955 Y65.9670
G01 X33.9813 Y65.9384
G01 X33.8706 Y65.8987
G01 X33.7729 Y65.8528
G01 X33.7557 Y65.8436
G01 X33.6715 Y65.7932
G01 X33.6553 Y65.7823
G01 X33.5688 Y65.7178
G01 X33.4851 Y65.6422
G01 X30.5544 Y62.7116
G01 X30.4788 Y62.6279
G01 X30.4087 Y62.5334
G01 X30.3482 Y62.4325
G01 X30.3019 Y62.3350
G01 X30.2961 Y62.3216
G01 X30.2583 Y62.2153
G01 X30.2297 Y62.1012
G01 X30.2124 Y61.9848
G01 X30.2069 Y61.8770
G01 X30.2069 Y61.8575
G01 X30.2117 Y61.7595
G01 X30.2136 Y61.7401
G01 X30.2297 Y61.6334
G01 X30.2583 Y61.5192
G01 X30.2979 Y61.4084
G01 X30.3482 Y61.3021
G01 X30.4087 Y61.2011
G01 X30.4728 Y61.1143
G01 X30.4852 Y61.0993
G01 X30.5511 Y61.0265
G01 X30.5649 Y61.0127
G01 X30.6450 Y60.9404
G01 X30.7395 Y60.8703
G01 X30.8405 Y60.8098
G01 X30.9379 Y60.7635
G01 X30.9559 Y60.7560
G01 X31.0484 Y60.7230
G01 X31.0670 Y60.7173
G01 X31.1718 Y60.6913
G01 X31.2882 Y60.6740
G01 X31.4057 Y60.6683
G01 X31.5232 Y60.6740
G01 X31.6396 Y60.6913
G01 X31.7537 Y60.7199
G01 X31.8645 Y60.7595
G01 X31.9622 Y60.8055
G01 X31.9794 Y60.8146
G01 X32.0636 Y60.8651
G01 X32.0798 Y60.8759
G01 X32.1663 Y60.9404
G01 X32.2535 Y61.0195
G00 Z2.0000
G00 X32.1671 Y61.1058
G01 F50.00
G01 Z-0.2001
G01 F80.00
G01 X34.7754 Y63.7141
G01 X65.8810 Y63.7141
G01 X69.5681 Y60.0270
G01 X69.5681 Y43.5820
G01 X69.5735 Y43.4746
G01 X69.5888 Y43.3719
G01 X69.6145 Y43.2694
G01 X69.6501 Y43.1699
G01 X69.6936 Y43.0777
G01 X69.6972 Y43.0711
G01 X69.7476 Y42.9869
G01 X69.7518 Y42.9807
G01 X69.8126 Y42.8989
G01 X69.8836 Y42.8206
G01 X69.9619 Y42.7496
G01 X70.0437 Y42.6888
G01 X70.0499 Y42.6846
G01 X70.1341 Y42.6342
G01 X70.1407 Y42.6306
G01 X70.2329 Y42.5871
G01 X70.3324 Y42.5515
G01 X70.4349 Y42.5258
G01 X70.5357 Y42.5108
G01 X70.5432 Y42.5101
G01 X70.6413 Y42.5052
G01 X70.6487 Y42.5052
G01 X70.7505 Y42.5103
G01 X70.8551 Y42.5258
G01 X70.9576 Y42.5515
G01 X71.0536 Y42.5858
G01 X71.0605 Y42.5886
G01 X71.1493 Y42.6306
G01 X71.1559 Y42.6342
G01 X71.2433 Y42.6866
G01 X71.3281 Y42.7496
G01 X71.4064 Y42.8206
G01 X71.4750 Y42.8960
G01 X71.4797 Y42.9018
G01 X71.5382 Y42.9807
G01 X71.5424 Y42.9869
G01 X71.5947 Y43.0744
G01 X71.6391 Y43.1682
G01 X71.6755 Y43.2694
G01 X71.7012 Y43.3719
G01 X71.7167 Y43.4765
G01 X71.7219 Y43.5820
G01 X71.7219 Y60.4730
G01 X71.7167 Y60.5785
G01 X71.7008 Y60.6849
G01 X71.6755 Y60.7856
G01 X71.6412 Y60.8816
G01 X71.6384 Y60.8885
G01 X71.5947 Y60.9806
G01 X71.5424 Y61.0681
G01 X71.5382 Y61.0743
G01 X71.4774 Y61.1561
G01 X71.4078 Y61.2331
G01 X67.0871 Y65.5538
G01 X67.0101 Y65.6234
G01 X66.9253 Y65.6864
G01 X66.8346 Y65.7407
G01 X66.7408 Y65.7851
G01 X66.6396 Y65.8215
G01 X66.5371 Y65.8472
G01 X66.4325 Y65.8627
G01 X66.3270 Y65.8679
G01 X34.3294 Y65.8679
G01 X34.2220 Y65.8625
G01 X34.1193 Y65.8472
G01 X34.0168 Y65.8215
G01 X33.9173 Y65.7859
G01 X33.8251 Y65.7424
G01 X33.8185 Y65.7388
G01 X33.7343 Y65.6884
G01 X33.7281 Y65.6842
G01 X33.6463 Y65.6234
G01 X33.5693 Y65.5538
G01 X30.6429 Y62.6274
G01 X30.5733 Y62.5504
G01 X30.5103 Y62.4655
G01 X30.4560 Y62.3749
G01 X30.4115 Y62.2811
G01 X30.3752 Y62.1799
G01 X30.3503 Y62.0810
G01 X30.3489 Y62.0737
G01 X30.3345 Y61.9765
G01 X30.3337 Y61.9691
G01 X30.3288 Y61.8673
G01 X30.3340 Y61.7617
G01 X30.3495 Y61.6572
G01 X30.3752 Y61.5547
G01 X30.4108 Y61.4552
G01 X30.4560 Y61.3597
G01 X30.5103 Y61.2690
G01 X30.5710 Y61.1871
G01 X30.5757 Y61.1813
G01 X30.6416 Y61.1085
G01 X30.6469 Y61.1032
G01 X30.7225 Y61.0349
G01 X30.8074 Y60.9719
G01 X30.8981 Y60.9176
G01 X30.9902 Y60.8739
G01 X30.9971 Y60.8711
G01 X31.0895 Y60.8380
G01 X31.0967 Y60.8358
G01 X31.1956 Y60.8111
G01 X31.3001 Y60.7956
G01 X31.4057 Y60.7904
G01 X31.5112 Y60.7956
G01 X31.6158 Y60.8111
G01 X31.7183 Y60.8368
G01 X31.8178 Y60.8724
G01 X31.9100 Y60.9159
G01 X31.9166 Y60.9194
G01 X32.0008 Y60.9699
G01 X32.0070 Y60.9741
G01 X32.0888 Y61.0349
G01 X32.1671 Y61.1058
G00 Z2.0000
G00 X26.9483 Y60.1647
G01 F50.00
G01 Z-0.2001
G01 F80.00
G01 X26.9420 Y60.2872
G01 X26.9226 Y60.4181
G01 X26.8904 Y60.5465
G01 X26.8459 Y60.6711
G01 X26.7893 Y60.7907
G01 X26.7212 Y60.9042
G01 X26.6424 Y61.0105
G01 X26.5535 Y61.1085
G01 X26.4555 Y61.1974
G01 X26.3492 Y61.2762
G01 X26.2357 Y61.3443
G01 X26.1161 Y61.4009
G01 X25.9915 Y61.4454
G01 X25.8631 Y61.4776
G01 X25.7322 Y61.4970
G01 X25.6000 Y61.5035
G01 X25.4678 Y61.4970
G01 X25.3369 Y61.4776
G01 X25.2085 Y61.4454
G01 X25.0839 Y61.4009
G01 X24.9643 Y61.3443
G01 X24.8508 Y61.2762
G01 X24.7445 Y61.1974
G01 X24.6465 Y61.1085
G01 X24.5576 Y61.0105
G01 X24.4788 Y60.9042
G01 X24.4107 Y60.7907
G01 X24.3541 Y60.6711
G01 X24.3096 Y60.5465
G01 X24.2774 Y60.4181
G01 X24.2580 Y60.2872
G01 X24.2515 Y60.1550
G01 X24.2580 Y60.0228
G01 X24.2774 Y59.8919
G01 X24.3096 Y59.7635
G01 X24.3541 Y59.6389
G01 X24.4107 Y59.5193
G01 X24.4788 Y59.4058
G01 X24.5576 Y59.2995
G01 X24.6465 Y59.2015
G01 X24.7445 Y59.1126
G01 X24.8508 Y59.0338
G01 X24.9643 Y58.9657
G01 X25.0839 Y58.9091
G01 X25.2085 Y58.8646
G01 X25.3369 Y58.8324
G01 X25.4678 Y58.8130
G01 X25.6000 Y58.8065
G01 X25.7322 Y58.8130
G01 X25.8631 Y58.8324
G01 X25.9915 Y58.8646
G01 X26.1161 Y58.9091
G01 X26.2357 Y58.9657
G01 X26.3492 Y59.0338
G01 X26.4555 Y59.1126
G01 X26.5535 Y59.2015
G01 X26.6424 Y59.2995
G01 X26.7212 Y59.4058
G01 X26.7893 Y59.5193
G01 X26.8459 Y59.6389
G01 X26.8904 Y59.7635
G01 X26.9226 Y59.8919
G01 X26.9420 Y60.0228
G01 X26.9483 Y60.1453
G01 X26.9483 Y60.1647
G00 Z2.0000
G00 X26.8263 Y60.1587
G01 F50.00
G01 Z-0.2001
G01 F80.00
G01 X26.8204 Y60.2752
G01 X26.8028 Y60.3942
G01 X26.7735 Y60.5110
G01 X26.7330 Y60.6243
G01 X26.6815 Y60.7331
G01 X26.6197 Y60.8363
G01 X26.5480 Y60.9330
G01 X26.4672 Y61.0222
G01 X26.3780 Y61.1030
G01 X26.2813 Y61.1747
G01 X26.1781 Y61.2365
G01 X26.0693 Y61.2880
G01 X25.9560 Y61.3285
G01 X25.8392 Y61.3578
G01 X25.7202 Y61.3754
G01 X25.6000 Y61.3813
G01 X25.4798 Y61.3754
G01 X25.3608 Y61.3578
G01 X25.2440 Y61.3285
G01 X25.1307 Y61.2880
G01 X25.0219 Y61.2365
G01 X24.9187 Y61.1747
G01 X24.8220 Y61.1030
G01 X24.7328 Y61.0222
G01 X24.6520 Y60.9330
G01 X24.5803 Y60.8363
G01 X24.5185 Y60.7331
G01 X24.4670 Y60.6243
G01 X24.4265 Y60.5110
G01 X24.3972 Y60.3942
G01 X24.3796 Y60.2752
G01 X24.3737 Y60.1550
G01 X24.3796 Y60.0348
G01 X24.3972 Y59.9158
G01 X24.4265 Y59.7990
G01 X24.4670 Y59.6857
G01 X24.5185 Y59.5769
G01 X24.5803 Y59.4737
G01 X24.6520 Y59.3770
G01 X24.7328 Y59.2878
G01 X24.8220 Y59.2070
G01 X24.9187 Y59.1353
G01 X25.0219 Y59.0735
G01 X25.1307 Y59.0220
G01 X25.2440 Y58.9815
G01 X25.3608 Y58.9522
G01 X25.4798 Y58.9346
G01 X25.6000 Y58.9287
G01 X25.7202 Y58.9346
G01 X25.8392 Y58.9522
G01 X25.9560 Y58.9815
G01 X26.0693 Y59.0220
G01 X26.1781 Y59.0735
G01 X26.2813 Y59.1353
G01 X26.3780 Y59.2070
G01 X26.4672 Y59.2878
G01 X26.5480 Y59.3770
G01 X26.6197 Y59.4737
G01 X26.6815 Y59.5769
G01 X26.7330 Y59.6857
G01 X26.7735 Y59.7990
G01 X26.8028 Y59.9158
G01 X26.8204 Y60.0348
G01 X26.8263 Y60.1513
G01 X26.8263 Y60.1587
G00 Z2.0000
G00 X11.5483 Y60.1647
G01 F50.00
G01 Z-0.2001
G01 F80.00
G01 X11.5420 Y60.2872
G01 X11.5226 Y60.4181
G01 X11.4904 Y60.5465
G01 X11.4459 Y60.6711
G01 X11.3893 Y60.7907
G01 X11.3212 Y60.9042
G01 X11.2424 Y61.0105
G01 X11.1535 Y61.1085
G01 X11.0555 Y61.1974
G01 X10.9492 Y61.2762
G01 X10.8357 Y61.3443
G01 X10.7161 Y61.4009
G01 X10.5915 Y61.4454
G01 X10.4631 Y61.4776
G01 X10.3322 Y61.4970
G01 X10.2000 Y61.5035
G01 X10.0678 Y61.4970
G01 X9.9369 Y61.4776
G01 X9.8085 Y61.4454
G01 X9.6839 Y61.4009
G01 X9.5643 Y61.3443
G01 X9.4508 Y61.2762
G01 X9.3445 Y61.1974
G01 X9.2465 Y61.1085
G01 X9.1576 Y61.0105
G01 X9.0788 Y60.9042
G01 X9.0107 Y60.7907
G01 X8.9541 Y60.6711
G01 X8.9096 Y60.5465
G01 X8.8774 Y60.4181
G01 X8.8580 Y60.2872
G01 X8.8515 Y60.1550
G01 X8.8580 Y60.0228
G01 X8.8774 Y59.8919
G01 X8.9096 Y59.7635
G01 X8.9541 Y59.6389
G01 X9.0107 Y59.5193
G01 X9.0788 Y59.4058
G01 X9.1576 Y59.2995
G01 X9.2465 Y59.2015
G01 X9.3445 Y59.1126
G01 X9.4508 Y59.0338
G01 X9.5643 Y58.9657
G01 X9.6839 Y58.9091
G01 X9.8085 Y58.8646
G01 X9.9369 Y58.8324
G01 X10.0678 Y58.8130
G01 X10.2000 Y58.8065
G01 X10.3322 Y58.8130
G01 X10.4631 Y58.8324
G01 X10.5915 Y58.8646
G01 X10.7161 Y58.9091
G01 X10.8357 Y58.9657
G01 X10.9492 Y59.0338
G01 X11.0555 Y59.1126
G01 X11.1535 Y59.2015
G01 X11.2424 Y59.2995
G01 X11.3212 Y59.4058
G01 X11.3893 Y59.5193
G01 X11.4459 Y59.6389
G01 X11.4904 Y59.7635
G01 X11.5226 Y59.8919
G01 X11.5420 Y60.0228
G01 X11.5483 Y60.1453
G01 X11.5483 Y60.1647
G00 Z2.0000
G00 X11.4263 Y60.1587
G01 F50.00
G01 Z-0.2001
G01 F80.00
G01 X11.4204 Y60.2752
G01 X11.4028 Y60.3942
G01 X11.3735 Y60.5110
G01 X11.3330 Y60.6243
G01 X11.2815 Y60.7331
G01 X11.2197 Y60.8363
G01 X11.1480 Y60.9330
G01 X11.0672 Y61.0222
G01 X10.9780 Y61.1030
G01 X10.8813 Y61.1747
G01 X10.7781 Y61.2365
G01 X10.6693 Y61.2880
G01 X10.5560 Y61.3285
G01 X10.4392 Y61.3578
G01 X10.3202 Y61.3754
G01 X10.2000 Y61.3813
G01 X10.0798 Y61.3754
G01 X9.9608 Y61.3578
G01 X9.8440 Y61.3285
G01 X9.7307 Y61.2880
G01 X9.6219 Y61.2365
G01 X9.5187 Y61.1747
G01 X9.4220 Y61.1030
G01 X9.3328 Y61.0222
G01 X9.2520 Y60.9330
G01 X9.1803 Y60.8363
G01 X9.1185 Y60.7331
G01 X9.0670 Y60.6243
G01 X9.0265 Y60.5110
G01 X8.9972 Y60.3942
G01 X8.9796 Y60.2752
G01 X8.9737 Y60.1550
G01 X8.9796 Y60.0348
G01 X8.9972 Y59.9158
G01 X9.0265 Y59.7990
G01 X9.0670 Y59.6857
G01 X9.1185 Y59.5769
G01 X9.1803 Y59.4737
G01 X9.2520 Y59.3770
G01 X9.3328 Y59.2878
G01 X9.4220 Y59.2070
G01 X9.5187 Y59.1353
G01 X9.6219 Y59.0735
G01 X9.7307 Y59.0220
G01 X9.8440 Y58.9815
G01 X9.9608 Y58.9522
G01 X10.0798 Y58.9346
G01 X10.2000 Y58.9287
G01 X10.3202 Y58.9346
G01 X10.4392 Y58.9522
G01 X10.5560 Y58.9815
G01 X10.6693 Y59.0220
G01 X10.7781 Y59.0735
G01 X10.8813 Y59.1353
G01 X10.9780 Y59.2070
G01 X11.0672 Y59.2878
G01 X11.1480 Y59.3770
G01 X11.2197 Y59.4737
G01 X11.2815 Y59.5769
G01 X11.3330 Y59.6857
G01 X11.3735 Y59.7990
G01 X11.4028 Y59.9158
G01 X11.4204 Y60.0348
G01 X11.4263 Y60.1513
G01 X11.4263 Y60.1587
G00 Z2.0000
G00 X56.1019 Y62.5435
G01 F50.00
G01 Z-0.2001
G01 F80.00
G01 X56.0688 Y62.5418
G01 X56.0323 Y62.5364
G01 X55.9964 Y62.5274
G01 X55.9652 Y62.5163
G01 X55.9582 Y62.5135
G01 X55.9316 Y62.5009
G01 X55.9250 Y62.4973
G01 X55.8966 Y62.4802
G01 X55.8669 Y62.4582
G01 X55.8396 Y62.4334
G01 X55.8148 Y62.4060
G01 X55.7928 Y62.3764
G01 X55.7756 Y62.3480
G01 X55.7721 Y62.3413
G01 X55.7580 Y62.3113
G01 X55.7467 Y62.2801
G01 X55.7445 Y62.2729
G01 X55.7374 Y62.2444
G01 X55.7359 Y62.2370
G01 X55.7311 Y62.2042
G01 X55.7293 Y62.1673
G01 X55.7293 Y61.5673
G01 X55.7311 Y61.5304
G01 X55.7362 Y61.4957
G01 X55.7455 Y61.4580
G01 X55.7580 Y61.4233
G01 X55.7738 Y61.3899
G01 X55.7928 Y61.3582
G01 X55.8148 Y61.3285
G01 X55.8396 Y61.3012
G01 X55.8669 Y61.2764
G01 X55.8950 Y61.2554
G01 X55.9250 Y61.2372
G01 X55.9316 Y61.2337
G01 X55.9617 Y61.2196
G01 X55.9964 Y61.2071
G01 X56.0286 Y61.1990
G01 X56.0360 Y61.1975
G01 X56.0688 Y61.1927
G01 X56.1019 Y61.1910
G01 X57.5057 Y61.1909
G01 X57.5388 Y61.1925
G01 X57.5463 Y61.1932
G01 X57.5791 Y61.1982
G01 X57.6149 Y61.2071
G01 X57.6497 Y61.2196
G01 X57.6797 Y61.2337
G01 X57.6864 Y61.2372
G01 X57.7148 Y61.2544
G01 X57.7415 Y61.2741
G01 X57.7473 Y61.2788
G01 X57.7691 Y61.2986
G01 X57.7744 Y61.3039
G01 X57.7966 Y61.3285
G01 X57.8175 Y61.3566
G01 X57.8376 Y61.3899
G01 X57.8519 Y61.4198
G01 X57.8547 Y61.4268
G01 X57.8658 Y61.4580
G01 X57.8740 Y61.4902
G01 X57.8754 Y61.4976
G01 X57.8804 Y61.5323
G01 X57.8820 Y61.5673
G01 X57.8820 Y62.1673
G01 X57.8802 Y62.2042
G01 X57.8748 Y62.2407
G01 X57.8658 Y62.2765
G01 X57.8534 Y62.3113
G01 X57.8393 Y62.3413
G01 X57.8357 Y62.3480
G01 X57.8206 Y62.3732
G01 X57.8164 Y62.3794
G01 X57.7966 Y62.4060
G01 X57.7744 Y62.4307
G01 X57.7691 Y62.4360
G01 X57.7444 Y62.4582
G01 X57.7163 Y62.4791
G01 X57.6864 Y62.4973
G01 X57.6797 Y62.5009
G01 X57.6497 Y62.5150
G01 X57.6149 Y62.5274
G01 X57.5828 Y62.5356
G01 X57.5754 Y62.5370
G01 X57.5426 Y62.5418
G01 X57.5094 Y62.5435
G01 X56.1019 Y62.5435
G00 Z2.0000
G00 X56.0959 Y62.6656
G01 F50.00
G01 Z-0.2001
G01 F80.00
G01 X56.0568 Y62.6634
G01 X56.0084 Y62.6562
G01 X55.9610 Y62.6443
G01 X55.9240 Y62.6313
G01 X55.9104 Y62.6259
G01 X55.8794 Y62.6113
G01 X55.8622 Y62.6021
G01 X55.8287 Y62.5818
G01 X55.7894 Y62.5526
G01 X55.7532 Y62.5198
G01 X55.7267 Y62.4909
G01 X55.7173 Y62.4797
G01 X55.6968 Y62.4522
G01 X55.6860 Y62.4360
G01 X55.6660 Y62.4023
G01 X55.6451 Y62.3581
G01 X55.6286 Y62.3120
G01 X55.6167 Y62.2645
G01 X55.6096 Y62.2161
G01 X55.6072 Y62.1673
G01 X55.6072 Y61.5624
G01 X55.6096 Y61.5184
G01 X55.6159 Y61.4748
G01 X55.6189 Y61.4605
G01 X55.6286 Y61.4226
G01 X55.6433 Y61.3810
G01 X55.6491 Y61.3676
G01 X55.6638 Y61.3366
G01 X55.6708 Y61.3238
G01 X55.6860 Y61.2986
G01 X55.6968 Y61.2824
G01 X55.7173 Y61.2548
G01 X55.7267 Y61.2437
G01 X55.7465 Y61.2218
G01 X55.7567 Y61.2114
G01 X55.7821 Y61.1883
G01 X55.7932 Y61.1789
G01 X55.8287 Y61.1528
G01 X55.8622 Y61.1324
G01 X55.8794 Y61.1233
G01 X55.9149 Y61.1067
G01 X55.9610 Y61.0902
G01 X55.9989 Y61.0805
G01 X56.0180 Y61.0767
G01 X56.0471 Y61.0724
G01 X56.0617 Y61.0708
G01 X56.1057 Y61.0688
G01 X57.5106 Y61.0688
G01 X57.5448 Y61.0705
G01 X57.5594 Y61.0717
G01 X57.5981 Y61.0775
G01 X57.6124 Y61.0805
G01 X57.6457 Y61.0889
G01 X57.6596 Y61.0933
G01 X57.6965 Y61.1067
G01 X57.7320 Y61.1233
G01 X57.7492 Y61.1324
G01 X57.7826 Y61.1528
G01 X57.8219 Y61.1819
G01 X57.8582 Y61.2148
G01 X57.8847 Y61.2437
G01 X57.8941 Y61.2548
G01 X57.9202 Y61.2903
G01 X57.9405 Y61.3238
G01 X57.9497 Y61.3410
G01 X57.9662 Y61.3765
G01 X57.9797 Y61.4133
G01 X57.9853 Y61.4320
G01 X57.9946 Y61.4700
G01 X58.0013 Y61.5136
G01 X58.0025 Y61.5281
G01 X58.0042 Y61.5673
G01 X58.0042 Y62.1673
G01 X58.0025 Y62.2064
G01 X58.0006 Y62.2258
G01 X57.9946 Y62.2645
G01 X57.9827 Y62.3120
G01 X57.9662 Y62.3581
G01 X57.9453 Y62.4023
G01 X57.9202 Y62.4442
G01 X57.8910 Y62.4835
G01 X57.8582 Y62.5198
G01 X57.8293 Y62.5463
G01 X57.8181 Y62.5557
G01 X57.7826 Y62.5818
G01 X57.7492 Y62.6021
G01 X57.7320 Y62.6113
G01 X57.6965 Y62.6278
G01 X57.6504 Y62.6443
G01 X57.6124 Y62.6541
G01 X57.5933 Y62.6579
G01 X57.5642 Y62.6622
G01 X57.5497 Y62.6638
G01 X57.5057 Y62.6658
G01 X56.0959 Y62.6656
G00 Z2.0000
G00 X56.4057 Y58.6509
G01 F50.00
G01 Z-0.2001
G01 F80.00
G01 X57.2057 Y58.6509
G01 X57.2738 Y58.6544
G01 X57.3376 Y58.6639
G01 X57.3984 Y58.6791
G01 X57.4056 Y58.6812
G01 X57.4645 Y58.7024
G01 X57.5212 Y58.7291
G01 X57.5278 Y58.7326
G01 X57.5814 Y58.7649
G01 X57.6348 Y58.8045
G01 X57.6839 Y58.8490
G01 X57.7285 Y58.8982
G01 X57.7680 Y58.9515
G01 X57.8022 Y59.0085
G01 X57.8305 Y59.0685
G01 X57.8529 Y59.1309
G01 X57.8690 Y59.1953
G01 X57.8788 Y59.2610
G01 X57.8820 Y59.3273
G01 X57.8788 Y59.3936
G01 X57.8690 Y59.4592
G01 X57.8529 Y59.5236
G01 X57.8305 Y59.5861
G01 X57.8022 Y59.6461
G01 X57.7680 Y59.7030
G01 X57.7285 Y59.7564
G01 X57.6839 Y59.8055
G01 X57.6348 Y59.8501
G01 X57.5814 Y59.8896
G01 X57.5245 Y59.9238
G01 X57.4645 Y59.9521
G01 X57.4020 Y59.9745
G01 X57.3376 Y59.9906
G01 X57.2757 Y59.9999
G01 X57.2682 Y60.0006
G01 X57.2057 Y60.0036
G01 X56.4057 Y60.0036
G01 X56.3375 Y60.0002
G01 X56.2737 Y59.9906
G01 X56.2130 Y59.9755
G01 X56.2058 Y59.9733
G01 X56.1469 Y59.9521
G01 X56.0902 Y59.9255
G01 X56.0836 Y59.9219
G01 X56.0299 Y59.8896
G01 X55.9766 Y59.8501
G01 X55.9301 Y59.8081
G01 X55.9248 Y59.8028
G01 X55.8829 Y59.7564
G01 X55.8433 Y59.7030
G01 X55.8092 Y59.6461
G01 X55.7823 Y59.5895
G01 X55.7795 Y59.5826
G01 X55.7596 Y59.5272
G01 X55.7575 Y59.5200
G01 X55.7423 Y59.4592
G01 X55.7326 Y59.3936
G01 X55.7293 Y59.3273
G01 X55.7323 Y59.2647
G01 X55.7330 Y59.2573
G01 X55.7417 Y59.1990
G01 X55.7431 Y59.1917
G01 X55.7585 Y59.1309
G01 X55.7795 Y59.0719
G01 X55.7823 Y59.0650
G01 X55.8075 Y59.0118
G01 X55.8110 Y59.0052
G01 X55.8433 Y58.9515
G01 X55.8829 Y58.8982
G01 X55.9274 Y58.8490
G01 X55.9738 Y58.8069
G01 X55.9796 Y58.8021
G01 X56.0299 Y58.7649
G01 X56.0869 Y58.7308
G01 X56.1434 Y58.7039
G01 X56.1503 Y58.7011
G01 X56.2093 Y58.6801
G01 X56.2737 Y58.6639
G01 X56.3357 Y58.6546
G01 X56.3431 Y58.6539
G01 X56.4057 Y58.6509
G00 Z2.0000
G00 X56.4057 Y58.5288
G01 F50.00
G01 Z-0.2001
G01 F80.00
G01 X57.2106 Y58.5288
G01 X57.2839 Y58.5326
G01 X57.3567 Y58.5432
G01 X57.3710 Y58.5462
G01 X57.4281 Y58.5606
G01 X57.4467 Y58.5662
G01 X57.5113 Y58.5896
G01 X57.5821 Y58.6231
G01 X57.6493 Y58.6633
G01 X57.7046 Y58.7040
G01 X57.7196 Y58.7164
G01 X57.7703 Y58.7626
G01 X57.8229 Y58.8207
G01 X57.8696 Y58.8837
G01 X57.9099 Y58.9509
G01 X57.9434 Y59.0217
G01 X57.9698 Y59.0955
G01 X57.9888 Y59.1715
G01 X58.0003 Y59.2490
G01 X58.0042 Y59.3273
G01 X58.0003 Y59.4055
G01 X57.9888 Y59.4831
G01 X57.9698 Y59.5591
G01 X57.9434 Y59.6329
G01 X57.9099 Y59.7037
G01 X57.8696 Y59.7709
G01 X57.8229 Y59.8338
G01 X57.7703 Y59.8919
G01 X57.7196 Y59.9382
G01 X57.7046 Y59.9505
G01 X57.6493 Y59.9912
G01 X57.5821 Y60.0315
G01 X57.5113 Y60.0650
G01 X57.4467 Y60.0884
G01 X57.4281 Y60.0940
G01 X57.3710 Y60.1083
G01 X57.3567 Y60.1113
G01 X57.2839 Y60.1219
G01 X57.2106 Y60.1257
G01 X56.4057 Y60.1258
G01 X56.3274 Y60.1219
G01 X56.2499 Y60.1104
G01 X56.1739 Y60.0914
G01 X56.1001 Y60.0650
G01 X56.0293 Y60.0315
G01 X55.9621 Y59.9912
G01 X55.8991 Y59.9445
G01 X55.8410 Y59.8919
G01 X55.7884 Y59.8338
G01 X55.7474 Y59.7789
G01 X55.7365 Y59.7627
G01 X55.7015 Y59.7037
G01 X55.6680 Y59.6329
G01 X55.6446 Y59.5683
G01 X55.6390 Y59.5497
G01 X55.6225 Y59.4831
G01 X55.6122 Y59.4152
G01 X55.6103 Y59.3958
G01 X55.6072 Y59.3273
G01 X55.6110 Y59.2490
G01 X55.6225 Y59.1715
G01 X55.6390 Y59.1049
G01 X55.6446 Y59.0862
G01 X55.6680 Y59.0217
G01 X55.7015 Y58.9509
G01 X55.7365 Y58.8919
G01 X55.7474 Y58.8757
G01 X55.7884 Y58.8207
G01 X55.8410 Y58.7626
G01 X55.8917 Y58.7164
G01 X55.9068 Y58.7040
G01 X55.9621 Y58.6633
G01 X56.0293 Y58.6231
G01 X56.0912 Y58.5935
G01 X56.1092 Y58.5860
G01 X56.1739 Y58.5632
G01 X56.2499 Y58.5441
G01 X56.3177 Y58.5338
G01 X56.3371 Y58.5319
G01 X56.4057 Y58.5288
G00 Z2.0000
G00 X56.4057 Y56.1109
G01 F50.00
G01 Z-0.2001
G01 F80.00
G01 X57.2057 Y56.1109
G01 X57.2738 Y56.1144
G01 X57.3376 Y56.1239
G01 X57.3984 Y56.1391
G01 X57.4056 Y56.1412
G01 X57.4645 Y56.1624
G01 X57.5212 Y56.1891
G01 X57.5278 Y56.1926
G01 X57.5814 Y56.2249
G01 X57.6348 Y56.2645
G01 X57.6839 Y56.3090
G01 X57.7285 Y56.3582
G01 X57.7680 Y56.4115
G01 X57.8022 Y56.4685
G01 X57.8305 Y56.5285
G01 X57.8529 Y56.5909
G01 X57.8690 Y56.6553
G01 X57.8788 Y56.7210
G01 X57.8820 Y56.7873
G01 X57.8788 Y56.8536
G01 X57.8690 Y56.9192
G01 X57.8529 Y56.9836
G01 X57.8305 Y57.0461
G01 X57.8022 Y57.1061
G01 X57.7680 Y57.1630
G01 X57.7285 Y57.2164
G01 X57.6839 Y57.2655
G01 X57.6348 Y57.3101
G01 X57.5814 Y57.3496
G01 X57.5245 Y57.3838
G01 X57.4645 Y57.4121
G01 X57.4020 Y57.4345
G01 X57.3376 Y57.4506
G01 X57.2757 Y57.4599
G01 X57.2682 Y57.4606
G01 X57.2057 Y57.4636
