(G-CODE GENERATED BY FLATCAM v8.994 - www.flatcam.org - Version Date: 2020/11/7)

(Name: ledDeviceServerEsp32Pio-B_Cu.gbr_iso_combined_cnc)
(Type: G-code from Geometry)
(Units: MM)

(Created on Monday, 22 November 2021 at 09:41)

(This preprocessor is the default preprocessor used by FlatCAM.)
(It is made to work with MACH3 compatible motion controllers.)

(TOOL DIAMETER: 0.1527 mm)
(Feedrate_XY: 80.0 mm/min)
(Feedrate_Z: 60.0 mm/min)
(Feedrate rapids 1500.0 mm/min)

(Z_Cut: -0.2001 mm)
(Z_Move: 2.0 mm)
(Z Start: None mm)
(Z End: 15.0 mm)
(X,Y End: None mm)
(Steps per circle: 64)
(Preprocessor Geometry: default)

(X range:    0.5074 ...   76.5829  mm)
(Y range:   11.1361 ...   65.4869  mm)

(Spindle Speed: 1000.0 RPM)
G21
G90
G94

G01 F80.00

M5
G00 Z15.0000
G00 X0.0000 Y0.0000
T2
M6    
(MSG, Change to Tool Dia = 0.1527)
M0
G00 Z15.0000

M03 S1000.0
G01 F80.00
G00 X22.1075 Y18.5593
G01 F60.00
G01 Z-0.2001
G01 F80.00
G01 X22.1076 Y32.4060
G01 X22.1048 Y32.4625
G01 X22.0965 Y32.5185
G01 X22.0828 Y32.5734
G01 X22.0651 Y32.6232
G01 X22.0622 Y32.6301
G01 X22.0395 Y32.6778
G01 X22.0104 Y32.7263
G01 X21.9767 Y32.7718
G01 X21.9387 Y32.8137
G01 X18.8907 Y35.8617
G01 X18.8516 Y35.8973
G01 X18.8458 Y35.9020
G01 X18.8033 Y35.9334
G01 X18.7548 Y35.9625
G01 X18.7071 Y35.9852
G01 X18.7002 Y35.9881
G01 X18.6504 Y36.0058
G01 X18.5991 Y36.0187
G01 X18.5918 Y36.0202
G01 X18.5395 Y36.0278
G01 X18.4830 Y36.0306
G01 X15.9411 Y36.0306
G01 X15.8865 Y36.0278
G01 X15.8305 Y36.0195
G01 X15.7756 Y36.0058
G01 X15.7258 Y35.9881
G01 X15.7189 Y35.9852
G01 X15.6712 Y35.9625
G01 X15.6227 Y35.9334
G01 X15.5772 Y35.8997
G01 X15.5380 Y35.8643
G01 X15.0247 Y35.3510
G01 X14.9893 Y35.3118
G01 X14.9577 Y35.2694
G01 X14.9536 Y35.2632
G01 X14.9265 Y35.2178
G01 X14.9038 Y35.1701
G01 X14.9009 Y35.1632
G01 X14.8832 Y35.1134
G01 X14.8699 Y35.0603
G01 X14.8612 Y35.0025
G01 X14.8584 Y34.9460
G01 X14.8584 Y34.0296
G01 X14.8409 Y34.0135
G01 X14.7882 Y33.9553
G01 X14.7390 Y33.8893
G01 X14.6956 Y33.8172
G01 X14.6605 Y33.7428
G01 X14.6327 Y33.6654
G01 X14.6128 Y33.5856
G01 X14.6007 Y33.5042
G01 X14.5967 Y33.4257
G01 X14.5967 Y33.4183
G01 X14.6007 Y33.3398
G01 X14.6121 Y33.2621
G01 X14.6136 Y33.2548
G01 X14.6317 Y33.1823
G01 X14.6339 Y33.1751
G01 X14.6605 Y33.1012
G01 X14.6956 Y33.0268
G01 X14.7379 Y32.9562
G01 X14.7846 Y32.8931
G01 X14.7894 Y32.8873
G01 X14.8422 Y32.8292
G01 X14.9003 Y32.7764
G01 X14.9061 Y32.7716
G01 X14.9662 Y32.7271
G01 X14.9724 Y32.7229
G01 X15.0398 Y32.6826
G01 X15.1142 Y32.6475
G01 X15.1916 Y32.6197
G01 X15.2714 Y32.5998
G01 X15.3528 Y32.5877
G01 X15.4350 Y32.5837
G01 X15.5172 Y32.5877
G01 X15.5949 Y32.5991
G01 X15.6022 Y32.6006
G01 X15.6747 Y32.6187
G01 X15.6819 Y32.6209
G01 X15.7558 Y32.6475
G01 X15.8268 Y32.6810
G01 X15.8335 Y32.6845
G01 X15.9008 Y32.7249
G01 X15.9639 Y32.7716
G01 X15.9697 Y32.7764
G01 X16.0278 Y32.8292
G01 X16.0831 Y32.8902
G01 X16.1321 Y32.9562
G01 X16.1735 Y33.0252
G01 X16.2080 Y33.0978
G01 X16.2109 Y33.1047
G01 X16.2373 Y33.1786
G01 X16.2572 Y33.2584
G01 X16.2689 Y33.3361
G01 X16.2696 Y33.3436
G01 X16.2733 Y33.4220
G01 X16.2693 Y33.5042
G01 X16.2572 Y33.5856
G01 X16.2373 Y33.6654
G01 X16.2095 Y33.7428
G01 X16.1752 Y33.8155
G01 X16.1321 Y33.8878
G01 X16.0842 Y33.9524
G01 X16.0291 Y34.0135
G01 X16.0116 Y34.0296
G01 X16.0116 Y34.7072
G01 X16.1818 Y34.8774
G01 X18.2442 Y34.8774
G01 X20.9544 Y32.1672
G01 X20.9544 Y18.8018
G01 X19.0062 Y16.8536
G01 X16.7573 Y16.8536
G01 X16.7571 Y17.7826
G01 X16.7562 Y17.7901
G01 X16.7551 Y17.7956
G01 X16.7529 Y17.8027
G01 X16.7508 Y17.8079
G01 X16.7455 Y17.8178
G01 X16.7423 Y17.8225
G01 X16.7376 Y17.8283
G01 X16.7336 Y17.8323
G01 X16.7280 Y17.8372
G01 X16.7234 Y17.8405
G01 X16.7170 Y17.8443
G01 X16.7102 Y17.8475
G01 X16.7049 Y17.8495
G01 X16.6941 Y17.8522
G01 X16.6866 Y17.8531
G01 X16.6810 Y17.8533
G01 X13.6810 Y17.8533
G01 X13.6717 Y17.8528
G01 X13.6606 Y17.8506
G01 X13.6518 Y17.8475
G01 X13.6434 Y17.8434
G01 X13.6340 Y17.8372
G01 X13.6270 Y17.8310
G01 X13.6208 Y17.8240
G01 X13.6155 Y17.8163
G01 X13.6105 Y17.8062
G01 X13.6074 Y17.7974
G01 X13.6052 Y17.7863
G01 X13.6047 Y17.7770
G01 X13.6047 Y14.7770
G01 X13.6050 Y14.7695
G01 X13.6065 Y14.7603
G01 X13.6085 Y14.7531
G01 X13.6112 Y14.7461
G01 X13.6165 Y14.7362
G01 X13.6232 Y14.7271
G01 X13.6297 Y14.7204
G01 X13.6386 Y14.7135
G01 X13.6467 Y14.7088
G01 X13.6571 Y14.7045
G01 X13.6679 Y14.7018
G01 X13.6791 Y14.7007
G01 X16.6810 Y14.7007
G01 X16.6866 Y14.7009
G01 X16.6941 Y14.7018
G01 X16.7014 Y14.7034
G01 X16.7067 Y14.7051
G01 X16.7119 Y14.7072
G01 X16.7186 Y14.7106
G01 X16.7280 Y14.7168
G01 X16.7323 Y14.7204
G01 X16.7376 Y14.7257
G01 X16.7412 Y14.7300
G01 X16.7455 Y14.7362
G01 X16.7492 Y14.7427
G01 X16.7515 Y14.7478
G01 X16.7541 Y14.7548
G01 X16.7555 Y14.7603
G01 X16.7571 Y14.7714
G01 X16.7573 Y15.7004
G01 X19.2469 Y15.7004
G01 X19.3015 Y15.7032
G01 X19.3575 Y15.7115
G01 X19.4124 Y15.7252
G01 X19.4674 Y15.7450
G01 X19.5168 Y15.7685
G01 X19.5653 Y15.7976
G01 X19.6108 Y15.8313
G01 X19.6514 Y15.8680
G01 X21.9400 Y18.1566
G01 X21.9767 Y18.1972
G01 X22.0104 Y18.2427
G01 X22.0395 Y18.2912
G01 X22.0637 Y18.3423
G01 X22.0828 Y18.3956
G01 X22.0965 Y18.4505
G01 X22.1048 Y18.5065
G01 X22.1075 Y18.5593
G00 Z2.0000
G00 X24.5980 Y18.0137
G01 F60.00
G01 Z-0.2001
G01 F80.00
G01 X24.6606 Y18.0166
G01 X24.6680 Y18.0174
G01 X24.7299 Y18.0266
G01 X24.7943 Y18.0428
G01 X24.8533 Y18.0638
G01 X24.8603 Y18.0667
G01 X24.9168 Y18.0935
G01 X24.9738 Y18.1276
G01 X25.0271 Y18.1672
G01 X25.0735 Y18.2092
G01 X25.0788 Y18.2145
G01 X25.1208 Y18.2609
G01 X25.1604 Y18.3142
G01 X25.1926 Y18.3679
G01 X25.1962 Y18.3745
G01 X25.2213 Y18.4277
G01 X25.2242 Y18.4347
G01 X25.2452 Y18.4937
G01 X25.2605 Y18.5544
G01 X25.2620 Y18.5617
G01 X25.2706 Y18.6200
G01 X25.2714 Y18.6274
G01 X25.2743 Y18.6900
G01 X25.2711 Y18.7563
G01 X25.2614 Y18.8219
G01 X25.2462 Y18.8827
G01 X25.2441 Y18.8899
G01 X25.2242 Y18.9453
G01 X25.2213 Y18.9523
G01 X25.1945 Y19.0088
G01 X25.1604 Y19.0658
G01 X25.1208 Y19.1191
G01 X25.0788 Y19.1655
G01 X25.0735 Y19.1708
G01 X25.0271 Y19.2128
G01 X24.9768 Y19.2502
G01 X24.9706 Y19.2544
G01 X24.9168 Y19.2865
G01 X24.8568 Y19.3149
G01 X24.7979 Y19.3361
G01 X24.7907 Y19.3382
G01 X24.7299 Y19.3534
G01 X24.6662 Y19.3629
G01 X24.5980 Y19.3663
G01 X23.7980 Y19.3663
G01 X23.7354 Y19.3634
G01 X23.7280 Y19.3626
G01 X23.6661 Y19.3534
G01 X23.6017 Y19.3372
G01 X23.5392 Y19.3149
G01 X23.4792 Y19.2865
G01 X23.4222 Y19.2524
G01 X23.3689 Y19.2128
G01 X23.3197 Y19.1683
G01 X23.2752 Y19.1191
G01 X23.2356 Y19.0658
G01 X23.2015 Y19.0088
G01 X23.1731 Y18.9488
G01 X23.1508 Y18.8863
G01 X23.1346 Y18.8219
G01 X23.1249 Y18.7563
G01 X23.1217 Y18.6900
G01 X23.1249 Y18.6237
G01 X23.1346 Y18.5581
G01 X23.1508 Y18.4937
G01 X23.1731 Y18.4312
G01 X23.2015 Y18.3712
G01 X23.2356 Y18.3142
G01 X23.2752 Y18.2609
G01 X23.3197 Y18.2117
G01 X23.3689 Y18.1672
G01 X23.4192 Y18.1298
G01 X23.4254 Y18.1256
G01 X23.4792 Y18.0935
G01 X23.5392 Y18.0651
G01 X23.5981 Y18.0439
G01 X23.6053 Y18.0418
G01 X23.6661 Y18.0266
G01 X23.7298 Y18.0171
G01 X23.7980 Y18.0137
G01 X24.5980 Y18.0137
G00 Z2.0000
G00 X24.5943 Y20.5509
G01 F60.00
G01 Z-0.2001
G01 F80.00
G01 X24.6569 Y20.5539
G01 X24.6643 Y20.5546
G01 X24.7263 Y20.5639
G01 X24.7907 Y20.5801
G01 X24.8497 Y20.6011
G01 X24.8566 Y20.6039
G01 X24.9131 Y20.6308
G01 X24.9701 Y20.6649
G01 X25.0234 Y20.7045
G01 X25.0699 Y20.7464
G01 X25.0752 Y20.7517
G01 X25.1171 Y20.7982
G01 X25.1567 Y20.8515
G01 X25.1890 Y20.9052
G01 X25.1925 Y20.9118
G01 X25.2177 Y20.9650
G01 X25.2205 Y20.9719
G01 X25.2415 Y21.0309
G01 X25.2569 Y21.0917
G01 X25.2583 Y21.0990
G01 X25.2670 Y21.1573
G01 X25.2677 Y21.1647
G01 X25.2707 Y21.2273
G01 X25.2674 Y21.2936
G01 X25.2577 Y21.3592
G01 X25.2425 Y21.4200
G01 X25.2404 Y21.4272
G01 X25.2205 Y21.4826
G01 X25.2177 Y21.4895
G01 X25.1908 Y21.5461
G01 X25.1567 Y21.6030
G01 X25.1171 Y21.6564
G01 X25.0752 Y21.7028
G01 X25.0699 Y21.7081
G01 X25.0234 Y21.7501
G01 X24.9731 Y21.7875
G01 X24.9669 Y21.7916
G01 X24.9131 Y21.8238
G01 X24.8531 Y21.8521
G01 X24.7942 Y21.8733
G01 X24.7870 Y21.8755
G01 X24.7263 Y21.8906
G01 X24.6625 Y21.9002
G01 X24.5943 Y21.9036
G01 X23.7943 Y21.9036
G01 X23.7318 Y21.9006
G01 X23.7243 Y21.8999
G01 X23.6624 Y21.8906
G01 X23.5980 Y21.8745
G01 X23.5355 Y21.8521
G01 X23.4755 Y21.8238
G01 X23.4186 Y21.7896
G01 X23.3652 Y21.7501
G01 X23.3161 Y21.7055
G01 X23.2715 Y21.6564
G01 X23.2320 Y21.6030
G01 X23.1978 Y21.5461
G01 X23.1695 Y21.4861
G01 X23.1471 Y21.4236
G01 X23.1310 Y21.3592
G01 X23.1212 Y21.2936
G01 X23.1180 Y21.2273
G01 X23.1212 Y21.1610
G01 X23.1310 Y21.0953
G01 X23.1471 Y21.0309
G01 X23.1695 Y20.9685
G01 X23.1978 Y20.9085
G01 X23.2320 Y20.8515
G01 X23.2715 Y20.7982
G01 X23.3161 Y20.7490
G01 X23.3652 Y20.7045
G01 X23.4155 Y20.6671
G01 X23.4217 Y20.6629
G01 X23.4755 Y20.6308
G01 X23.5355 Y20.6024
G01 X23.5944 Y20.5812
G01 X23.6016 Y20.5791
G01 X23.6624 Y20.5639
G01 X23.7262 Y20.5544
G01 X23.7943 Y20.5509
G01 X24.5943 Y20.5509
G00 Z2.0000
G00 X24.5943 Y23.0909
G01 F60.00
G01 Z-0.2001
G01 F80.00
G01 X24.6569 Y23.0939
G01 X24.6643 Y23.0946
G01 X24.7263 Y23.1039
G01 X24.7907 Y23.1201
G01 X24.8497 Y23.1411
G01 X24.8566 Y23.1439
G01 X24.9131 Y23.1708
G01 X24.9701 Y23.2049
G01 X25.0234 Y23.2445
G01 X25.0699 Y23.2864
G01 X25.0752 Y23.2917
G01 X25.1171 Y23.3382
G01 X25.1567 Y23.3915
G01 X25.1890 Y23.4452
G01 X25.1925 Y23.4518
G01 X25.2177 Y23.5050
G01 X25.2205 Y23.5119
G01 X25.2415 Y23.5709
G01 X25.2569 Y23.6317
G01 X25.2583 Y23.6390
G01 X25.2670 Y23.6973
G01 X25.2677 Y23.7047
G01 X25.2707 Y23.7673
G01 X25.2674 Y23.8336
G01 X25.2577 Y23.8992
G01 X25.2425 Y23.9600
G01 X25.2404 Y23.9672
G01 X25.2205 Y24.0226
G01 X25.2177 Y24.0295
G01 X25.1908 Y24.0861
G01 X25.1567 Y24.1430
G01 X25.1195 Y24.1934
G01 X25.1147 Y24.1992
G01 X25.0726 Y24.2455
G01 X25.0234 Y24.2901
G01 X24.9701 Y24.3296
G01 X24.9164 Y24.3619
G01 X24.9098 Y24.3655
G01 X24.8531 Y24.3921
G01 X24.7942 Y24.4133
G01 X24.7870 Y24.4155
G01 X24.7263 Y24.4306
G01 X24.6625 Y24.4402
G01 X24.5943 Y24.4436
G01 X23.7943 Y24.4436
G01 X23.7318 Y24.4406
G01 X23.7243 Y24.4399
G01 X23.6624 Y24.4306
G01 X23.5980 Y24.4145
G01 X23.5355 Y24.3921
G01 X23.4755 Y24.3638
G01 X23.4186 Y24.3296
G01 X23.3652 Y24.2901
G01 X23.3161 Y24.2455
G01 X23.2715 Y24.1964
G01 X23.2320 Y24.1430
G01 X23.1978 Y24.0861
G01 X23.1695 Y24.0261
G01 X23.1471 Y23.9636
G01 X23.1310 Y23.8992
G01 X23.1212 Y23.8336
G01 X23.1180 Y23.7673
G01 X23.1212 Y23.7010
G01 X23.1310 Y23.6353
G01 X23.1471 Y23.5709
G01 X23.1695 Y23.5085
G01 X23.1978 Y23.4485
G01 X23.2320 Y23.3915
G01 X23.2715 Y23.3382
G01 X23.3161 Y23.2890
G01 X23.3652 Y23.2445
G01 X23.4186 Y23.2049
G01 X23.4722 Y23.1726
G01 X23.4788 Y23.1691
G01 X23.5355 Y23.1424
G01 X23.5944 Y23.1212
G01 X23.6016 Y23.1191
G01 X23.6624 Y23.1039
G01 X23.7262 Y23.0944
G01 X23.7943 Y23.0909
G01 X24.5943 Y23.0909
G00 Z2.0000
G00 X24.5943 Y25.6309
G01 F60.00
G01 Z-0.2001
G01 F80.00
G01 X24.6569 Y25.6339
G01 X24.6643 Y25.6346
G01 X24.7263 Y25.6439
G01 X24.7907 Y25.6601
G01 X24.8497 Y25.6811
G01 X24.8566 Y25.6839
G01 X24.9131 Y25.7108
G01 X24.9701 Y25.7449
G01 X25.0234 Y25.7845
G01 X25.0699 Y25.8264
G01 X25.0752 Y25.8317
G01 X25.1171 Y25.8782
G01 X25.1567 Y25.9315
G01 X25.1890 Y25.9852
G01 X25.1925 Y25.9918
G01 X25.2177 Y26.0450
G01 X25.2205 Y26.0519
G01 X25.2415 Y26.1109
G01 X25.2569 Y26.1717
G01 X25.2583 Y26.1790
G01 X25.2670 Y26.2373
G01 X25.2677 Y26.2447
G01 X25.2707 Y26.3073
G01 X25.2674 Y26.3736
G01 X25.2577 Y26.4392
G01 X25.2425 Y26.5000
G01 X25.2404 Y26.5072
G01 X25.2205 Y26.5626
G01 X25.2177 Y26.5695
G01 X25.1908 Y26.6261
G01 X25.1567 Y26.6830
G01 X25.1195 Y26.7334
G01 X25.1147 Y26.7392
G01 X25.0726 Y26.7855
G01 X25.0234 Y26.8301
G01 X24.9701 Y26.8696
G01 X24.9164 Y26.9019
G01 X24.9098 Y26.9055
G01 X24.8531 Y26.9321
G01 X24.7942 Y26.9533
G01 X24.7870 Y26.9555
G01 X24.7263 Y26.9706
G01 X24.6625 Y26.9802
G01 X24.5943 Y26.9836
G01 X23.7943 Y26.9836
G01 X23.7318 Y26.9806
G01 X23.7243 Y26.9799
G01 X23.6624 Y26.9706
G01 X23.5980 Y26.9545
G01 X23.5355 Y26.9321
G01 X23.4755 Y26.9038
G01 X23.4186 Y26.8696
G01 X23.3652 Y26.8301
G01 X23.3161 Y26.7855
G01 X23.2715 Y26.7364
G01 X23.2320 Y26.6830
G01 X23.1978 Y26.6261
G01 X23.1695 Y26.5661
G01 X23.1471 Y26.5036
G01 X23.1310 Y26.4392
G01 X23.1212 Y26.3736
G01 X23.1180 Y26.3073
G01 X23.1212 Y26.2410
G01 X23.1310 Y26.1753
G01 X23.1471 Y26.1109
G01 X23.1695 Y26.0485
G01 X23.1978 Y25.9885
G01 X23.2320 Y25.9315
G01 X23.2715 Y25.8782
G01 X23.3161 Y25.8290
G01 X23.3652 Y25.7845
G01 X23.4186 Y25.7449
G01 X23.4722 Y25.7126
G01 X23.4788 Y25.7091
G01 X23.5355 Y25.6824
G01 X23.5944 Y25.6612
G01 X23.6016 Y25.6591
G01 X23.6624 Y25.6439
G01 X23.7262 Y25.6344
G01 X23.7943 Y25.6309
G01 X24.5943 Y25.6309
G00 Z2.0000
G00 X24.5943 Y28.1709
G01 F60.00
G01 Z-0.2001
G01 F80.00
G01 X24.6569 Y28.1739
G01 X24.6643 Y28.1746
G01 X24.7263 Y28.1839
G01 X24.7907 Y28.2001
G01 X24.8531 Y28.2224
G01 X24.9098 Y28.2491
G01 X24.9164 Y28.2526
G01 X24.9701 Y28.2849
G01 X25.0234 Y28.3245
G01 X25.0699 Y28.3664
G01 X25.0752 Y28.3717
G01 X25.1171 Y28.4182
G01 X25.1567 Y28.4715
G01 X25.1890 Y28.5252
G01 X25.1925 Y28.5318
G01 X25.2177 Y28.5850
G01 X25.2205 Y28.5919
G01 X25.2415 Y28.6509
G01 X25.2569 Y28.7117
G01 X25.2583 Y28.7190
G01 X25.2670 Y28.7773
G01 X25.2677 Y28.7847
G01 X25.2707 Y28.8473
G01 X25.2674 Y28.9136
G01 X25.2577 Y28.9792
G01 X25.2425 Y29.0400
G01 X25.2404 Y29.0472
G01 X25.2205 Y29.1026
G01 X25.2177 Y29.1095
G01 X25.1908 Y29.1661
G01 X25.1567 Y29.2230
G01 X25.1195 Y29.2734
G01 X25.1147 Y29.2792
G01 X25.0726 Y29.3255
G01 X25.0234 Y29.3701
G01 X24.9701 Y29.4096
G01 X24.9164 Y29.4419
G01 X24.9098 Y29.4455
G01 X24.8531 Y29.4721
G01 X24.7942 Y29.4933
G01 X24.7870 Y29.4955
G01 X24.7263 Y29.5106
G01 X24.6625 Y29.5202
G01 X24.5943 Y29.5236
G01 X23.7943 Y29.5236
G01 X23.7318 Y29.5206
G01 X23.7243 Y29.5199
G01 X23.6624 Y29.5106
G01 X23.5980 Y29.4945
G01 X23.5355 Y29.4721
G01 X23.4755 Y29.4438
G01 X23.4186 Y29.4096
G01 X23.3652 Y29.3701
G01 X23.3161 Y29.3255
G01 X23.2715 Y29.2764
G01 X23.2320 Y29.2230
G01 X23.1978 Y29.1661
G01 X23.1695 Y29.1061
G01 X23.1471 Y29.0436
G01 X23.1310 Y28.9792
G01 X23.1212 Y28.9136
G01 X23.1180 Y28.8473
G01 X23.1212 Y28.7810
G01 X23.1310 Y28.7153
G01 X23.1471 Y28.6509
G01 X23.1695 Y28.5885
G01 X23.1978 Y28.5285
G01 X23.2320 Y28.4715
G01 X23.2715 Y28.4182
G01 X23.3161 Y28.3690
G01 X23.3652 Y28.3245
G01 X23.4186 Y28.2849
G01 X23.4722 Y28.2526
G01 X23.4788 Y28.2491
G01 X23.5355 Y28.2224
G01 X23.5944 Y28.2012
G01 X23.6016 Y28.1991
G01 X23.6624 Y28.1839
G01 X23.7262 Y28.1744
G01 X23.7943 Y28.1709
G01 X24.5943 Y28.1709
G00 Z2.0000
G00 X24.5943 Y30.7109
G01 F60.00
G01 Z-0.2001
G01 F80.00
G01 X24.6569 Y30.7139
G01 X24.6643 Y30.7146
G01 X24.7263 Y30.7239
G01 X24.7907 Y30.7401
G01 X24.8497 Y30.7611
G01 X24.8566 Y30.7639
G01 X24.9131 Y30.7908
G01 X24.9701 Y30.8249
G01 X25.0234 Y30.8645
G01 X25.0699 Y30.9064
G01 X25.0752 Y30.9117
G01 X25.1171 Y30.9582
G01 X25.1567 Y31.0115
G01 X25.1890 Y31.0652
G01 X25.1925 Y31.0718
G01 X25.2177 Y31.1250
G01 X25.2205 Y31.1319
G01 X25.2415 Y31.1909
G01 X25.2569 Y31.2517
G01 X25.2583 Y31.2590
G01 X25.2670 Y31.3173
G01 X25.2677 Y31.3247
G01 X25.2707 Y31.3873
G01 X25.2674 Y31.4536
G01 X25.2577 Y31.5192
G01 X25.2425 Y31.5800
G01 X25.2404 Y31.5872
G01 X25.2205 Y31.6426
G01 X25.2177 Y31.6495
G01 X25.1908 Y31.7061
G01 X25.1567 Y31.7630
G01 X25.1195 Y31.8134
G01 X25.1147 Y31.8192
G01 X25.0726 Y31.8655
G01 X25.0234 Y31.9101
G01 X24.9701 Y31.9496
G01 X24.9164 Y31.9819
G01 X24.9098 Y31.9855
G01 X24.8531 Y32.0121
G01 X24.7942 Y32.0333
G01 X24.7870 Y32.0355
G01 X24.7263 Y32.0506
G01 X24.6625 Y32.0602
G01 X24.5943 Y32.0636
G01 X23.7943 Y32.0636
G01 X23.7318 Y32.0606
G01 X23.7243 Y32.0599
G01 X23.6624 Y32.0506
G01 X23.5980 Y32.0345
G01 X23.5355 Y32.0121
G01 X23.4755 Y31.9838
G01 X23.4186 Y31.9496
G01 X23.3652 Y31.9101
G01 X23.3161 Y31.8655
G01 X23.2715 Y31.8164
G01 X23.2320 Y31.7630
G01 X23.1978 Y31.7061
G01 X23.1695 Y31.6461
G01 X23.1471 Y31.5836
G01 X23.1310 Y31.5192
G01 X23.1212 Y31.4536
G01 X23.1180 Y31.3873
G01 X23.1212 Y31.3210
G01 X23.1310 Y31.2553
G01 X23.1471 Y31.1909
G01 X23.1695 Y31.1285
G01 X23.1978 Y31.0685
G01 X23.2320 Y31.0115
G01 X23.2715 Y30.9582
G01 X23.3161 Y30.9090
G01 X23.3652 Y30.8645
G01 X23.4186 Y30.8249
G01 X23.4722 Y30.7926
G01 X23.4788 Y30.7891
G01 X23.5355 Y30.7624
G01 X23.5944 Y30.7412
G01 X23.6016 Y30.7391
G01 X23.6624 Y30.7239
G01 X23.7262 Y30.7144
G01 X23.7943 Y30.7109
G01 X24.5943 Y30.7109
G00 Z2.0000
G00 X24.5943 Y33.2509
G01 F60.00
G01 Z-0.2001
G01 F80.00
G01 X24.6569 Y33.2539
G01 X24.6643 Y33.2546
G01 X24.7263 Y33.2639
G01 X24.7907 Y33.2801
G01 X24.8531 Y33.3024
G01 X24.9098 Y33.3291
G01 X24.9164 Y33.3326
G01 X24.9669 Y33.3629
G01 X24.9731 Y33.3671
G01 X25.0234 Y33.4045
G01 X25.0726 Y33.4490
G01 X25.1171 Y33.4982
G01 X25.1545 Y33.5485
G01 X25.1587 Y33.5547
G01 X25.1890 Y33.6052
G01 X25.1925 Y33.6118
G01 X25.2192 Y33.6685
G01 X25.2404 Y33.7274
G01 X25.2425 Y33.7346
G01 X25.2569 Y33.7917
G01 X25.2583 Y33.7990
G01 X25.2674 Y33.8610
G01 X25.2707 Y33.9273
G01 X25.2674 Y33.9936
G01 X25.2583 Y34.0555
G01 X25.2569 Y34.0629
G01 X25.2415 Y34.1236
G01 X25.2192 Y34.1861
G01 X25.1925 Y34.2428
G01 X25.1890 Y34.2494
G01 X25.1567 Y34.3030
G01 X25.1171 Y34.3564
G01 X25.0752 Y34.4028
G01 X25.0699 Y34.4081
G01 X25.0219 Y34.4513
G01 X24.9701 Y34.4896
G01 X24.9131 Y34.5238
G01 X24.8531 Y34.5521
G01 X24.7942 Y34.5733
G01 X24.7870 Y34.5755
G01 X24.7299 Y34.5898
G01 X24.7226 Y34.5913
G01 X24.6606 Y34.6004
G01 X24.5962 Y34.6036
G01 X23.7943 Y34.6036
G01 X23.7280 Y34.6004
G01 X23.6624 Y34.5906
G01 X23.5962 Y34.5739
G01 X23.5338 Y34.5514
G01 X23.4772 Y34.5246
G01 X23.4421 Y34.5039
G01 X22.0266 Y34.5039
G01 X18.7624 Y37.7680
G01 X18.7218 Y37.8047
G01 X18.6794 Y37.8363
G01 X18.6732 Y37.8404
G01 X18.6278 Y37.8675
G01 X18.5801 Y37.8902
G01 X18.5732 Y37.8931
G01 X18.5252 Y37.9102
G01 X18.4721 Y37.9237
G01 X18.4648 Y37.9252
G01 X18.4125 Y37.9328
G01 X18.3560 Y37.9356
G01 X10.5938 Y37.9356
G01 X5.8516 Y42.6778
G01 X5.8516 Y42.9744
G01 X5.8691 Y42.9905
G01 X5.9218 Y43.0487
G01 X5.9710 Y43.1147
G01 X6.0144 Y43.1868
G01 X6.0488 Y43.2595
G01 X6.0773 Y43.3386
G01 X6.0972 Y43.4184
G01 X6.1093 Y43.4998
G01 X6.1133 Y43.5820
G01 X6.1093 Y43.6642
G01 X6.0972 Y43.7456
G01 X6.0773 Y43.8254
G01 X6.0495 Y43.9028
G01 X6.0144 Y43.9772
G01 X5.9721 Y44.0478
G01 X5.9231 Y44.1138
G01 X5.8678 Y44.1748
G01 X5.8068 Y44.2301
G01 X5.7438 Y44.2769
G01 X5.7376 Y44.2811
G01 X5.6702 Y44.3214
G01 X5.5992 Y44.3550
G01 X5.5923 Y44.3579
G01 X5.5219 Y44.3831
G01 X5.5147 Y44.3853
G01 X5.4386 Y44.4042
G01 X5.3572 Y44.4163
G01 X5.2750 Y44.4203
G01 X5.1966 Y44.4166
G01 X5.1891 Y44.4159
G01 X5.1151 Y44.4049
G01 X5.1078 Y44.4034
G01 X5.0316 Y44.3843
G01 X4.9577 Y44.3579
G01 X4.9508 Y44.3550
G01 X4.8798 Y44.3214
G01 X4.8092 Y44.2791
G01 X4.7432 Y44.2301
G01 X4.6849 Y44.1774
G01 X4.6796 Y44.1721
G01 X4.6269 Y44.1138
G01 X4.5801 Y44.0508
G01 X4.5759 Y44.0446
G01 X4.5356 Y43.9772
G01 X4.5005 Y43.9028
G01 X4.4739 Y43.8289
G01 X4.4717 Y43.8217
G01 X4.4536 Y43.7492
G01 X4.4521 Y43.7419
G01 X4.4407 Y43.6642
G01 X4.4367 Y43.5820
G01 X4.4407 Y43.4998
G01 X4.4521 Y43.4221
G01 X4.4536 Y43.4148
G01 X4.4717 Y43.3423
G01 X4.4739 Y43.3351
G01 X4.5005 Y43.2612
G01 X4.5356 Y43.1868
G01 X4.5779 Y43.1162
G01 X4.6258 Y43.0516
G01 X4.6809 Y42.9905
G01 X4.6984 Y42.9744
G01 X4.6984 Y42.4390
G01 X4.7009 Y42.3862
G01 X4.7016 Y42.3788
G01 X4.7095 Y42.3265
G01 X4.7222 Y42.2752
G01 X4.7244 Y42.2681
G01 X4.7423 Y42.2183
G01 X4.7648 Y42.1705
G01 X4.7683 Y42.1639
G01 X4.7956 Y42.1187
G01 X4.8281 Y42.0747
G01 X4.8673 Y42.0313
G01 X9.9473 Y36.9513
G01 X9.9864 Y36.9157
G01 X9.9922 Y36.9110
G01 X10.0347 Y36.8796
G01 X10.0832 Y36.8505
G01 X10.1309 Y36.8278
G01 X10.1378 Y36.8249
G01 X10.1876 Y36.8072
G01 X10.2389 Y36.7943
G01 X10.2462 Y36.7928
G01 X10.2985 Y36.7852
G01 X10.3550 Y36.7824
G01 X18.1172 Y36.7824
G01 X21.3800 Y33.5196
G01 X21.4191 Y33.4840
G01 X21.4249 Y33.4793
G01 X21.4674 Y33.4479
G01 X21.5159 Y33.4188
G01 X21.5671 Y33.3946
G01 X21.6203 Y33.3755
G01 X21.6752 Y33.3618
G01 X21.7275 Y33.3539
G01 X21.7349 Y33.3532
G01 X21.7877 Y33.3507
G01 X23.4421 Y33.3507
G01 X23.4772 Y33.3299
G01 X23.5338 Y33.3032
G01 X23.5962 Y33.2806
G01 X23.6624 Y33.2639
G01 X23.7280 Y33.2542
G01 X23.7943 Y33.2509
G01 X24.5943 Y33.2509
G00 Z2.0000
G00 X24.5943 Y35.7909
G01 F60.00
G01 Z-0.2001
G01 F80.00
G01 X24.6569 Y35.7939
G01 X24.6643 Y35.7946
G01 X24.7263 Y35.8039
G01 X24.7907 Y35.8201
G01 X24.8497 Y35.8411
G01 X24.8566 Y35.8439
G01 X24.9131 Y35.8708
G01 X24.9701 Y35.9049
G01 X25.0234 Y35.9445
G01 X25.0699 Y35.9864
G01 X25.0752 Y35.9917
G01 X25.1171 Y36.0382
G01 X25.1567 Y36.0915
G01 X25.1890 Y36.1452
G01 X25.1925 Y36.1518
G01 X25.2177 Y36.2050
G01 X25.2205 Y36.2119
G01 X25.2415 Y36.2709
G01 X25.2569 Y36.3317
G01 X25.2583 Y36.3390
G01 X25.2670 Y36.3973
G01 X25.2677 Y36.4047
G01 X25.2707 Y36.4673
G01 X25.2674 Y36.5336
G01 X25.2577 Y36.5992
G01 X25.2425 Y36.6600
G01 X25.2404 Y36.6672
G01 X25.2205 Y36.7226
G01 X25.2177 Y36.7295
G01 X25.1908 Y36.7861
G01 X25.1567 Y36.8430
G01 X25.1195 Y36.8934
G01 X25.1147 Y36.8992
G01 X25.0726 Y36.9455
G01 X25.0262 Y36.9877
G01 X25.0204 Y36.9924
G01 X24.9701 Y37.0296
G01 X24.9164 Y37.0619
G01 X24.9098 Y37.0655
G01 X24.8566 Y37.0906
G01 X24.8497 Y37.0935
G01 X24.7907 Y37.1145
G01 X24.7263 Y37.1306
G01 X24.6606 Y37.1404
G01 X24.5962 Y37.1436
G01 X23.7943 Y37.1436
G01 X23.7318 Y37.1406
G01 X23.7243 Y37.1399
G01 X23.6624 Y37.1306
G01 X23.5962 Y37.1139
G01 X23.5338 Y37.0914
G01 X23.4772 Y37.0646
G01 X23.4421 Y37.0439
G01 X22.9156 Y37.0439
G01 X20.0337 Y39.9257
G01 X19.9918 Y39.9637
G01 X19.9463 Y39.9974
G01 X19.8978 Y40.0265
G01 X19.8501 Y40.0492
G01 X19.8432 Y40.0521
G01 X19.7934 Y40.0698
G01 X19.7385 Y40.0835
G01 X19.6825 Y40.0918
G01 X19.6260 Y40.0946
G01 X12.1178 Y40.0946
G01 X8.6524 Y43.5601
G01 X8.6533 Y43.5839
G01 X8.6495 Y43.6623
G01 X8.6376 Y43.7437
G01 X8.6173 Y43.8254
G01 X8.5909 Y43.8993
G01 X8.5880 Y43.9062
G01 X8.5560 Y43.9738
G01 X8.5525 Y43.9805
G01 X8.5121 Y44.0478
G01 X8.4654 Y44.1109
G01 X8.4606 Y44.1167
G01 X8.4078 Y44.1748
G01 X8.3497 Y44.2276
G01 X8.3439 Y44.2324
G01 X8.2838 Y44.2769
G01 X8.2776 Y44.2811
G01 X8.2102 Y44.3214
G01 X8.1392 Y44.3550
G01 X8.1323 Y44.3579
G01 X8.0584 Y44.3843
G01 X7.9822 Y44.4034
G01 X7.9749 Y44.4049
G01 X7.8972 Y44.4163
G01 X7.8150 Y44.4203
G01 X7.7328 Y44.4163
G01 X7.6551 Y44.4049
G01 X7.6478 Y44.4034
G01 X7.5716 Y44.3843
G01 X7.4977 Y44.3579
G01 X7.4908 Y44.3550
G01 X7.4232 Y44.3230
G01 X7.4165 Y44.3195
G01 X7.3492 Y44.2791
G01 X7.2832 Y44.2301
G01 X7.2222 Y44.1748
G01 X7.1694 Y44.1167
G01 X7.1646 Y44.1109
G01 X7.1179 Y44.0478
G01 X7.0775 Y43.9805
G01 X7.0740 Y43.9738
G01 X7.0420 Y43.9062
G01 X7.0391 Y43.8993
G01 X7.0139 Y43.8289
G01 X7.0117 Y43.8217
G01 X6.9928 Y43.7456
G01 X6.9807 Y43.6642
G01 X6.9767 Y43.5857
G01 X6.9767 Y43.5783
G01 X6.9807 Y43.4998
G01 X6.9928 Y43.4184
G01 X7.0117 Y43.3423
G01 X7.0139 Y43.3351
G01 X7.0405 Y43.2612
G01 X7.0756 Y43.1868
G01 X7.1159 Y43.1194
G01 X7.1201 Y43.1132
G01 X7.1669 Y43.0502
G01 X7.2209 Y42.9905
G01 X7.2832 Y42.9339
G01 X7.3492 Y42.8849
G01 X7.4198 Y42.8426
G01 X7.4959 Y42.8068
G01 X7.5716 Y42.7797
G01 X7.6533 Y42.7594
G01 X7.7347 Y42.7475
G01 X7.8131 Y42.7437
G01 X7.8369 Y42.7446
G01 X11.4713 Y39.1103
G01 X11.5132 Y39.0723
G01 X11.5587 Y39.0386
G01 X11.6072 Y39.0095
G01 X11.6549 Y38.9868
G01 X11.6618 Y38.9839
G01 X11.7116 Y38.9662
G01 X11.7665 Y38.9525
G01 X11.8225 Y38.9442
G01 X11.8790 Y38.9414
G01 X19.3872 Y38.9414
G01 X22.2690 Y36.0596
G01 X22.3109 Y36.0216
G01 X22.3533 Y35.9900
G01 X22.3595 Y35.9858
G01 X22.4017 Y35.9606
G01 X22.4083 Y35.9571
G01 X22.4561 Y35.9346
G01 X22.5058 Y35.9167
G01 X22.5130 Y35.9145
G01 X22.5642 Y35.9018
G01 X22.6202 Y35.8935
G01 X22.6767 Y35.8907
G01 X23.4421 Y35.8907
G01 X23.4772 Y35.8699
G01 X23.5338 Y35.8432
G01 X23.5962 Y35.8206
G01 X23.6624 Y35.8039
G01 X23.7280 Y35.7942
G01 X23.7943 Y35.7909
G01 X24.5943 Y35.7909
G00 Z2.0000
G00 X24.5943 Y38.3309
G01 F60.00
G01 Z-0.2001
G01 F80.00
G01 X24.6569 Y38.3339
G01 X24.6643 Y38.3346
G01 X24.7263 Y38.3439
G01 X24.7907 Y38.3601
G01 X24.8531 Y38.3824
G01 X24.9098 Y38.4091
G01 X24.9164 Y38.4126
G01 X24.9701 Y38.4449
G01 X25.0234 Y38.4845
G01 X25.0699 Y38.5264
G01 X25.0752 Y38.5317
G01 X25.1171 Y38.5782
G01 X25.1567 Y38.6315
G01 X25.1890 Y38.6852
G01 X25.1925 Y38.6918
G01 X25.2177 Y38.7450
G01 X25.2205 Y38.7519
G01 X25.2415 Y38.8109
G01 X25.2569 Y38.8717
G01 X25.2583 Y38.8790
G01 X25.2670 Y38.9373
G01 X25.2677 Y38.9447
G01 X25.2707 Y39.0073
G01 X25.2674 Y39.0736
G01 X25.2577 Y39.1392
G01 X25.2425 Y39.2000
G01 X25.2404 Y39.2072
G01 X25.2205 Y39.2626
G01 X25.2177 Y39.2695
G01 X25.1908 Y39.3261
G01 X25.1567 Y39.3830
G01 X25.1195 Y39.4334
G01 X25.1147 Y39.4392
G01 X25.0726 Y39.4855
G01 X25.0234 Y39.5301
G01 X24.9701 Y39.5696
G01 X24.9164 Y39.6019
G01 X24.9098 Y39.6055
G01 X24.8531 Y39.6321
G01 X24.7942 Y39.6533
G01 X24.7870 Y39.6555
G01 X24.7263 Y39.6706
G01 X24.6625 Y39.6802
G01 X24.5943 Y39.6836
G01 X23.7943 Y39.6836
G01 X23.7318 Y39.6806
G01 X23.7243 Y39.6799
G01 X23.6624 Y39.6706
G01 X23.5980 Y39.6545
G01 X23.5355 Y39.6321
G01 X23.4755 Y39.6038
G01 X23.4186 Y39.5696
G01 X23.3652 Y39.5301
G01 X23.3161 Y39.4855
G01 X23.2715 Y39.4364
G01 X23.2320 Y39.3830
G01 X23.1978 Y39.3261
G01 X23.1695 Y39.2661
G01 X23.1471 Y39.2036
G01 X23.1310 Y39.1392
G01 X23.1212 Y39.0736
G01 X23.1180 Y39.0073
G01 X23.1212 Y38.9410
G01 X23.1310 Y38.8753
G01 X23.1471 Y38.8109
G01 X23.1695 Y38.7485
G01 X23.1978 Y38.6885
G01 X23.2320 Y38.6315
G01 X23.2715 Y38.5782
G01 X23.3161 Y38.5290
G01 X23.3652 Y38.4845
G01 X23.4186 Y38.4449
G01 X23.4722 Y38.4126
G01 X23.4788 Y38.4091
G01 X23.5355 Y38.3824
G01 X23.5944 Y38.3612
G01 X23.6016 Y38.3591
G01 X23.6624 Y38.3439
G01 X23.7262 Y38.3344
G01 X23.7943 Y38.3309
G01 X24.5943 Y38.3309
G00 Z2.0000
G00 X24.5943 Y40.8709
G01 F60.00
G01 Z-0.2001
G01 F80.00
G01 X24.6606 Y40.8742
G01 X24.7226 Y40.8833
G01 X24.7299 Y40.8847
G01 X24.7870 Y40.8991
G01 X24.7942 Y40.9012
G01 X24.8531 Y40.9224
G01 X24.9131 Y40.9508
G01 X24.9701 Y40.9849
G01 X25.0234 Y41.0245
G01 X25.0726 Y41.0690
G01 X25.1171 Y41.1182
G01 X25.1567 Y41.1715
G01 X25.1890 Y41.2252
G01 X25.1925 Y41.2318
G01 X25.2192 Y41.2885
G01 X25.2404 Y41.3474
G01 X25.2425 Y41.3546
G01 X25.2569 Y41.4117
G01 X25.2583 Y41.4190
G01 X25.2674 Y41.4810
G01 X25.2707 Y41.5473
G01 X25.2674 Y41.6136
G01 X25.2577 Y41.6792
G01 X25.2415 Y41.7436
G01 X25.2192 Y41.8061
G01 X25.1908 Y41.8661
G01 X25.1587 Y41.9199
G01 X25.1545 Y41.9261
G01 X25.1195 Y41.9734
G01 X25.1147 Y41.9792
G01 X25.0726 Y42.0255
G01 X25.0262 Y42.0677
G01 X25.0204 Y42.0724
G01 X24.9701 Y42.1096
G01 X24.9131 Y42.1438
G01 X24.8531 Y42.1721
G01 X24.7907 Y42.1945
G01 X24.7299 Y42.2098
G01 X24.7226 Y42.2113
G01 X24.6606 Y42.2204
G01 X24.5962 Y42.2236
G01 X23.7943 Y42.2236
G01 X23.7318 Y42.2206
G01 X23.7243 Y42.2199
G01 X23.6624 Y42.2106
G01 X23.5962 Y42.1939
G01 X23.5338 Y42.1714
G01 X23.4772 Y42.1446
G01 X23.4421 Y42.1239
G01 X16.3116 Y42.1239
G01 X16.0116 Y42.4238
G01 X16.0116 Y42.9744
G01 X16.0291 Y42.9905
G01 X16.0818 Y43.0487
G01 X16.1310 Y43.1147
G01 X16.1744 Y43.1868
G01 X16.2088 Y43.2595
G01 X16.2373 Y43.3386
G01 X16.2572 Y43.4184
G01 X16.2693 Y43.4998
G01 X16.2733 Y43.5820
G01 X16.2693 Y43.6642
G01 X16.2572 Y43.7456
G01 X16.2373 Y43.8254
G01 X16.2095 Y43.9028
G01 X16.1744 Y43.9772
G01 X16.1321 Y44.0478
G01 X16.0831 Y44.1138
G01 X16.0278 Y44.1748
G01 X15.9668 Y44.2301
G01 X15.9038 Y44.2769
G01 X15.8976 Y44.2811
G01 X15.8302 Y44.3214
G01 X15.7592 Y44.3550
G01 X15.7523 Y44.3579
G01 X15.6784 Y44.3843
G01 X15.6022 Y44.4034
G01 X15.5949 Y44.4049
G01 X15.5172 Y44.4163
G01 X15.4387 Y44.4203
G01 X15.4313 Y44.4203
G01 X15.3528 Y44.4163
G01 X15.2751 Y44.4049
G01 X15.2678 Y44.4034
G01 X15.1916 Y44.3843
G01 X15.1177 Y44.3579
G01 X15.1108 Y44.3550
G01 X15.0398 Y44.3214
G01 X14.9724 Y44.2811
G01 X14.9662 Y44.2769
G01 X14.9032 Y44.2301
G01 X14.8449 Y44.1774
G01 X14.8396 Y44.1721
G01 X14.7869 Y44.1138
G01 X14.7401 Y44.0508
G01 X14.7359 Y44.0446
G01 X14.6956 Y43.9772
G01 X14.6620 Y43.9062
G01 X14.6591 Y43.8993
G01 X14.6327 Y43.8254
G01 X14.6128 Y43.7456
G01 X14.6011 Y43.6679
G01 X14.6004 Y43.6604
G01 X14.5967 Y43.5820
G01 X14.6004 Y43.5036
G01 X14.6011 Y43.4961
G01 X14.6128 Y43.4184
G01 X14.6322 Y43.3404
G01 X14.6591 Y43.2647
G01 X14.6620 Y43.2578
G01 X14.6956 Y43.1868
G01 X14.7369 Y43.1178
G01 X14.7882 Y43.0487
G01 X14.8409 Y42.9905
G01 X14.8584 Y42.9744
G01 X14.8585 Y42.1813
G01 X14.8612 Y42.1285
G01 X14.8695 Y42.0725
G01 X14.8832 Y42.0176
G01 X14.9030 Y41.9626
G01 X14.9265 Y41.9132
G01 X14.9556 Y41.8647
G01 X14.9893 Y41.8192
G01 X15.0247 Y41.7800
G01 X15.6663 Y41.1383
G01 X15.7041 Y41.1040
G01 X15.7099 Y41.0993
G01 X15.7524 Y41.0679
G01 X15.7977 Y41.0406
G01 X15.8043 Y41.0371
G01 X15.8521 Y41.0146
G01 X15.9053 Y40.9955
G01 X15.9602 Y40.9818
G01 X16.0125 Y40.9739
G01 X16.0199 Y40.9732
G01 X16.0727 Y40.9707
G01 X23.4421 Y40.9707
G01 X23.4772 Y40.9499
G01 X23.5338 Y40.9232
G01 X23.5962 Y40.9006
G01 X23.6624 Y40.8839
G01 X23.7280 Y40.8742
G01 X23.7943 Y40.8709
G01 X24.5943 Y40.8709
G00 Z2.0000
G00 X18.8099 Y43.5107
G01 F60.00
G01 Z-0.2001
G01 F80.00
G01 X23.4421 Y43.5107
G01 X23.4772 Y43.4899
G01 X23.5338 Y43.4632
G01 X23.5962 Y43.4406
G01 X23.6624 Y43.4239
G01 X23.7299 Y43.4140
G01 X23.7943 Y43.4109
G01 X24.5943 Y43.4109
G01 X24.6606 Y43.4142
G01 X24.7263 Y43.4239
G01 X24.7907 Y43.4401
G01 X24.8531 Y43.4624
G01 X24.9131 Y43.4908
G01 X24.9701 Y43.5249
G01 X25.0234 Y43.5645
G01 X25.0726 Y43.6090
G01 X25.1171 Y43.6582
G01 X25.1567 Y43.7115
G01 X25.1908 Y43.7685
G01 X25.2192 Y43.8285
G01 X25.2415 Y43.8909
G01 X25.2577 Y43.9553
G01 X25.2674 Y44.0210
G01 X25.2707 Y44.0873
G01 X25.2674 Y44.1536
G01 X25.2577 Y44.2192
G01 X25.2425 Y44.2800
G01 X25.2404 Y44.2872
G01 X25.2205 Y44.3426
G01 X25.2177 Y44.3495
G01 X25.1908 Y44.4061
G01 X25.1567 Y44.4630
G01 X25.1171 Y44.5164
G01 X25.0726 Y44.5655
G01 X25.0234 Y44.6101
G01 X24.9701 Y44.6496
G01 X24.9131 Y44.6838
G01 X24.8566 Y44.7106
G01 X24.8497 Y44.7135
G01 X24.7942 Y44.7333
G01 X24.7870 Y44.7355
G01 X24.7263 Y44.7506
G01 X24.6587 Y44.7605
G01 X24.5943 Y44.7636
G01 X23.7943 Y44.7636
G01 X23.7299 Y44.7605
G01 X23.6624 Y44.7506
G01 X23.5962 Y44.7339
G01 X23.5338 Y44.7114
G01 X23.4772 Y44.6846
G01 X23.4421 Y44.6639
G01 X18.4803 Y44.6639
G01 X18.4275 Y44.6614
G01 X18.4200 Y44.6606
G01 X18.3678 Y44.6528
G01 X18.3129 Y44.6391
G01 X18.2596 Y44.6200
G01 X18.2068 Y44.5949
G01 X18.1599 Y44.5667
G01 X18.1145 Y44.5330
G01 X18.0739 Y44.4963
G01 X17.9969 Y44.4194
G01 X17.9731 Y44.4203
G01 X17.8910 Y44.4161
G01 X17.8114 Y44.4042
G01 X17.7299 Y44.3837
G01 X17.6542 Y44.3565
G01 X17.5798 Y44.3214
G01 X17.5092 Y44.2791
G01 X17.4446 Y44.2312
G01 X17.3822 Y44.1748
G01 X17.3269 Y44.1138
G01 X17.2779 Y44.0478
G01 X17.2356 Y43.9772
G01 X17.2005 Y43.9028
G01 X17.1727 Y43.8254
G01 X17.1528 Y43.7456
G01 X17.1407 Y43.6642
G01 X17.1367 Y43.5820
G01 X17.1407 Y43.4998
G01 X17.1528 Y43.4184
G01 X17.1727 Y43.3386
G01 X17.2005 Y43.2612
G01 X17.2356 Y43.1868
G01 X17.2779 Y43.1162
G01 X17.3269 Y43.0502
G01 X17.3822 Y42.9892
G01 X17.4432 Y42.9339
G01 X17.5092 Y42.8849
G01 X17.5798 Y42.8426
G01 X17.6542 Y42.8075
G01 X17.7316 Y42.7797
G01 X17.8114 Y42.7598
G01 X17.8928 Y42.7477
G01 X17.9750 Y42.7437
G01 X18.0572 Y42.7477
G01 X18.1386 Y42.7598
G01 X18.2184 Y42.7797
G01 X18.2958 Y42.8075
G01 X18.3702 Y42.8426
G01 X18.4408 Y42.8849
G01 X18.5068 Y42.9339
G01 X18.5678 Y42.9892
G01 X18.6231 Y43.0502
G01 X18.6721 Y43.1162
G01 X18.7144 Y43.1868
G01 X18.7495 Y43.2612
G01 X18.7773 Y43.3386
G01 X18.7972 Y43.4184
G01 X18.8089 Y43.4961
G01 X18.8099 Y43.5107
G00 Z2.0000
G00 X24.5943 Y48.4909
G01 F60.00
G01 Z-0.2001
G01 F80.00
G01 X24.6569 Y48.4939
G01 X24.6643 Y48.4946
G01 X24.7263 Y48.5039
G01 X24.7907 Y48.5201
G01 X24.8531 Y48.5424
G01 X24.9098 Y48.5691
G01 X24.9164 Y48.5726
G01 X24.9701 Y48.6049
G01 X25.0234 Y48.6445
G01 X25.0699 Y48.6864
G01 X25.0752 Y48.6917
G01 X25.1171 Y48.7382
G01 X25.1567 Y48.7915
G01 X25.1890 Y48.8452
G01 X25.1925 Y48.8518
G01 X25.2177 Y48.9050
G01 X25.2205 Y48.9119
G01 X25.2415 Y48.9709
G01 X25.2569 Y49.0317
G01 X25.2583 Y49.0390
G01 X25.2670 Y49.0973
G01 X25.2677 Y49.1047
G01 X25.2707 Y49.1673
G01 X25.2674 Y49.2336
G01 X25.2577 Y49.2992
G01 X25.2425 Y49.3600
G01 X25.2404 Y49.3672
G01 X25.2205 Y49.4226
G01 X25.2177 Y49.4295
G01 X25.1908 Y49.4861
G01 X25.1567 Y49.5430
G01 X25.1195 Y49.5934
G01 X25.1147 Y49.5992
G01 X25.0726 Y49.6455
G01 X25.0234 Y49.6901
G01 X24.9701 Y49.7296
G01 X24.9164 Y49.7619
G01 X24.9098 Y49.7655
G01 X24.8531 Y49.7921
G01 X24.7942 Y49.8133
G01 X24.7870 Y49.8155
G01 X24.7263 Y49.8306
G01 X24.6625 Y49.8402
G01 X24.5943 Y49.8436
G01 X23.7943 Y49.8436
G01 X23.7318 Y49.8406
G01 X23.7243 Y49.8399
G01 X23.6624 Y49.8306
G01 X23.5980 Y49.8145
G01 X23.5355 Y49.7921
G01 X23.4755 Y49.7638
G01 X23.4186 Y49.7296
G01 X23.3652 Y49.6901
G01 X23.3161 Y49.6455
G01 X23.2715 Y49.5964
G01 X23.2320 Y49.5430
G01 X23.1978 Y49.4861
G01 X23.1695 Y49.4261
G01 X23.1471 Y49.3636
G01 X23.1310 Y49.2992
G01 X23.1212 Y49.2336
G01 X23.1180 Y49.1673
G01 X23.1212 Y49.1010
G01 X23.1310 Y49.0353
G01 X23.1471 Y48.9709
G01 X23.1695 Y48.9085
G01 X23.1978 Y48.8485
G01 X23.2320 Y48.7915
G01 X23.2715 Y48.7382
G01 X23.3161 Y48.6890
G01 X23.3652 Y48.6445
G01 X23.4186 Y48.6049
G01 X23.4722 Y48.5726
G01 X23.4788 Y48.5691
G01 X23.5355 Y48.5424
G01 X23.5944 Y48.5212
G01 X23.6016 Y48.5191
G01 X23.6624 Y48.5039
G01 X23.7262 Y48.4944
G01 X23.7943 Y48.4909
G01 X24.5943 Y48.4909
G00 Z2.0000
G00 X24.5943 Y51.0309
G01 F60.00
G01 Z-0.2001
G01 F80.00
G01 X24.6569 Y51.0339
G01 X24.6643 Y51.0346
G01 X24.7263 Y51.0439
G01 X24.7907 Y51.0601
G01 X24.8497 Y51.0811
G01 X24.8566 Y51.0839
G01 X24.9131 Y51.1108
G01 X24.9701 Y51.1449
G01 X25.0234 Y51.1845
G01 X25.0699 Y51.2264
G01 X25.0752 Y51.2317
G01 X25.1171 Y51.2782
G01 X25.1567 Y51.3315
G01 X25.1890 Y51.3852
G01 X25.1925 Y51.3918
G01 X25.2177 Y51.4450
G01 X25.2205 Y51.4519
G01 X25.2415 Y51.5109
G01 X25.2569 Y51.5717
G01 X25.2583 Y51.5790
G01 X25.2670 Y51.6373
G01 X25.2677 Y51.6447
G01 X25.2707 Y51.7073
G01 X25.2674 Y51.7736
G01 X25.2577 Y51.8392
G01 X25.2425 Y51.9000
G01 X25.2404 Y51.9072
G01 X25.2205 Y51.9626
G01 X25.2177 Y51.9695
G01 X25.1908 Y52.0261
G01 X25.1567 Y52.0830
G01 X25.1171 Y52.1364
G01 X25.0752 Y52.1828
G01 X25.0699 Y52.1881
G01 X25.0234 Y52.2301
G01 X24.9701 Y52.2696
G01 X24.9164 Y52.3019
G01 X24.9098 Y52.3055
G01 X24.8531 Y52.3321
G01 X24.7942 Y52.3533
G01 X24.7870 Y52.3555
G01 X24.7263 Y52.3706
G01 X24.6625 Y52.3802
G01 X24.5943 Y52.3836
G01 X23.7943 Y52.3836
G01 X23.7318 Y52.3806
G01 X23.7243 Y52.3799
G01 X23.6624 Y52.3706
G01 X23.5980 Y52.3545
G01 X23.5355 Y52.3321
G01 X23.4755 Y52.3038
G01 X23.4186 Y52.2696
G01 X23.3652 Y52.2301
G01 X23.3161 Y52.1855
G01 X23.2715 Y52.1364
G01 X23.2320 Y52.0830
G01 X23.1978 Y52.0261
G01 X23.1695 Y51.9661
G01 X23.1471 Y51.9036
G01 X23.1310 Y51.8392
G01 X23.1212 Y51.7736
G01 X23.1180 Y51.7073
G01 X23.1212 Y51.6410
G01 X23.1310 Y51.5753
G01 X23.1471 Y51.5109
G01 X23.1695 Y51.4485
G01 X23.1978 Y51.3885
G01 X23.2320 Y51.3315
G01 X23.2715 Y51.2782
G01 X23.3161 Y51.2290
G01 X23.3652 Y51.1845
G01 X23.4186 Y51.1449
G01 X23.4722 Y51.1126
G01 X23.4788 Y51.1091
G01 X23.5355 Y51.0824
G01 X23.5944 Y51.0612
G01 X23.6016 Y51.0591
G01 X23.6624 Y51.0439
G01 X23.7262 Y51.0344
G01 X23.7943 Y51.0309
G01 X24.5943 Y51.0309
G00 Z2.0000
G00 X24.5943 Y53.5709
G01 F60.00
G01 Z-0.2001
G01 F80.00
G01 X24.6569 Y53.5739
G01 X24.6643 Y53.5746
G01 X24.7263 Y53.5839
G01 X24.7907 Y53.6001
G01 X24.8531 Y53.6224
G01 X24.9098 Y53.6491
G01 X24.9164 Y53.6526
G01 X24.9701 Y53.6849
G01 X25.0234 Y53.7245
G01 X25.0699 Y53.7664
G01 X25.0752 Y53.7717
G01 X25.1171 Y53.8182
G01 X25.1567 Y53.8715
G01 X25.1890 Y53.9252
G01 X25.1925 Y53.9318
G01 X25.2177 Y53.9850
G01 X25.2205 Y53.9919
G01 X25.2415 Y54.0509
G01 X25.2569 Y54.1117
G01 X25.2583 Y54.1190
G01 X25.2670 Y54.1773
G01 X25.2677 Y54.1847
G01 X25.2707 Y54.2473
G01 X25.2674 Y54.3136
G01 X25.2577 Y54.3792
G01 X25.2425 Y54.4400
G01 X25.2404 Y54.4472
G01 X25.2205 Y54.5026
G01 X25.2177 Y54.5095
G01 X25.1908 Y54.5661
G01 X25.1567 Y54.6230
G01 X25.1171 Y54.6764
G01 X25.0752 Y54.7228
G01 X25.0699 Y54.7281
G01 X25.0234 Y54.7701
G01 X24.9701 Y54.8096
G01 X24.9164 Y54.8419
G01 X24.9098 Y54.8455
G01 X24.8531 Y54.8721
G01 X24.7942 Y54.8933
G01 X24.7870 Y54.8955
G01 X24.7263 Y54.9106
G01 X24.6625 Y54.9202
G01 X24.5943 Y54.9236
G01 X23.7943 Y54.9236
G01 X23.7318 Y54.9206
G01 X23.7243 Y54.9199
G01 X23.6624 Y54.9106
G01 X23.5980 Y54.8945
G01 X23.5355 Y54.8721
G01 X23.4755 Y54.8438
G01 X23.4186 Y54.8096
G01 X23.3652 Y54.7701
G01 X23.3161 Y54.7255
G01 X23.2715 Y54.6764
G01 X23.2320 Y54.6230
G01 X23.1978 Y54.5661
G01 X23.1695 Y54.5061
G01 X23.1471 Y54.4436
G01 X23.1310 Y54.3792
G01 X23.1212 Y54.3136
G01 X23.1180 Y54.2473
G01 X23.1212 Y54.1810
G01 X23.1310 Y54.1153
G01 X23.1471 Y54.0509
G01 X23.1695 Y53.9885
G01 X23.1978 Y53.9285
G01 X23.2320 Y53.8715
G01 X23.2715 Y53.8182
G01 X23.3161 Y53.7690
G01 X23.3652 Y53.7245
G01 X23.4155 Y53.6871
G01 X23.4217 Y53.6829
G01 X23.4755 Y53.6508
G01 X23.5355 Y53.6224
G01 X23.5944 Y53.6012
G01 X23.6016 Y53.5991
G01 X23.6624 Y53.5839
G01 X23.7262 Y53.5744
G01 X23.7943 Y53.5709
G01 X24.5943 Y53.5709
G00 Z2.0000
G00 X24.5943 Y56.1109
G01 F60.00
G01 Z-0.2001
G01 F80.00
G01 X24.6569 Y56.1139
G01 X24.6643 Y56.1146
G01 X24.7263 Y56.1239
G01 X24.7907 Y56.1401
G01 X24.8497 Y56.1611
G01 X24.8566 Y56.1639
G01 X24.9131 Y56.1908
G01 X24.9701 Y56.2249
G01 X25.0234 Y56.2645
G01 X25.0699 Y56.3064
G01 X25.0752 Y56.3117
G01 X25.1171 Y56.3582
G01 X25.1567 Y56.4115
G01 X25.1890 Y56.4652
G01 X25.1925 Y56.4718
G01 X25.2177 Y56.5250
G01 X25.2205 Y56.5319
G01 X25.2415 Y56.5909
G01 X25.2569 Y56.6517
G01 X25.2583 Y56.6590
G01 X25.2670 Y56.7173
G01 X25.2677 Y56.7247
G01 X25.2707 Y56.7873
G01 X25.2674 Y56.8536
G01 X25.2577 Y56.9192
G01 X25.2425 Y56.9800
G01 X25.2404 Y56.9872
G01 X25.2205 Y57.0426
G01 X25.2177 Y57.0495
G01 X25.1908 Y57.1061
G01 X25.1567 Y57.1630
G01 X25.1171 Y57.2164
G01 X25.0752 Y57.2628
G01 X25.0699 Y57.2681
G01 X25.0234 Y57.3101
G01 X24.9701 Y57.3496
G01 X24.9164 Y57.3819
G01 X24.9098 Y57.3855
G01 X24.8531 Y57.4121
G01 X24.7942 Y57.4333
G01 X24.7870 Y57.4355
G01 X24.7263 Y57.4506
G01 X24.6625 Y57.4602
G01 X24.5943 Y57.4636
G01 X23.7943 Y57.4636
G01 X23.7318 Y57.4606
G01 X23.7243 Y57.4599
G01 X23.6624 Y57.4506
G01 X23.5980 Y57.4345
G01 X23.5355 Y57.4121
G01 X23.4755 Y57.3838
G01 X23.4186 Y57.3496
G01 X23.3652 Y57.3101
G01 X23.3161 Y57.2655
G01 X23.2715 Y57.2164
G01 X23.2320 Y57.1630
G01 X23.1978 Y57.1061
G01 X23.1695 Y57.0461
G01 X23.1471 Y56.9836
G01 X23.1310 Y56.9192
G01 X23.1212 Y56.8536
G01 X23.1180 Y56.7873
G01 X23.1212 Y56.7210
G01 X23.1310 Y56.6553
G01 X23.1471 Y56.5909
G01 X23.1695 Y56.5285
G01 X23.1978 Y56.4685
G01 X23.2320 Y56.4115
G01 X23.2715 Y56.3582
G01 X23.3161 Y56.3090
G01 X23.3652 Y56.2645
G01 X23.4186 Y56.2249
G01 X23.4722 Y56.1926
G01 X23.4788 Y56.1891
G01 X23.5355 Y56.1624
G01 X23.5944 Y56.1412
G01 X23.6016 Y56.1391
G01 X23.6624 Y56.1239
G01 X23.7262 Y56.1144
G01 X23.7943 Y56.1109
G01 X24.5943 Y56.1109
G00 Z2.0000
G00 X24.5943 Y58.6509
G01 F60.00
G01 Z-0.2001
G01 F80.00
G01 X24.6569 Y58.6539
G01 X24.6643 Y58.6546
G01 X24.7263 Y58.6639
G01 X24.7907 Y58.6801
G01 X24.8531 Y58.7024
G01 X24.9098 Y58.7291
G01 X24.9164 Y58.7326
G01 X24.9701 Y58.7649
G01 X25.0204 Y58.8021
G01 X25.0262 Y58.8069
G01 X25.0726 Y58.8490
G01 X25.1171 Y58.8982
G01 X25.1567 Y58.9515
G01 X25.1890 Y59.0052
G01 X25.1925 Y59.0118
G01 X25.2177 Y59.0650
G01 X25.2205 Y59.0719
G01 X25.2415 Y59.1309
G01 X25.2577 Y59.1953
G01 X25.2674 Y59.2610
G01 X25.2706 Y59.3235
G01 X25.2706 Y59.3310
G01 X25.2677 Y59.3898
G01 X25.2670 Y59.3973
G01 X25.2577 Y59.4592
G01 X25.2425 Y59.5200
G01 X25.2404 Y59.5272
G01 X25.2205 Y59.5826
G01 X25.2177 Y59.5895
G01 X25.1908 Y59.6461
G01 X25.1567 Y59.7030
G01 X25.1171 Y59.7564
G01 X25.0752 Y59.8028
G01 X25.0699 Y59.8081
G01 X25.0234 Y59.8501
G01 X24.9701 Y59.8896
G01 X24.9164 Y59.9219
G01 X24.9098 Y59.9255
G01 X24.8531 Y59.9521
G01 X24.7942 Y59.9733
G01 X24.7870 Y59.9755
G01 X24.7263 Y59.9906
G01 X24.6625 Y60.0002
G01 X24.5943 Y60.0036
G01 X23.7943 Y60.0036
G01 X23.7318 Y60.0006
G01 X23.7243 Y59.9999
G01 X23.6624 Y59.9906
G01 X23.5980 Y59.9745
G01 X23.5355 Y59.9521
G01 X23.4755 Y59.9238
G01 X23.4186 Y59.8896
G01 X23.3652 Y59.8501
G01 X23.3161 Y59.8055
G01 X23.2715 Y59.7564
G01 X23.2320 Y59.7030
G01 X23.1978 Y59.6461
G01 X23.1695 Y59.5861
G01 X23.1471 Y59.5236
G01 X23.1310 Y59.4592
G01 X23.1212 Y59.3936
G01 X23.1180 Y59.3273
G01 X23.1212 Y59.2610
G01 X23.1310 Y59.1953
G01 X23.1471 Y59.1309
G01 X23.1695 Y59.0685
G01 X23.1978 Y59.0085
G01 X23.2320 Y58.9515
G01 X23.2715 Y58.8982
G01 X23.3161 Y58.8490
G01 X23.3652 Y58.8045
G01 X23.4186 Y58.7649
G01 X23.4722 Y58.7326
G01 X23.4788 Y58.7291
G01 X23.5355 Y58.7024
G01 X23.5944 Y58.6812
G01 X23.6016 Y58.6791
G01 X23.6624 Y58.6639
G01 X23.7262 Y58.6544
G01 X23.7943 Y58.6509
G01 X24.5943 Y58.6509
G00 Z2.0000
G00 X24.8981 Y62.5435
G01 F60.00
G01 Z-0.2001
G01 F80.00
G01 X23.4906 Y62.5435
G01 X23.4574 Y62.5418
G01 X23.4246 Y62.5370
G01 X23.4172 Y62.5356
G01 X23.3851 Y62.5274
G01 X23.3503 Y62.5150
G01 X23.3203 Y62.5009
G01 X23.3136 Y62.4973
G01 X23.2837 Y62.4791
G01 X23.2556 Y62.4582
G01 X23.2309 Y62.4360
G01 X23.2256 Y62.4307
G01 X23.2034 Y62.4060
G01 X23.1836 Y62.3794
G01 X23.1794 Y62.3732
G01 X23.1643 Y62.3480
G01 X23.1607 Y62.3413
G01 X23.1466 Y62.3113
G01 X23.1342 Y62.2765
G01 X23.1252 Y62.2407
G01 X23.1198 Y62.2042
G01 X23.1180 Y62.1673
G01 X23.1180 Y61.5673
G01 X23.1196 Y61.5323
G01 X23.1246 Y61.4976
G01 X23.1260 Y61.4902
G01 X23.1342 Y61.4580
G01 X23.1453 Y61.4268
G01 X23.1481 Y61.4198
G01 X23.1624 Y61.3899
G01 X23.1825 Y61.3566
G01 X23.2034 Y61.3285
G01 X23.2256 Y61.3039
G01 X23.2309 Y61.2986
G01 X23.2527 Y61.2788
G01 X23.2585 Y61.2741
G01 X23.2852 Y61.2544
G01 X23.3136 Y61.2372
G01 X23.3203 Y61.2337
G01 X23.3503 Y61.2196
G01 X23.3851 Y61.2071
G01 X23.4209 Y61.1982
G01 X23.4537 Y61.1932
G01 X23.4612 Y61.1925
G01 X23.4943 Y61.1909
G01 X24.8981 Y61.1910
G01 X24.9312 Y61.1927
G01 X24.9640 Y61.1975
G01 X24.9714 Y61.1990
G01 X25.0036 Y61.2071
G01 X25.0383 Y61.2196
G01 X25.0684 Y61.2337
G01 X25.0750 Y61.2372
G01 X25.1050 Y61.2554
G01 X25.1331 Y61.2764
G01 X25.1604 Y61.3012
G01 X25.1852 Y61.3285
G01 X25.2072 Y61.3582
G01 X25.2262 Y61.3899
G01 X25.2420 Y61.4233
G01 X25.2545 Y61.4580
G01 X25.2638 Y61.4957
G01 X25.2689 Y61.5304
G01 X25.2707 Y61.5673
G01 X25.2707 Y62.1673
G01 X25.2689 Y62.2042
G01 X25.2641 Y62.2370
G01 X25.2626 Y62.2444
G01 X25.2555 Y62.2729
G01 X25.2533 Y62.2801
G01 X25.2420 Y62.3113
G01 X25.2279 Y62.3413
G01 X25.2244 Y62.3480
G01 X25.2072 Y62.3764
G01 X25.1852 Y62.4060
G01 X25.1604 Y62.4334
G01 X25.1331 Y62.4582
G01 X25.1034 Y62.4802
G01 X25.0750 Y62.4973
G01 X25.0684 Y62.5009
G01 X25.0418 Y62.5135
G01 X25.0348 Y62.5163
G01 X25.0036 Y62.5274
G01 X24.9677 Y62.5364
G01 X24.9312 Y62.5418
G01 X24.8981 Y62.5435
G00 Z2.0000
G00 X19.0940 Y57.8807
G01 F60.00
G01 Z-0.2001
G01 F80.00
G01 X19.1015 Y57.8810
G01 X19.1089 Y57.8821
G01 X19.1162 Y57.8839
G01 X19.1232 Y57.8865
G01 X19.1300 Y57.8897
G01 X19.1364 Y57.8935
G01 X19.1424 Y57.8980
G01 X19.1480 Y57.9030
G01 X19.1530 Y57.9086
G01 X19.1575 Y57.9146
G01 X19.1613 Y57.9210
G01 X19.1645 Y57.9278
G01 X19.1671 Y57.9348
G01 X19.1689 Y57.9421
G01 X19.1700 Y57.9495
G01 X19.1703 Y57.9570
G01 X19.1703 Y60.9589
G01 X19.1698 Y60.9663
G01 X19.1689 Y60.9719
G01 X19.1671 Y60.9792
G01 X19.1652 Y60.9845
G01 X19.1622 Y60.9913
G01 X19.1595 Y60.9963
G01 X19.1530 Y61.0054
G01 X19.1480 Y61.0110
G01 X19.1439 Y61.0148
G01 X19.1380 Y61.0194
G01 X19.1333 Y61.0225
G01 X19.1266 Y61.0260
G01 X19.1215 Y61.0282
G01 X19.1162 Y61.0301
G01 X19.1089 Y61.0319
G01 X19.1015 Y61.0330
G01 X19.0940 Y61.0333
G01 X16.0940 Y61.0333
G01 X16.0828 Y61.0325
G01 X16.0773 Y61.0315
G01 X16.0701 Y61.0295
G01 X16.0597 Y61.0252
G01 X16.0500 Y61.0194
G01 X16.0441 Y61.0148
G01 X16.0400 Y61.0110
G01 X16.0327 Y61.0025
G01 X16.0267 Y60.9930
G01 X16.0221 Y60.9827
G01 X16.0191 Y60.9719
G01 X16.0177 Y60.9607
G01 X16.0177 Y60.0336
G01 X8.7040 Y60.0336
G01 X8.6512 Y60.0311
G01 X8.6438 Y60.0304
G01 X8.5915 Y60.0225
G01 X8.5366 Y60.0088
G01 X8.4868 Y59.9911
G01 X8.4799 Y59.9882
G01 X8.4322 Y59.9655
G01 X8.3868 Y59.9384
G01 X8.3806 Y59.9343
G01 X8.3382 Y59.9027
G01 X8.2963 Y59.8647
G01 X0.6763 Y52.2447
G01 X0.6407 Y52.2056
G01 X0.6360 Y52.1998
G01 X0.6046 Y52.1573
G01 X0.5764 Y52.1104
G01 X0.5513 Y52.0577
G01 X0.5334 Y52.0079
G01 X0.5312 Y52.0008
G01 X0.5185 Y51.9495
G01 X0.5106 Y51.8972
G01 X0.5099 Y51.8898
G01 X0.5074 Y51.8370
G01 X0.5074 Y40.9150
G01 X0.5102 Y40.8585
G01 X0.5189 Y40.8007
G01 X0.5322 Y40.7476
G01 X0.5499 Y40.6978
G01 X0.5528 Y40.6909
G01 X0.5755 Y40.6432
G01 X0.6026 Y40.5978
G01 X0.6067 Y40.5916
G01 X0.6383 Y40.5492
G01 X0.6750 Y40.5086
G01 X4.6984 Y36.4852
G01 X4.6984 Y34.0296
G01 X4.6809 Y34.0135
G01 X4.6282 Y33.9553
G01 X4.5790 Y33.8893
G01 X4.5356 Y33.8172
G01 X4.5005 Y33.7428
G01 X4.4727 Y33.6654
G01 X4.4528 Y33.5856
G01 X4.4407 Y33.5042
G01 X4.4367 Y33.4257
G01 X4.4367 Y33.4183
G01 X4.4407 Y33.3398
G01 X4.4521 Y33.2621
G01 X4.4536 Y33.2548
G01 X4.4727 Y33.1786
G01 X4.4991 Y33.1047
G01 X4.5020 Y33.0978
G01 X4.5356 Y33.0268
G01 X4.5759 Y32.9594
G01 X4.5801 Y32.9532
G01 X4.6269 Y32.8902
G01 X4.6796 Y32.8319
G01 X4.6849 Y32.8266
G01 X4.7432 Y32.7739
G01 X4.8062 Y32.7271
G01 X4.8124 Y32.7229
G01 X4.8782 Y32.6835
G01 X4.9542 Y32.6475
G01 X5.0281 Y32.6209
G01 X5.0353 Y32.6187
G01 X5.1078 Y32.6006
G01 X5.1151 Y32.5991
G01 X5.1928 Y32.5877
G01 X5.2713 Y32.5837
G01 X5.2787 Y32.5837
G01 X5.3572 Y32.5877
G01 X5.4386 Y32.5998
G01 X5.5184 Y32.6197
G01 X5.5923 Y32.6461
G01 X5.5992 Y32.6490
G01 X5.6668 Y32.6810
G01 X5.6735 Y32.6845
G01 X5.7408 Y32.7249
G01 X5.8039 Y32.7716
G01 X5.8097 Y32.7764
G01 X5.8678 Y32.8292
G01 X5.9231 Y32.8902
G01 X5.9721 Y32.9562
G01 X6.0125 Y33.0235
G01 X6.0160 Y33.0302
G01 X6.0495 Y33.1012
G01 X6.0761 Y33.1751
G01 X6.0783 Y33.1823
G01 X6.0969 Y33.2566
G01 X6.1093 Y33.3398
G01 X6.1133 Y33.4183
G01 X6.1133 Y33.4257
G01 X6.1093 Y33.5042
G01 X6.0979 Y33.5819
G01 X6.0964 Y33.5892
G01 X6.0767 Y33.6671
G01 X6.0495 Y33.7428
G01 X6.0160 Y33.8138
G01 X6.0125 Y33.8205
G01 X5.9731 Y33.8862
G01 X5.9218 Y33.9553
G01 X5.8691 Y34.0135
G01 X5.8516 Y34.0296
G01 X5.8516 Y36.7259
G01 X5.8488 Y36.7805
G01 X5.8405 Y36.8365
G01 X5.8268 Y36.8914
G01 X5.8084 Y36.9429
G01 X5.7835 Y36.9958
G01 X5.7544 Y37.0443
G01 X5.7207 Y37.0898
G01 X5.6827 Y37.1317
G01 X1.6606 Y41.1538
G01 X1.6606 Y51.5982
G01 X8.9428 Y58.8804
G01 X16.0177 Y58.8804
G01 X16.0177 Y57.9533
G01 X16.0191 Y57.9421
G01 X16.0221 Y57.9313
G01 X16.0267 Y57.9210
G01 X16.0305 Y57.9146
G01 X16.0338 Y57.9100
G01 X16.0414 Y57.9017
G01 X16.0500 Y57.8946
G01 X16.0597 Y57.8888
G01 X16.0701 Y57.8845
G01 X16.0773 Y57.8825
G01 X16.0828 Y57.8815
G01 X16.0940 Y57.8807
G01 X19.0940 Y57.8807
G00 Z2.0000
G00 X16.1280 Y54.9536
G01 F60.00
G01 Z-0.2001
G01 F80.00
G01 X6.5450 Y54.9536
G01 X6.4922 Y54.9511
G01 X6.4848 Y54.9504
G01 X6.4325 Y54.9425
G01 X6.3776 Y54.9288
G01 X6.3278 Y54.9111
G01 X6.3209 Y54.9082
G01 X6.2732 Y54.8855
G01 X6.2278 Y54.8584
G01 X6.2216 Y54.8543
G01 X6.1792 Y54.8227
G01 X6.1373 Y54.7847
G01 X2.4543 Y51.1017
G01 X2.4163 Y51.0598
G01 X2.3826 Y51.0143
G01 X2.3535 Y50.9658
G01 X2.3286 Y50.9129
G01 X2.3102 Y50.8614
G01 X2.2965 Y50.8065
G01 X2.2882 Y50.7505
G01 X2.2854 Y50.6940
G01 X2.2854 Y41.5500
G01 X2.2879 Y41.4972
G01 X2.2886 Y41.4898
G01 X2.2965 Y41.4375
G01 X2.3097 Y41.3844
G01 X2.3293 Y41.3293
G01 X2.3518 Y41.2815
G01 X2.3553 Y41.2749
G01 X2.3826 Y41.2297
G01 X2.4140 Y41.1872
G01 X2.4187 Y41.1814
G01 X2.4543 Y41.1423
G01 X7.2384 Y36.3582
G01 X7.2384 Y34.0296
G01 X7.2209 Y34.0135
G01 X7.1682 Y33.9553
G01 X7.1190 Y33.8893
G01 X7.0756 Y33.8172
G01 X7.0398 Y33.7411
G01 X7.0139 Y33.6689
G01 X7.0117 Y33.6617
G01 X6.9928 Y33.5856
G01 X6.9811 Y33.5079
G01 X6.9804 Y33.5004
G01 X6.9767 Y33.4220
G01 X6.9805 Y33.3417
G01 X6.9921 Y33.2621
G01 X6.9936 Y33.2548
G01 X7.0127 Y33.1786
G01 X7.0405 Y33.1012
G01 X7.0740 Y33.0302
G01 X7.0775 Y33.0235
G01 X7.1179 Y32.9562
G01 X7.1646 Y32.8931
G01 X7.1694 Y32.8873
G01 X7.2222 Y32.8292
G01 X7.2803 Y32.7764
G01 X7.2861 Y32.7716
G01 X7.3492 Y32.7249
G01 X7.4165 Y32.6845
G01 X7.4232 Y32.6810
G01 X7.4959 Y32.6468
G01 X7.5716 Y32.6197
G01 X7.6478 Y32.6006
G01 X7.6551 Y32.5991
G01 X7.7291 Y32.5881
G01 X7.7366 Y32.5874
G01 X7.8150 Y32.5837
G01 X7.8934 Y32.5874
G01 X7.9009 Y32.5881
G01 X7.9786 Y32.5998
G01 X8.0584 Y32.6197
G01 X8.1358 Y32.6475
G01 X8.2102 Y32.6826
G01 X8.2808 Y32.7249
G01 X8.3439 Y32.7716
G01 X8.3497 Y32.7764
G01 X8.4051 Y32.8266
G01 X8.4104 Y32.8319
G01 X8.4631 Y32.8902
G01 X8.5099 Y32.9532
G01 X8.5141 Y32.9594
G01 X8.5544 Y33.0268
G01 X8.5895 Y33.1012
G01 X8.6173 Y33.1786
G01 X8.6372 Y33.2584
G01 X8.6489 Y33.3361
G01 X8.6496 Y33.3436
G01 X8.6533 Y33.4220
G01 X8.6496 Y33.5004
G01 X8.6489 Y33.5079
G01 X8.6372 Y33.5856
G01 X8.6167 Y33.6671
G01 X8.5895 Y33.7428
G01 X8.5560 Y33.8138
G01 X8.5525 Y33.8205
G01 X8.5131 Y33.8862
G01 X8.4618 Y33.9553
G01 X8.4091 Y34.0135
G01 X8.3916 Y34.0296
G01 X8.3916 Y36.5989
G01 X8.3888 Y36.6535
G01 X8.3805 Y36.7095
G01 X8.3668 Y36.7644
G01 X8.3470 Y36.8194
G01 X8.3235 Y36.8688
G01 X8.2944 Y36.9173
G01 X8.2607 Y36.9628
G01 X8.2227 Y37.0047
G01 X3.4386 Y41.7888
G01 X3.4386 Y50.4552
G01 X6.7838 Y53.8004
G01 X16.1280 Y53.8004
G01 X16.1384 Y53.7720
G01 X16.2021 Y53.6373
G01 X16.2056 Y53.6307
G01 X16.2833 Y53.5012
G01 X16.3755 Y53.3770
G01 X16.4794 Y53.2624
G01 X16.5911 Y53.1609
G01 X16.5969 Y53.1562
G01 X16.7182 Y53.0663
G01 X16.8477 Y52.9886
G01 X16.8543 Y52.9851
G01 X16.9908 Y52.9206
G01 X17.1364 Y52.8685
G01 X17.2865 Y52.8309
G01 X17.4358 Y52.8087
G01 X17.4432 Y52.8080
G01 X17.5940 Y52.8007
G01 X17.7485 Y52.8082
G01 X17.8978 Y52.8303
G01 X17.9052 Y52.8318
G01 X18.0516 Y52.8685
G01 X18.1972 Y52.9206
G01 X18.3337 Y52.9851
G01 X18.3403 Y52.9886
G01 X18.4698 Y53.0663
G01 X18.5940 Y53.1585
G01 X18.7059 Y53.2598
G01 X18.7112 Y53.2651
G01 X18.8125 Y53.3770
G01 X18.9047 Y53.5012
G01 X18.9824 Y53.6307
G01 X18.9859 Y53.6373
G01 X19.0504 Y53.7738
G01 X19.1025 Y53.9194
G01 X19.1401 Y54.0695
G01 X19.1628 Y54.2225
G01 X19.1703 Y54.3770
G01 X19.1628 Y54.5315
G01 X19.1401 Y54.6845
G01 X19.1025 Y54.8346
G01 X19.0504 Y54.9802
G01 X18.9842 Y55.1201
G01 X18.9047 Y55.2528
G01 X18.8125 Y55.3770
G01 X18.7086 Y55.4916
G01 X18.5940 Y55.5955
G01 X18.4698 Y55.6877
G01 X18.3371 Y55.7672
G01 X18.1972 Y55.8334
G01 X18.0516 Y55.8855
G01 X17.9015 Y55.9231
G01 X17.7485 Y55.9458
G01 X17.5940 Y55.9533
G01 X17.4395 Y55.9458
G01 X17.2865 Y55.9231
G01 X17.1364 Y55.8855
G01 X16.9908 Y55.8334
G01 X16.8509 Y55.7672
G01 X16.7182 Y55.6877
G01 X16.5940 Y55.5955
G01 X16.4794 Y55.4916
G01 X16.3755 Y55.3770
G01 X16.2833 Y55.2528
G01 X16.2038 Y55.1201
G01 X16.1384 Y54.9820
G01 X16.1280 Y54.9536
G00 Z2.0000
G00 X9.5167 Y43.5857
G01 F60.00
G01 Z-0.2001
G01 F80.00
G01 X9.5167 Y43.5783
G01 X9.5207 Y43.4998
G01 X9.5328 Y43.4184
G01 X9.5527 Y43.3386
G01 X9.5805 Y43.2612
G01 X9.6156 Y43.1868
G01 X9.6579 Y43.1162
G01 X9.7069 Y43.0502
G01 X9.7622 Y42.9892
G01 X9.8232 Y42.9339
G01 X9.8892 Y42.8849
G01 X9.9598 Y42.8426
G01 X10.0342 Y42.8075
G01 X10.1116 Y42.7797
G01 X10.1914 Y42.7598
G01 X10.2728 Y42.7477
G01 X10.3550 Y42.7437
G01 X10.4372 Y42.7477
G01 X10.5186 Y42.7598
G01 X10.5984 Y42.7797
G01 X10.6758 Y42.8075
G01 X10.7502 Y42.8426
G01 X10.8208 Y42.8849
G01 X10.8868 Y42.9339
G01 X10.9478 Y42.9892
G01 X11.0031 Y43.0502
G01 X11.0521 Y43.1162
G01 X11.0944 Y43.1868
G01 X11.1295 Y43.2612
G01 X11.1573 Y43.3386
G01 X11.1772 Y43.4184
G01 X11.1893 Y43.4998
G01 X11.1933 Y43.5820
G01 X11.1893 Y43.6642
G01 X11.1772 Y43.7456
G01 X11.1573 Y43.8254
G01 X11.1295 Y43.9028
G01 X11.0944 Y43.9772
G01 X11.0521 Y44.0478
G01 X11.0031 Y44.1138
G01 X10.9478 Y44.1748
G01 X10.8868 Y44.2301
G01 X10.8208 Y44.2791
G01 X10.7502 Y44.3214
G01 X10.6758 Y44.3565
G01 X10.5984 Y44.3843
G01 X10.5186 Y44.4042
G01 X10.4372 Y44.4163
G01 X10.3550 Y44.4203
G01 X10.2728 Y44.4163
G01 X10.1914 Y44.4042
G01 X10.1116 Y44.3843
G01 X10.0342 Y44.3565
G01 X9.9598 Y44.3214
G01 X9.8892 Y44.2791
G01 X9.8232 Y44.2301
G01 X9.7622 Y44.1748
G01 X9.7069 Y44.1138
G01 X9.6579 Y44.0478
G01 X9.6156 Y43.9772
G01 X9.5805 Y43.9028
G01 X9.5527 Y43.8254
G01 X9.5328 Y43.7456
G01 X9.5207 Y43.6642
G01 X9.5167 Y43.5857
G00 Z2.0000
G00 X14.5521 Y27.8813
G01 F60.00
G01 Z-0.2001
G01 F80.00
G01 X13.4716 Y28.9618
G01 X13.4716 Y32.8144
G01 X13.4891 Y32.8305
G01 X13.5418 Y32.8887
G01 X13.5931 Y32.9578
G01 X13.6344 Y33.0268
G01 X13.6680 Y33.0978
G01 X13.6709 Y33.1047
G01 X13.6978 Y33.1804
G01 X13.7172 Y33.2584
G01 X13.7289 Y33.3361
G01 X13.7296 Y33.3436
G01 X13.7333 Y33.4220
G01 X13.7293 Y33.5042
G01 X13.7179 Y33.5819
G01 X13.7164 Y33.5892
G01 X13.6973 Y33.6654
G01 X13.6695 Y33.7428
G01 X13.6344 Y33.8172
G01 X13.5921 Y33.8878
G01 X13.5431 Y33.9538
G01 X13.4878 Y34.0148
G01 X13.4268 Y34.0701
G01 X13.3608 Y34.1191
G01 X13.2902 Y34.1614
G01 X13.2158 Y34.1965
G01 X13.1384 Y34.2243
G01 X13.0586 Y34.2442
G01 X12.9772 Y34.2563
G01 X12.8950 Y34.2603
G01 X12.8128 Y34.2563
G01 X12.7314 Y34.2442
G01 X12.6516 Y34.2243
G01 X12.5777 Y34.1979
G01 X12.5708 Y34.1950
G01 X12.4998 Y34.1614
G01 X12.4292 Y34.1191
G01 X12.3632 Y34.0701
G01 X12.3049 Y34.0174
G01 X12.2996 Y34.0121
G01 X12.2469 Y33.9538
G01 X12.2001 Y33.8908
G01 X12.1959 Y33.8846
G01 X12.1556 Y33.8172
G01 X12.1205 Y33.7428
G01 X12.0927 Y33.6654
G01 X12.0736 Y33.5892
G01 X12.0721 Y33.5819
G01 X12.0611 Y33.5079
G01 X12.0604 Y33.5004
G01 X12.0567 Y33.4257
G01 X12.0567 Y33.4183
G01 X12.0607 Y33.3398
G01 X12.0721 Y33.2621
G01 X12.0736 Y33.2548
G01 X12.0927 Y33.1786
G01 X12.1198 Y33.1029
G01 X12.1556 Y33.0268
G01 X12.1990 Y32.9547
G01 X12.2482 Y32.8887
G01 X12.3009 Y32.8305
G01 X12.3184 Y32.8144
G01 X12.3184 Y28.7230
G01 X12.3212 Y28.6665
G01 X12.3288 Y28.6142
G01 X12.3303 Y28.6069
G01 X12.3438 Y28.5538
G01 X12.3609 Y28.5058
G01 X12.3638 Y28.4989
G01 X12.3865 Y28.4512
G01 X12.4136 Y28.4058
G01 X12.4177 Y28.3996
G01 X12.4493 Y28.3572
G01 X12.4860 Y28.3166
G01 X13.7367 Y27.0659
G01 X13.7239 Y27.0385
G01 X13.6737 Y26.8981
G01 X13.6715 Y26.8910
G01 X13.6349 Y26.7445
G01 X13.6122 Y26.5915
G01 X13.6047 Y26.4407
G01 X13.6047 Y26.4333
G01 X13.6122 Y26.2825
G01 X13.6349 Y26.1295
G01 X13.6715 Y25.9830
G01 X13.6737 Y25.9759
G01 X13.7246 Y25.8338
G01 X13.7908 Y25.6939
G01 X13.8683 Y25.5644
G01 X13.8725 Y25.5582
G01 X13.9625 Y25.4370
G01 X14.0650 Y25.3237
G01 X14.1781 Y25.2209
G01 X14.1839 Y25.2162
G01 X14.3052 Y25.1263
G01 X14.4379 Y25.0468
G01 X14.5778 Y24.9806
G01 X14.7199 Y24.9297
G01 X14.7270 Y24.9275
G01 X14.8735 Y24.8909
G01 X15.0228 Y24.8687
G01 X15.0302 Y24.8680
G01 X15.1810 Y24.8607
G01 X15.3355 Y24.8682
G01 X15.4885 Y24.8909
G01 X15.6350 Y24.9275
G01 X15.6421 Y24.9297
G01 X15.7842 Y24.9806
G01 X15.9241 Y25.0468
G01 X16.0568 Y25.1263
G01 X16.1810 Y25.2185
G01 X16.2956 Y25.3224
G01 X16.3995 Y25.4370
G01 X16.4917 Y25.5612
G01 X16.5712 Y25.6939
G01 X16.6374 Y25.8338
G01 X16.6895 Y25.9794
G01 X16.7271 Y26.1295
G01 X16.7498 Y26.2825
G01 X16.7573 Y26.4370
G01 X16.7498 Y26.5915
G01 X16.7271 Y26.7445
G01 X16.6895 Y26.8946
G01 X16.6374 Y27.0402
G01 X16.5712 Y27.1801
G01 X16.4917 Y27.3128
G01 X16.3995 Y27.4370
G01 X16.2956 Y27.5516
G01 X16.1810 Y27.6555
G01 X16.0568 Y27.7477
G01 X15.9241 Y27.8272
G01 X15.7842 Y27.8934
G01 X15.6386 Y27.9455
G01 X15.4885 Y27.9831
G01 X15.3355 Y28.0058
G01 X15.1810 Y28.0133
G01 X15.0265 Y28.0058
G01 X14.8735 Y27.9831
G01 X14.7234 Y27.9455
G01 X14.5795 Y27.8941
G01 X14.5521 Y27.8813
G00 Z2.0000
G00 X20.0755 Y22.7503
G01 F60.00
G01 Z-0.2001
G01 F80.00
G01 X20.0756 Y31.8980
G01 X20.0728 Y31.9545
G01 X20.0645 Y32.0105
G01 X20.0518 Y32.0618
G01 X20.0496 Y32.0689
G01 X20.0317 Y32.1187
G01 X20.0092 Y32.1665
G01 X20.0057 Y32.1731
G01 X19.9784 Y32.2183
G01 X19.9470 Y32.2608
G01 X19.9423 Y32.2666
G01 X19.9067 Y32.3057
G01 X18.8124 Y33.4001
G01 X18.8133 Y33.4239
G01 X18.8095 Y33.5023
G01 X18.7976 Y33.5837
G01 X18.7773 Y33.6654
G01 X18.7502 Y33.7411
G01 X18.7144 Y33.8172
G01 X18.6721 Y33.8878
G01 X18.6231 Y33.9538
G01 X18.5678 Y34.0148
G01 X18.5097 Y34.0676
G01 X18.5039 Y34.0724
G01 X18.4408 Y34.1191
G01 X18.3735 Y34.1595
G01 X18.3668 Y34.1630
G01 X18.2958 Y34.1965
G01 X18.2184 Y34.2243
G01 X18.1386 Y34.2442
G01 X18.0609 Y34.2559
G01 X18.0534 Y34.2566
G01 X17.9750 Y34.2603
G01 X17.8966 Y34.2566
G01 X17.8891 Y34.2559
G01 X17.8114 Y34.2442
G01 X17.7316 Y34.2243
G01 X17.6577 Y34.1979
G01 X17.6508 Y34.1950
G01 X17.5798 Y34.1614
G01 X17.5124 Y34.1211
G01 X17.5062 Y34.1169
G01 X17.4461 Y34.0724
G01 X17.4403 Y34.0676
G01 X17.3822 Y34.0148
G01 X17.3269 Y33.9538
G01 X17.2779 Y33.8878
G01 X17.2356 Y33.8172
G01 X17.2005 Y33.7428
G01 X17.1739 Y33.6689
G01 X17.1717 Y33.6617
G01 X17.1528 Y33.5856
G01 X17.1411 Y33.5079
G01 X17.1404 Y33.5004
G01 X17.1367 Y33.4257
G01 X17.1367 Y33.4183
G01 X17.1407 Y33.3398
G01 X17.1528 Y33.2584
G01 X17.1727 Y33.1786
G01 X17.2012 Y33.0995
G01 X17.2356 Y33.0268
G01 X17.2759 Y32.9594
G01 X17.2801 Y32.9532
G01 X17.3269 Y32.8902
G01 X17.3822 Y32.8292
G01 X17.4403 Y32.7764
G01 X17.4461 Y32.7716
G01 X17.5108 Y32.7239
G01 X17.5798 Y32.6826
G01 X17.6508 Y32.6490
G01 X17.6577 Y32.6461
G01 X17.7334 Y32.6192
G01 X17.8114 Y32.5998
G01 X17.8910 Y32.5879
G01 X17.9731 Y32.5837
G01 X17.9969 Y32.5846
G01 X18.9224 Y31.6592
G01 X18.9224 Y22.9928
G01 X17.8632 Y21.9336
G01 X16.6470 Y21.9336
G01 X16.6366 Y21.9620
G01 X16.5712 Y22.1001
G01 X16.4917 Y22.2328
G01 X16.3995 Y22.3570
G01 X16.2982 Y22.4689
G01 X16.2929 Y22.4742
G01 X16.1839 Y22.5731
G01 X16.1781 Y22.5778
G01 X16.0568 Y22.6677
G01 X15.9273 Y22.7454
G01 X15.9207 Y22.7489
G01 X15.7842 Y22.8134
G01 X15.6368 Y22.8660
G01 X15.4885 Y22.9031
G01 X15.3355 Y22.9258
G01 X15.1810 Y22.9333
G01 X15.0302 Y22.9260
G01 X15.0228 Y22.9253
G01 X14.8772 Y22.9037
G01 X14.8698 Y22.9022
G01 X14.7234 Y22.8655
G01 X14.5795 Y22.8141
G01 X14.4379 Y22.7472
G01 X14.3052 Y22.6677
G01 X14.1810 Y22.5755
G01 X14.0691 Y22.4742
G01 X14.0638 Y22.4689
G01 X13.9625 Y22.3570
G01 X13.8725 Y22.2358
G01 X13.8683 Y22.2296
G01 X13.7926 Y22.1033
G01 X13.7891 Y22.0967
G01 X13.7246 Y21.9602
G01 X13.6725 Y21.8146
G01 X13.6349 Y21.6645
G01 X13.6122 Y21.5115
G01 X13.6047 Y21.3570
G01 X13.6122 Y21.2025
G01 X13.6349 Y21.0495
G01 X13.6720 Y20.9012
G01 X13.7246 Y20.7538
G01 X13.7908 Y20.6139
G01 X13.8703 Y20.4812
G01 X13.9625 Y20.3570
G01 X14.0664 Y20.2424
G01 X14.1810 Y20.1385
G01 X14.3052 Y20.0463
G01 X14.4379 Y19.9668
G01 X14.5778 Y19.9006
G01 X14.7234 Y19.8485
G01 X14.8735 Y19.8109
G01 X15.0265 Y19.7882
G01 X15.1810 Y19.7807
G01 X15.3355 Y19.7882
G01 X15.4885 Y19.8109
G01 X15.6368 Y19.8480
G01 X15.7842 Y19.9006
G01 X15.9207 Y19.9651
G01 X15.9273 Y19.9686
G01 X16.0536 Y20.0443
G01 X16.0598 Y20.0485
G01 X16.1810 Y20.1385
G01 X16.2929 Y20.2398
G01 X16.2982 Y20.2451
G01 X16.3995 Y20.3570
G01 X16.4917 Y20.4812
G01 X16.5712 Y20.6139
G01 X16.6366 Y20.7520
G01 X16.6470 Y20.7804
G01 X18.1020 Y20.7804
G01 X18.1548 Y20.7829
G01 X18.1622 Y20.7836
G01 X18.2145 Y20.7915
G01 X18.2658 Y20.8042
G01 X18.2729 Y20.8064
G01 X18.3227 Y20.8243
G01 X18.3705 Y20.8468
G01 X18.3771 Y20.8503
G01 X18.4223 Y20.8776
G01 X18.4678 Y20.9113
G01 X18.5097 Y20.9493
G01 X19.9067 Y22.3463
G01 X19.9435 Y22.3868
G01 X19.9784 Y22.4337
G01 X20.0057 Y22.4789
G01 X20.0092 Y22.4855
G01 X20.0302 Y22.5299
G01 X20.0331 Y22.5368
G01 X20.0508 Y22.5866
G01 X20.0645 Y22.6415
G01 X20.0728 Y22.6975
G01 X20.0755 Y22.7503
G00 Z2.0000
G00 X24.5980 Y15.4737
G01 F60.00
G01 Z-0.2001
G01 F80.00
G01 X24.6606 Y15.4766
G01 X24.6680 Y15.4774
G01 X24.7299 Y15.4866
G01 X24.7943 Y15.5028
G01 X24.8533 Y15.5238
G01 X24.8603 Y15.5267
G01 X24.9168 Y15.5535
G01 X24.9738 Y15.5876
G01 X25.0271 Y15.6272
G01 X25.0735 Y15.6692
G01 X25.0788 Y15.6745
G01 X25.1208 Y15.7209
G01 X25.1604 Y15.7742
G01 X25.1926 Y15.8279
G01 X25.1962 Y15.8345
G01 X25.2213 Y15.8877
G01 X25.2242 Y15.8947
G01 X25.2452 Y15.9537
G01 X25.2605 Y16.0144
G01 X25.2620 Y16.0217
G01 X25.2706 Y16.0800
G01 X25.2714 Y16.0874
G01 X25.2743 Y16.1500
G01 X25.2711 Y16.2163
G01 X25.2614 Y16.2819
G01 X25.2462 Y16.3427
G01 X25.2441 Y16.3499
G01 X25.2242 Y16.4053
G01 X25.2213 Y16.4123
G01 X25.1945 Y16.4688
G01 X25.1604 Y16.5258
G01 X25.1208 Y16.5791
G01 X25.0788 Y16.6255
G01 X25.0735 Y16.6308
G01 X25.0271 Y16.6728
G01 X24.9768 Y16.7102
G01 X24.9706 Y16.7144
G01 X24.9168 Y16.7465
G01 X24.8568 Y16.7749
G01 X24.7979 Y16.7961
G01 X24.7907 Y16.7982
G01 X24.7299 Y16.8134
G01 X24.6662 Y16.8229
G01 X24.5980 Y16.8263
G01 X23.7980 Y16.8263
G01 X23.7354 Y16.8234
G01 X23.7280 Y16.8226
G01 X23.6661 Y16.8134
G01 X23.6017 Y16.7972
G01 X23.5392 Y16.7749
G01 X23.4792 Y16.7465
G01 X23.4222 Y16.7124
G01 X23.3689 Y16.6728
G01 X23.3197 Y16.6283
G01 X23.2752 Y16.5791
G01 X23.2356 Y16.5258
G01 X23.2015 Y16.4688
G01 X23.1731 Y16.4088
G01 X23.1508 Y16.3463
G01 X23.1346 Y16.2819
G01 X23.1249 Y16.2163
G01 X23.1217 Y16.1500
G01 X23.1249 Y16.0837
G01 X23.1346 Y16.0181
G01 X23.1508 Y15.9537
G01 X23.1731 Y15.8912
G01 X23.2015 Y15.8312
G01 X23.2356 Y15.7742
G01 X23.2752 Y15.7209
G01 X23.3197 Y15.6717
G01 X23.3689 Y15.6272
G01 X23.4192 Y15.5898
G01 X23.4254 Y15.5856
G01 X23.4792 Y15.5535
G01 X23.5392 Y15.5251
G01 X23.5981 Y15.5039
G01 X23.6053 Y15.5018
G01 X23.6661 Y15.4866
G01 X23.7298 Y15.4771
G01 X23.7980 Y15.4737
G01 X24.5980 Y15.4737
G00 Z2.0000
G00 X49.9943 Y18.0109
G01 F60.00
G01 Z-0.2001
G01 F80.00
G01 X50.0569 Y18.0139
G01 X50.0643 Y18.0146
G01 X50.1263 Y18.0239
G01 X50.1907 Y18.0401
G01 X50.2531 Y18.0624
G01 X50.3098 Y18.0891
G01 X50.3164 Y18.0926
G01 X50.3701 Y18.1249
G01 X50.4204 Y18.1621
G01 X50.4262 Y18.1669
G01 X50.4726 Y18.2090
G01 X50.5171 Y18.2582
G01 X50.5567 Y18.3115
G01 X50.5890 Y18.3652
G01 X50.5925 Y18.3718
G01 X50.6177 Y18.4250
G01 X50.6205 Y18.4319
G01 X50.6415 Y18.4909
G01 X50.6569 Y18.5517
G01 X50.6583 Y18.5590
G01 X50.6670 Y18.6173
G01 X50.6677 Y18.6247
G01 X50.6707 Y18.6873
G01 X50.6674 Y18.7536
G01 X50.6577 Y18.8192
G01 X50.6425 Y18.8800
G01 X50.6404 Y18.8872
G01 X50.6205 Y18.9426
G01 X50.6177 Y18.9495
G01 X50.5908 Y19.0061
G01 X50.5567 Y19.0630
G01 X50.5171 Y19.1164
G01 X50.4752 Y19.1628
G01 X50.4699 Y19.1681
G01 X50.4234 Y19.2101
G01 X50.3731 Y19.2475
G01 X50.3669 Y19.2516
G01 X50.3131 Y19.2838
G01 X50.2531 Y19.3121
G01 X50.1942 Y19.3333
G01 X50.1870 Y19.3355
G01 X50.1263 Y19.3506
G01 X50.0625 Y19.3602
G01 X49.9943 Y19.3636
G01 X49.1943 Y19.3636
G01 X49.1318 Y19.3606
G01 X49.1243 Y19.3599
G01 X49.0624 Y19.3506
G01 X48.9980 Y19.3345
G01 X48.9355 Y19.3121
G01 X48.8755 Y19.2838
G01 X48.8186 Y19.2496
G01 X48.7652 Y19.2101
G01 X48.7161 Y19.1655
G01 X48.6715 Y19.1164
G01 X48.6320 Y19.0630
G01 X48.5978 Y19.0061
G01 X48.5695 Y18.9461
G01 X48.5471 Y18.8836
G01 X48.5310 Y18.8192
G01 X48.5212 Y18.7536
G01 X48.5180 Y18.6873
G01 X48.5212 Y18.6210
G01 X48.5310 Y18.5553
G01 X48.5471 Y18.4909
G01 X48.5695 Y18.4285
G01 X48.5978 Y18.3685
G01 X48.6320 Y18.3115
G01 X48.6715 Y18.2582
G01 X48.7161 Y18.2090
G01 X48.7652 Y18.1645
G01 X48.8155 Y18.1271
G01 X48.8217 Y18.1229
G01 X48.8755 Y18.0908
G01 X48.9355 Y18.0624
G01 X48.9944 Y18.0412
G01 X49.0016 Y18.0391
G01 X49.0624 Y18.0239
G01 X49.1262 Y18.0144
G01 X49.1943 Y18.0109
G01 X49.9943 Y18.0109
G00 Z2.0000
G00 X49.9943 Y20.5509
G01 F60.00
G01 Z-0.2001
G01 F80.00
G01 X50.0569 Y20.5539
G01 X50.0643 Y20.5546
G01 X50.1263 Y20.5639
G01 X50.1907 Y20.5801
G01 X50.2531 Y20.6024
G01 X50.3098 Y20.6291
G01 X50.3164 Y20.6326
G01 X50.3701 Y20.6649
G01 X50.4204 Y20.7021
G01 X50.4262 Y20.7069
G01 X50.4726 Y20.7490
G01 X50.5171 Y20.7982
G01 X50.5567 Y20.8515
G01 X50.5890 Y20.9052
G01 X50.5925 Y20.9118
G01 X50.6177 Y20.9650
G01 X50.6205 Y20.9719
G01 X50.6415 Y21.0309
G01 X50.6569 Y21.0917
G01 X50.6583 Y21.0990
G01 X50.6670 Y21.1573
G01 X50.6677 Y21.1647
G01 X50.6707 Y21.2273
G01 X50.6674 Y21.2936
G01 X50.6577 Y21.3592
G01 X50.6425 Y21.4200
G01 X50.6404 Y21.4272
G01 X50.6205 Y21.4826
G01 X50.6177 Y21.4895
G01 X50.5908 Y21.5461
G01 X50.5567 Y21.6030
G01 X50.5171 Y21.6564
G01 X50.4752 Y21.7028
G01 X50.4699 Y21.7081
G01 X50.4234 Y21.7501
G01 X50.3731 Y21.7875
G01 X50.3669 Y21.7916
G01 X50.3131 Y21.8238
G01 X50.2531 Y21.8521
G01 X50.1942 Y21.8733
G01 X50.1870 Y21.8755
G01 X50.1263 Y21.8906
G01 X50.0625 Y21.9002
G01 X49.9943 Y21.9036
G01 X49.1943 Y21.9036
G01 X49.1318 Y21.9006
G01 X49.1243 Y21.8999
G01 X49.0624 Y21.8906
G01 X48.9980 Y21.8745
G01 X48.9355 Y21.8521
G01 X48.8755 Y21.8238
G01 X48.8186 Y21.7896
G01 X48.7652 Y21.7501
G01 X48.7161 Y21.7055
G01 X48.6715 Y21.6564
G01 X48.6320 Y21.6030
G01 X48.5978 Y21.5461
G01 X48.5695 Y21.4861
G01 X48.5471 Y21.4236
G01 X48.5310 Y21.3592
G01 X48.5212 Y21.2936
G01 X48.5180 Y21.2273
G01 X48.5212 Y21.1610
G01 X48.5310 Y21.0953
G01 X48.5471 Y21.0309
G01 X48.5695 Y20.9685
G01 X48.5978 Y20.9085
G01 X48.6320 Y20.8515
G01 X48.6715 Y20.7982
G01 X48.7161 Y20.7490
G01 X48.7652 Y20.7045
G01 X48.8155 Y20.6671
G01 X48.8217 Y20.6629
G01 X48.8755 Y20.6308
G01 X48.9355 Y20.6024
G01 X48.9944 Y20.5812
G01 X49.0016 Y20.5791
G01 X49.0624 Y20.5639
G01 X49.1262 Y20.5544
G01 X49.1943 Y20.5509
G01 X49.9943 Y20.5509
G00 Z2.0000
G00 X49.9943 Y23.0909
G01 F60.00
G01 Z-0.2001
G01 F80.00
G01 X50.0569 Y23.0939
G01 X50.0643 Y23.0946
G01 X50.1263 Y23.1039
G01 X50.1907 Y23.1201
G01 X50.2531 Y23.1424
G01 X50.3098 Y23.1691
G01 X50.3164 Y23.1726
G01 X50.3701 Y23.2049
G01 X50.4234 Y23.2445
G01 X50.4699 Y23.2864
G01 X50.4752 Y23.2917
G01 X50.5171 Y23.3382
G01 X50.5567 Y23.3915
G01 X50.5890 Y23.4452
G01 X50.5925 Y23.4518
G01 X50.6177 Y23.5050
G01 X50.6205 Y23.5119
G01 X50.6415 Y23.5709
G01 X50.6569 Y23.6317
G01 X50.6583 Y23.6390
G01 X50.6670 Y23.6973
G01 X50.6677 Y23.7047
G01 X50.6707 Y23.7673
G01 X50.6674 Y23.8336
G01 X50.6577 Y23.8992
G01 X50.6425 Y23.9600
G01 X50.6404 Y23.9672
G01 X50.6205 Y24.0226
G01 X50.6177 Y24.0295
G01 X50.5908 Y24.0861
G01 X50.5567 Y24.1430
G01 X50.5195 Y24.1934
G01 X50.5147 Y24.1992
G01 X50.4726 Y24.2455
G01 X50.4234 Y24.2901
G01 X50.3701 Y24.3296
G01 X50.3164 Y24.3619
G01 X50.3098 Y24.3655
G01 X50.2531 Y24.3921
G01 X50.1942 Y24.4133
G01 X50.1870 Y24.4155
G01 X50.1263 Y24.4306
G01 X50.0625 Y24.4402
G01 X49.9943 Y24.4436
G01 X49.1943 Y24.4436
G01 X49.1318 Y24.4406
G01 X49.1243 Y24.4399
G01 X49.0624 Y24.4306
G01 X48.9980 Y24.4145
G01 X48.9355 Y24.3921
G01 X48.8755 Y24.3638
G01 X48.8186 Y24.3296
G01 X48.7652 Y24.2901
G01 X48.7161 Y24.2455
G01 X48.6715 Y24.1964
G01 X48.6320 Y24.1430
G01 X48.5978 Y24.0861
G01 X48.5695 Y24.0261
G01 X48.5471 Y23.9636
G01 X48.5310 Y23.8992
G01 X48.5212 Y23.8336
G01 X48.5180 Y23.7673
G01 X48.5212 Y23.7010
G01 X48.5310 Y23.6353
G01 X48.5471 Y23.5709
G01 X48.5695 Y23.5085
G01 X48.5978 Y23.4485
G01 X48.6320 Y23.3915
G01 X48.6715 Y23.3382
G01 X48.7161 Y23.2890
G01 X48.7652 Y23.2445
G01 X48.8186 Y23.2049
G01 X48.8722 Y23.1726
G01 X48.8788 Y23.1691
G01 X48.9355 Y23.1424
G01 X48.9944 Y23.1212
G01 X49.0016 Y23.1191
G01 X49.0624 Y23.1039
G01 X49.1262 Y23.0944
G01 X49.1943 Y23.0909
G01 X49.9943 Y23.0909
G00 Z2.0000
G00 X49.9943 Y25.6309
G01 F60.00
G01 Z-0.2001
G01 F80.00
G01 X50.0569 Y25.6339
G01 X50.0643 Y25.6346
G01 X50.1263 Y25.6439
G01 X50.1907 Y25.6601
G01 X50.2497 Y25.6811
G01 X50.2566 Y25.6839
G01 X50.3131 Y25.7108
G01 X50.3701 Y25.7449
G01 X50.4234 Y25.7845
G01 X50.4699 Y25.8264
G01 X50.4752 Y25.8317
G01 X50.5171 Y25.8782
G01 X50.5567 Y25.9315
G01 X50.5890 Y25.9852
G01 X50.5925 Y25.9918
G01 X50.6177 Y26.0450
G01 X50.6205 Y26.0519
G01 X50.6415 Y26.1109
G01 X50.6569 Y26.1717
G01 X50.6583 Y26.1790
G01 X50.6670 Y26.2373
G01 X50.6677 Y26.2447
G01 X50.6707 Y26.3073
G01 X50.6674 Y26.3736
G01 X50.6577 Y26.4392
G01 X50.6425 Y26.5000
G01 X50.6404 Y26.5072
G01 X50.6205 Y26.5626
G01 X50.6177 Y26.5695
G01 X50.5908 Y26.6261
G01 X50.5567 Y26.6830
G01 X50.5171 Y26.7364
G01 X50.4752 Y26.7828
G01 X50.4699 Y26.7881
G01 X50.4234 Y26.8301
G01 X50.3701 Y26.8696
G01 X50.3164 Y26.9019
G01 X50.3098 Y26.9055
G01 X50.2531 Y26.9321
G01 X50.1942 Y26.9533
G01 X50.1870 Y26.9555
G01 X50.1263 Y26.9706
G01 X50.0625 Y26.9802
G01 X49.9943 Y26.9836
G01 X49.1943 Y26.9836
G01 X49.1318 Y26.9806
G01 X49.1243 Y26.9799
G01 X49.0624 Y26.9706
G01 X48.9980 Y26.9545
G01 X48.9355 Y26.9321
G01 X48.8755 Y26.9038
G01 X48.8186 Y26.8696
G01 X48.7652 Y26.8301
G01 X48.7161 Y26.7855
G01 X48.6715 Y26.7364
G01 X48.6320 Y26.6830
G01 X48.5978 Y26.6261
G01 X48.5695 Y26.5661
G01 X48.5471 Y26.5036
G01 X48.5310 Y26.4392
G01 X48.5212 Y26.3736
G01 X48.5180 Y26.3073
G01 X48.5212 Y26.2410
G01 X48.5310 Y26.1753
G01 X48.5471 Y26.1109
G01 X48.5695 Y26.0485
G01 X48.5978 Y25.9885
G01 X48.6320 Y25.9315
G01 X48.6715 Y25.8782
G01 X48.7161 Y25.8290
G01 X48.7652 Y25.7845
G01 X48.8186 Y25.7449
G01 X48.8722 Y25.7126
G01 X48.8788 Y25.7091
G01 X48.9355 Y25.6824
G01 X48.9944 Y25.6612
G01 X49.0016 Y25.6591
G01 X49.0624 Y25.6439
G01 X49.1262 Y25.6344
G01 X49.1943 Y25.6309
G01 X49.9943 Y25.6309
G00 Z2.0000
G00 X49.9943 Y30.7109
G01 F60.00
G01 Z-0.2001
G01 F80.00
G01 X50.0569 Y30.7139
G01 X50.0643 Y30.7146
G01 X50.1263 Y30.7239
G01 X50.1907 Y30.7401
G01 X50.2531 Y30.7624
G01 X50.3098 Y30.7891
G01 X50.3164 Y30.7926
G01 X50.3701 Y30.8249
G01 X50.4234 Y30.8645
G01 X50.4699 Y30.9064
G01 X50.4752 Y30.9117
G01 X50.5171 Y30.9582
G01 X50.5567 Y31.0115
G01 X50.5890 Y31.0652
G01 X50.5925 Y31.0718
G01 X50.6177 Y31.1250
G01 X50.6205 Y31.1319
G01 X50.6415 Y31.1909
G01 X50.6569 Y31.2517
G01 X50.6583 Y31.2590
G01 X50.6670 Y31.3173
G01 X50.6677 Y31.3247
G01 X50.6707 Y31.3873
G01 X50.6674 Y31.4536
G01 X50.6577 Y31.5192
G01 X50.6425 Y31.5800
G01 X50.6404 Y31.5872
G01 X50.6205 Y31.6426
G01 X50.6177 Y31.6495
G01 X50.5908 Y31.7061
G01 X50.5567 Y31.7630
G01 X50.5195 Y31.8134
G01 X50.5147 Y31.8192
G01 X50.4726 Y31.8655
G01 X50.4234 Y31.9101
G01 X50.3701 Y31.9496
G01 X50.3164 Y31.9819
G01 X50.3098 Y31.9855
G01 X50.2531 Y32.0121
G01 X50.1942 Y32.0333
G01 X50.1870 Y32.0355
G01 X50.1263 Y32.0506
G01 X50.0625 Y32.0602
G01 X49.9943 Y32.0636
G01 X49.1943 Y32.0636
G01 X49.1318 Y32.0606
G01 X49.1243 Y32.0599
G01 X49.0624 Y32.0506
G01 X48.9980 Y32.0345
G01 X48.9355 Y32.0121
G01 X48.8755 Y31.9838
G01 X48.8186 Y31.9496
G01 X48.7652 Y31.9101
G01 X48.7161 Y31.8655
G01 X48.6715 Y31.8164
G01 X48.6320 Y31.7630
G01 X48.5978 Y31.7061
G01 X48.5695 Y31.6461
G01 X48.5471 Y31.5836
G01 X48.5310 Y31.5192
G01 X48.5212 Y31.4536
G01 X48.5180 Y31.3873
G01 X48.5212 Y31.3210
G01 X48.5310 Y31.2553
G01 X48.5471 Y31.1909
G01 X48.5695 Y31.1285
G01 X48.5978 Y31.0685
G01 X48.6320 Y31.0115
G01 X48.6715 Y30.9582
G01 X48.7161 Y30.9090
G01 X48.7652 Y30.8645
G01 X48.8186 Y30.8249
G01 X48.8722 Y30.7926
G01 X48.8788 Y30.7891
G01 X48.9355 Y30.7624
G01 X48.9944 Y30.7412
G01 X49.0016 Y30.7391
G01 X49.0624 Y30.7239
G01 X49.1262 Y30.7144
G01 X49.1943 Y30.7109
G01 X49.9943 Y30.7109
G00 Z2.0000
G00 X49.9943 Y33.2509
G01 F60.00
G01 Z-0.2001
G01 F80.00
G01 X50.0569 Y33.2539
G01 X50.0643 Y33.2546
G01 X50.1263 Y33.2639
G01 X50.1907 Y33.2801
G01 X50.2497 Y33.3011
G01 X50.2566 Y33.3039
G01 X50.3131 Y33.3308
G01 X50.3701 Y33.3649
G01 X50.4204 Y33.4021
G01 X50.4262 Y33.4069
G01 X50.4726 Y33.4490
G01 X50.5171 Y33.4982
G01 X50.5567 Y33.5515
G01 X50.5890 Y33.6052
G01 X50.5925 Y33.6118
G01 X50.6177 Y33.6650
G01 X50.6205 Y33.6719
G01 X50.6415 Y33.7309
G01 X50.6569 Y33.7917
G01 X50.6583 Y33.7990
G01 X50.6670 Y33.8573
G01 X50.6677 Y33.8647
G01 X50.6707 Y33.9273
G01 X50.6674 Y33.9936
G01 X50.6577 Y34.0592
G01 X50.6425 Y34.1200
G01 X50.6404 Y34.1272
G01 X50.6205 Y34.1826
G01 X50.6177 Y34.1895
G01 X50.5908 Y34.2461
G01 X50.5567 Y34.3030
G01 X50.5195 Y34.3534
G01 X50.5147 Y34.3592
G01 X50.4726 Y34.4055
G01 X50.4234 Y34.4501
G01 X50.3701 Y34.4896
G01 X50.3164 Y34.5219
G01 X50.3098 Y34.5255
G01 X50.2531 Y34.5521
G01 X50.1942 Y34.5733
G01 X50.1870 Y34.5755
G01 X50.1263 Y34.5906
G01 X50.0625 Y34.6002
G01 X49.9943 Y34.6036
G01 X49.1943 Y34.6036
G01 X49.1318 Y34.6006
G01 X49.1243 Y34.5999
G01 X49.0624 Y34.5906
G01 X48.9980 Y34.5745
G01 X48.9355 Y34.5521
G01 X48.8755 Y34.5238
G01 X48.8186 Y34.4896
G01 X48.7652 Y34.4501
G01 X48.7161 Y34.4055
G01 X48.6715 Y34.3564
G01 X48.6320 Y34.3030
G01 X48.5978 Y34.2461
G01 X48.5695 Y34.1861
G01 X48.5471 Y34.1236
G01 X48.5310 Y34.0592
G01 X48.5212 Y33.9936
G01 X48.5180 Y33.9273
G01 X48.5212 Y33.8610
G01 X48.5310 Y33.7953
G01 X48.5471 Y33.7309
G01 X48.5695 Y33.6685
G01 X48.5978 Y33.6085
G01 X48.6320 Y33.5515
G01 X48.6715 Y33.4982
G01 X48.7161 Y33.4490
G01 X48.7652 Y33.4045
G01 X48.8186 Y33.3649
G01 X48.8722 Y33.3326
G01 X48.8788 Y33.3291
G01 X48.9355 Y33.3024
G01 X48.9944 Y33.2812
G01 X49.0016 Y33.2791
G01 X49.0624 Y33.2639
G01 X49.1262 Y33.2544
G01 X49.1943 Y33.2509
G01 X49.9943 Y33.2509
G00 Z2.0000
G00 X49.9943 Y35.7909
G01 F60.00
G01 Z-0.2001
G01 F80.00
G01 X50.0569 Y35.7939
G01 X50.0643 Y35.7946
G01 X50.1263 Y35.8039
G01 X50.1907 Y35.8201
G01 X50.2497 Y35.8411
G01 X50.2566 Y35.8439
G01 X50.3131 Y35.8708
G01 X50.3701 Y35.9049
G01 X50.4234 Y35.9445
G01 X50.4699 Y35.9864
G01 X50.4752 Y35.9917
G01 X50.5171 Y36.0382
G01 X50.5567 Y36.0915
G01 X50.5890 Y36.1452
G01 X50.5925 Y36.1518
G01 X50.6177 Y36.2050
G01 X50.6205 Y36.2119
G01 X50.6415 Y36.2709
G01 X50.6569 Y36.3317
G01 X50.6583 Y36.3390
G01 X50.6670 Y36.3973
G01 X50.6677 Y36.4047
G01 X50.6707 Y36.4673
G01 X50.6674 Y36.5336
G01 X50.6577 Y36.5992
G01 X50.6425 Y36.6600
G01 X50.6404 Y36.6672
G01 X50.6205 Y36.7226
G01 X50.6177 Y36.7295
G01 X50.5908 Y36.7861
G01 X50.5567 Y36.8430
G01 X50.5171 Y36.8964
G01 X50.4752 Y36.9428
G01 X50.4699 Y36.9481
G01 X50.4234 Y36.9901
G01 X50.3701 Y37.0296
G01 X50.3164 Y37.0619
G01 X50.3098 Y37.0655
G01 X50.2531 Y37.0921
G01 X50.1942 Y37.1133
G01 X50.1870 Y37.1155
G01 X50.1263 Y37.1306
G01 X50.0625 Y37.1402
G01 X49.9943 Y37.1436
G01 X49.1943 Y37.1436
G01 X49.1318 Y37.1406
G01 X49.1243 Y37.1399
G01 X49.0624 Y37.1306
G01 X48.9980 Y37.1145
G01 X48.9355 Y37.0921
G01 X48.8755 Y37.0638
G01 X48.8186 Y37.0296
G01 X48.7652 Y36.9901
G01 X48.7161 Y36.9455
G01 X48.6715 Y36.8964
G01 X48.6320 Y36.8430
G01 X48.5978 Y36.7861
G01 X48.5695 Y36.7261
G01 X48.5471 Y36.6636
G01 X48.5310 Y36.5992
G01 X48.5212 Y36.5336
G01 X48.5180 Y36.4673
G01 X48.5212 Y36.4010
G01 X48.5310 Y36.3353
G01 X48.5471 Y36.2709
G01 X48.5695 Y36.2085
G01 X48.5978 Y36.1485
G01 X48.6320 Y36.0915
G01 X48.6715 Y36.0382
G01 X48.7161 Y35.9890
G01 X48.7652 Y35.9445
G01 X48.8186 Y35.9049
G01 X48.8722 Y35.8726
G01 X48.8788 Y35.8691
G01 X48.9355 Y35.8424
G01 X48.9944 Y35.8212
G01 X49.0016 Y35.8191
G01 X49.0624 Y35.8039
G01 X49.1262 Y35.7944
G01 X49.1943 Y35.7909
G01 X49.9943 Y35.7909
G00 Z2.0000
G00 X49.9943 Y38.3309
G01 F60.00
G01 Z-0.2001
G01 F80.00
G01 X50.0569 Y38.3339
G01 X50.0643 Y38.3346
G01 X50.1263 Y38.3439
G01 X50.1907 Y38.3601
G01 X50.2497 Y38.3811
G01 X50.2566 Y38.3839
G01 X50.3131 Y38.4108
G01 X50.3701 Y38.4449
G01 X50.4234 Y38.4845
G01 X50.4699 Y38.5264
G01 X50.4752 Y38.5317
G01 X50.5171 Y38.5782
G01 X50.5567 Y38.6315
G01 X50.5890 Y38.6852
G01 X50.5925 Y38.6918
G01 X50.6177 Y38.7450
G01 X50.6205 Y38.7519
G01 X50.6415 Y38.8109
G01 X50.6569 Y38.8717
G01 X50.6583 Y38.8790
G01 X50.6670 Y38.9373
G01 X50.6677 Y38.9447
G01 X50.6707 Y39.0073
G01 X50.6674 Y39.0736
G01 X50.6577 Y39.1392
G01 X50.6425 Y39.2000
G01 X50.6404 Y39.2072
G01 X50.6205 Y39.2626
G01 X50.6177 Y39.2695
G01 X50.5908 Y39.3261
G01 X50.5567 Y39.3830
G01 X50.5171 Y39.4364
G01 X50.4752 Y39.4828
G01 X50.4699 Y39.4881
G01 X50.4234 Y39.5301
G01 X50.3701 Y39.5696
G01 X50.3164 Y39.6019
G01 X50.3098 Y39.6055
G01 X50.2531 Y39.6321
G01 X50.1942 Y39.6533
G01 X50.1870 Y39.6555
G01 X50.1263 Y39.6706
G01 X50.0625 Y39.6802
G01 X49.9943 Y39.6836
G01 X49.1943 Y39.6836
G01 X49.1318 Y39.6806
G01 X49.1243 Y39.6799
G01 X49.0624 Y39.6706
G01 X48.9980 Y39.6545
G01 X48.9355 Y39.6321
G01 X48.8755 Y39.6038
G01 X48.8186 Y39.5696
G01 X48.7652 Y39.5301
G01 X48.7161 Y39.4855
G01 X48.6715 Y39.4364
G01 X48.6320 Y39.3830
G01 X48.5978 Y39.3261
G01 X48.5695 Y39.2661
G01 X48.5471 Y39.2036
G01 X48.5310 Y39.1392
G01 X48.5212 Y39.0736
G01 X48.5180 Y39.0073
G01 X48.5212 Y38.9410
G01 X48.5310 Y38.8753
G01 X48.5471 Y38.8109
G01 X48.5695 Y38.7485
G01 X48.5978 Y38.6885
G01 X48.6320 Y38.6315
G01 X48.6715 Y38.5782
G01 X48.7161 Y38.5290
G01 X48.7652 Y38.4845
G01 X48.8186 Y38.4449
G01 X48.8722 Y38.4126
G01 X48.8788 Y38.4091
G01 X48.9355 Y38.3824
G01 X48.9944 Y38.3612
G01 X49.0016 Y38.3591
G01 X49.0624 Y38.3439
G01 X49.1262 Y38.3344
G01 X49.1943 Y38.3309
G01 X49.9943 Y38.3309
G00 Z2.0000
G00 X49.9943 Y40.8709
G01 F60.00
G01 Z-0.2001
G01 F80.00
G01 X50.0569 Y40.8739
G01 X50.0643 Y40.8746
G01 X50.1263 Y40.8839
G01 X50.1907 Y40.9001
G01 X50.2531 Y40.9224
G01 X50.3098 Y40.9491
G01 X50.3164 Y40.9526
G01 X50.3701 Y40.9849
G01 X50.4234 Y41.0245
G01 X50.4699 Y41.0664
G01 X50.4752 Y41.0717
G01 X50.5171 Y41.1182
G01 X50.5567 Y41.1715
G01 X50.5890 Y41.2252
G01 X50.5925 Y41.2318
G01 X50.6177 Y41.2850
G01 X50.6205 Y41.2919
G01 X50.6415 Y41.3509
G01 X50.6569 Y41.4117
G01 X50.6583 Y41.4190
G01 X50.6670 Y41.4773
G01 X50.6677 Y41.4847
G01 X50.6707 Y41.5473
G01 X50.6674 Y41.6136
G01 X50.6577 Y41.6792
G01 X50.6425 Y41.7400
G01 X50.6404 Y41.7472
G01 X50.6205 Y41.8026
G01 X50.6177 Y41.8095
G01 X50.5908 Y41.8661
G01 X50.5567 Y41.9230
G01 X50.5195 Y41.9734
G01 X50.5147 Y41.9792
G01 X50.4726 Y42.0255
G01 X50.4234 Y42.0701
G01 X50.3731 Y42.1075
G01 X50.3669 Y42.1116
G01 X50.3131 Y42.1438
G01 X50.2531 Y42.1721
G01 X50.1942 Y42.1933
G01 X50.1870 Y42.1955
G01 X50.1263 Y42.2106
G01 X50.0625 Y42.2202
G01 X49.9943 Y42.2236
G01 X49.1943 Y42.2236
G01 X49.1318 Y42.2206
G01 X49.1243 Y42.2199
G01 X49.0624 Y42.2106
G01 X48.9980 Y42.1945
G01 X48.9355 Y42.1721
G01 X48.8755 Y42.1438
G01 X48.8186 Y42.1096
G01 X48.7652 Y42.0701
G01 X48.7161 Y42.0255
G01 X48.6715 Y41.9764
G01 X48.6320 Y41.9230
G01 X48.5978 Y41.8661
G01 X48.5695 Y41.8061
G01 X48.5471 Y41.7436
G01 X48.5310 Y41.6792
G01 X48.5212 Y41.6136
G01 X48.5180 Y41.5473
G01 X48.5212 Y41.4810
G01 X48.5310 Y41.4153
G01 X48.5471 Y41.3509
G01 X48.5695 Y41.2885
G01 X48.5978 Y41.2285
G01 X48.6320 Y41.1715
G01 X48.6715 Y41.1182
G01 X48.7161 Y41.0690
G01 X48.7652 Y41.0245
G01 X48.8155 Y40.9871
G01 X48.8217 Y40.9829
G01 X48.8755 Y40.9508
G01 X48.9355 Y40.9224
G01 X48.9944 Y40.9012
G01 X49.0016 Y40.8991
G01 X49.0624 Y40.8839
G01 X49.1262 Y40.8744
G01 X49.1943 Y40.8709
G01 X49.9943 Y40.8709
G00 Z2.0000
G00 X49.9943 Y43.4109
G01 F60.00
G01 Z-0.2001
G01 F80.00
G01 X50.0569 Y43.4139
G01 X50.0643 Y43.4146
G01 X50.1263 Y43.4239
G01 X50.1907 Y43.4401
G01 X50.2497 Y43.4611
G01 X50.2566 Y43.4639
G01 X50.3131 Y43.4908
G01 X50.3701 Y43.5249
G01 X50.4204 Y43.5621
G01 X50.4262 Y43.5669
G01 X50.4726 Y43.6090
G01 X50.5171 Y43.6582
G01 X50.5567 Y43.7115
G01 X50.5890 Y43.7652
G01 X50.5925 Y43.7718
G01 X50.6177 Y43.8250
G01 X50.6205 Y43.8319
G01 X50.6415 Y43.8909
G01 X50.6569 Y43.9517
G01 X50.6583 Y43.9590
G01 X50.6670 Y44.0173
G01 X50.6677 Y44.0247
G01 X50.6707 Y44.0873
G01 X50.6674 Y44.1536
G01 X50.6577 Y44.2192
G01 X50.6425 Y44.2800
G01 X50.6404 Y44.2872
G01 X50.6205 Y44.3426
G01 X50.6177 Y44.3495
G01 X50.5908 Y44.4061
G01 X50.5567 Y44.4630
G01 X50.5171 Y44.5164
G01 X50.4752 Y44.5628
G01 X50.4699 Y44.5681
G01 X50.4234 Y44.6101
G01 X50.3701 Y44.6496
G01 X50.3164 Y44.6819
G01 X50.3098 Y44.6855
G01 X50.2531 Y44.7121
G01 X50.1942 Y44.7333
G01 X50.1870 Y44.7355
G01 X50.1263 Y44.7506
G01 X50.0625 Y44.7602
G01 X49.9943 Y44.7636
G01 X49.1943 Y44.7636
G01 X49.1318 Y44.7606
G01 X49.1243 Y44.7599
G01 X49.0624 Y44.7506
G01 X48.9980 Y44.7345
G01 X48.9355 Y44.7121
G01 X48.8755 Y44.6838
G01 X48.8186 Y44.6496
G01 X48.7652 Y44.6101
G01 X48.7161 Y44.5655
G01 X48.6715 Y44.5164
G01 X48.6320 Y44.4630
G01 X48.5978 Y44.4061
G01 X48.5695 Y44.3461
G01 X48.5471 Y44.2836
G01 X48.5310 Y44.2192
G01 X48.5212 Y44.1536
G01 X48.5180 Y44.0873
G01 X48.5212 Y44.0210
G01 X48.5310 Y43.9553
G01 X48.5471 Y43.8909
G01 X48.5695 Y43.8285
G01 X48.5978 Y43.7685
G01 X48.6320 Y43.7115
G01 X48.6715 Y43.6582
G01 X48.7161 Y43.6090
G01 X48.7652 Y43.5645
G01 X48.8155 Y43.5271
G01 X48.8217 Y43.5229
G01 X48.8755 Y43.4908
G01 X48.9355 Y43.4624
G01 X48.9944 Y43.4412
G01 X49.0016 Y43.4391
G01 X49.0624 Y43.4239
G01 X49.1262 Y43.4144
G01 X49.1943 Y43.4109
G01 X49.9943 Y43.4109
G00 Z2.0000
G00 X49.9943 Y45.9509
G01 F60.00
G01 Z-0.2001
G01 F80.00
G01 X50.0569 Y45.9539
G01 X50.0643 Y45.9546
G01 X50.1263 Y45.9639
G01 X50.1907 Y45.9801
G01 X50.2497 Y46.0011
G01 X50.2566 Y46.0039
G01 X50.3131 Y46.0308
G01 X50.3701 Y46.0649
G01 X50.4234 Y46.1045
G01 X50.4699 Y46.1464
G01 X50.4752 Y46.1517
G01 X50.5171 Y46.1982
G01 X50.5567 Y46.2515
G01 X50.5890 Y46.3052
G01 X50.5925 Y46.3118
G01 X50.6177 Y46.3650
G01 X50.6205 Y46.3719
G01 X50.6415 Y46.4309
G01 X50.6569 Y46.4917
G01 X50.6583 Y46.4990
G01 X50.6670 Y46.5573
G01 X50.6677 Y46.5647
G01 X50.6707 Y46.6273
G01 X50.6674 Y46.6936
G01 X50.6577 Y46.7592
G01 X50.6425 Y46.8200
G01 X50.6404 Y46.8272
G01 X50.6205 Y46.8826
G01 X50.6177 Y46.8895
G01 X50.5908 Y46.9461
G01 X50.5567 Y47.0030
G01 X50.5171 Y47.0564
G01 X50.4752 Y47.1028
G01 X50.4699 Y47.1081
G01 X50.4234 Y47.1501
G01 X50.3701 Y47.1896
G01 X50.3164 Y47.2219
G01 X50.3098 Y47.2255
G01 X50.2531 Y47.2521
G01 X50.1942 Y47.2733
G01 X50.1870 Y47.2755
G01 X50.1263 Y47.2906
G01 X50.0625 Y47.3002
G01 X49.9943 Y47.3036
G01 X49.1943 Y47.3036
G01 X49.1318 Y47.3006
G01 X49.1243 Y47.2999
G01 X49.0624 Y47.2906
G01 X48.9980 Y47.2745
G01 X48.9355 Y47.2521
G01 X48.8755 Y47.2238
G01 X48.8186 Y47.1896
G01 X48.7652 Y47.1501
G01 X48.7161 Y47.1055
G01 X48.6715 Y47.0564
G01 X48.6320 Y47.0030
G01 X48.5978 Y46.9461
G01 X48.5695 Y46.8861
G01 X48.5471 Y46.8236
G01 X48.5310 Y46.7592
G01 X48.5212 Y46.6936
G01 X48.5180 Y46.6273
G01 X48.5212 Y46.5610
G01 X48.5310 Y46.4953
G01 X48.5471 Y46.4309
G01 X48.5695 Y46.3685
G01 X48.5978 Y46.3085
G01 X48.6320 Y46.2515
G01 X48.6715 Y46.1982
G01 X48.7161 Y46.1490
G01 X48.7652 Y46.1045
G01 X48.8186 Y46.0649
G01 X48.8722 Y46.0326
G01 X48.8788 Y46.0291
G01 X48.9355 Y46.0024
G01 X48.9944 Y45.9812
G01 X49.0016 Y45.9791
G01 X49.0624 Y45.9639
G01 X49.1262 Y45.9544
G01 X49.1943 Y45.9509
G01 X49.9943 Y45.9509
G00 Z2.0000
G00 X49.9943 Y48.4909
G01 F60.00
G01 Z-0.2001
G01 F80.00
G01 X50.0569 Y48.4939
G01 X50.0643 Y48.4946
G01 X50.1263 Y48.5039
G01 X50.1907 Y48.5201
G01 X50.2531 Y48.5424
G01 X50.3098 Y48.5691
G01 X50.3164 Y48.5726
G01 X50.3701 Y48.6049
G01 X50.4204 Y48.6421
G01 X50.4262 Y48.6469
G01 X50.4726 Y48.6890
G01 X50.5171 Y48.7382
G01 X50.5567 Y48.7915
G01 X50.5890 Y48.8452
G01 X50.5925 Y48.8518
G01 X50.6177 Y48.9050
G01 X50.6205 Y48.9119
G01 X50.6415 Y48.9709
G01 X50.6569 Y49.0317
G01 X50.6583 Y49.0390
G01 X50.6670 Y49.0973
G01 X50.6677 Y49.1047
G01 X50.6707 Y49.1673
G01 X50.6674 Y49.2336
G01 X50.6577 Y49.2992
G01 X50.6425 Y49.3600
G01 X50.6404 Y49.3672
G01 X50.6205 Y49.4226
G01 X50.6177 Y49.4295
G01 X50.5908 Y49.4861
G01 X50.5567 Y49.5430
G01 X50.5195 Y49.5934
G01 X50.5147 Y49.5992
G01 X50.4726 Y49.6455
G01 X50.4234 Y49.6901
G01 X50.3731 Y49.7275
G01 X50.3669 Y49.7316
G01 X50.3131 Y49.7638
G01 X50.2531 Y49.7921
G01 X50.1942 Y49.8133
G01 X50.1870 Y49.8155
G01 X50.1263 Y49.8306
G01 X50.0625 Y49.8402
G01 X49.9943 Y49.8436
G01 X49.1943 Y49.8436
G01 X49.1318 Y49.8406
G01 X49.1243 Y49.8399
G01 X49.0624 Y49.8306
G01 X48.9980 Y49.8145
G01 X48.9355 Y49.7921
G01 X48.8755 Y49.7638
G01 X48.8186 Y49.7296
G01 X48.7652 Y49.6901
G01 X48.7161 Y49.6455
G01 X48.6715 Y49.5964
G01 X48.6320 Y49.5430
G01 X48.5978 Y49.4861
G01 X48.5695 Y49.4261
G01 X48.5471 Y49.3636
G01 X48.5310 Y49.2992
G01 X48.5212 Y49.2336
G01 X48.5180 Y49.1673
G01 X48.5212 Y49.1010
G01 X48.5310 Y49.0353
G01 X48.5471 Y48.9709
G01 X48.5695 Y48.9085
G01 X48.5978 Y48.8485
G01 X48.6320 Y48.7915
G01 X48.6715 Y48.7382
G01 X48.7161 Y48.6890
G01 X48.7652 Y48.6445
G01 X48.8155 Y48.6071
G01 X48.8217 Y48.6029
G01 X48.8755 Y48.5708
G01 X48.9355 Y48.5424
G01 X48.9944 Y48.5212
G01 X49.0016 Y48.5191
G01 X49.0624 Y48.5039
G01 X49.1262 Y48.4944
G01 X49.1943 Y48.4909
G01 X49.9943 Y48.4909
G00 Z2.0000
G00 X49.9943 Y51.0309
G01 F60.00
G01 Z-0.2001
G01 F80.00
G01 X50.0569 Y51.0339
G01 X50.0643 Y51.0346
G01 X50.1263 Y51.0439
G01 X50.1907 Y51.0601
G01 X50.2497 Y51.0811
G01 X50.2566 Y51.0839
G01 X50.3131 Y51.1108
G01 X50.3701 Y51.1449
G01 X50.4204 Y51.1821
G01 X50.4262 Y51.1869
G01 X50.4726 Y51.2290
G01 X50.5171 Y51.2782
G01 X50.5567 Y51.3315
G01 X50.5890 Y51.3852
G01 X50.5925 Y51.3918
G01 X50.6177 Y51.4450
G01 X50.6205 Y51.4519
G01 X50.6415 Y51.5109
G01 X50.6569 Y51.5717
G01 X50.6583 Y51.5790
G01 X50.6670 Y51.6373
G01 X50.6677 Y51.6447
G01 X50.6707 Y51.7073
G01 X50.6674 Y51.7736
G01 X50.6577 Y51.8392
G01 X50.6425 Y51.9000
G01 X50.6404 Y51.9072
G01 X50.6205 Y51.9626
G01 X50.6177 Y51.9695
G01 X50.5908 Y52.0261
G01 X50.5567 Y52.0830
G01 X50.5171 Y52.1364
G01 X50.4752 Y52.1828
G01 X50.4699 Y52.1881
G01 X50.4234 Y52.2301
G01 X50.3701 Y52.2696
G01 X50.3164 Y52.3019
G01 X50.3098 Y52.3055
G01 X50.2531 Y52.3321
G01 X50.1942 Y52.3533
G01 X50.1870 Y52.3555
G01 X50.1263 Y52.3706
G01 X50.0625 Y52.3802
G01 X49.9943 Y52.3836
G01 X49.1943 Y52.3836
G01 X49.1318 Y52.3806
G01 X49.1243 Y52.3799
G01 X49.0624 Y52.3706
G01 X48.9980 Y52.3545
G01 X48.9355 Y52.3321
G01 X48.8755 Y52.3038
G01 X48.8186 Y52.2696
G01 X48.7652 Y52.2301
G01 X48.7161 Y52.1855
G01 X48.6715 Y52.1364
G01 X48.6320 Y52.0830
G01 X48.5978 Y52.0261
G01 X48.5695 Y51.9661
G01 X48.5471 Y51.9036
G01 X48.5310 Y51.8392
G01 X48.5212 Y51.7736
G01 X48.5180 Y51.7073
G01 X48.5212 Y51.6410
G01 X48.5310 Y51.5753
G01 X48.5471 Y51.5109
G01 X48.5695 Y51.4485
G01 X48.5978 Y51.3885
G01 X48.6320 Y51.3315
G01 X48.6715 Y51.2782
G01 X48.7161 Y51.2290
G01 X48.7652 Y51.1845
G01 X48.8155 Y51.1471
G01 X48.8217 Y51.1429
G01 X48.8755 Y51.1108
G01 X48.9355 Y51.0824
G01 X48.9944 Y51.0612
G01 X49.0016 Y51.0591
G01 X49.0624 Y51.0439
G01 X49.1262 Y51.0344
G01 X49.1943 Y51.0309
G01 X49.9943 Y51.0309
G00 Z2.0000
G00 X49.9943 Y53.5709
G01 F60.00
G01 Z-0.2001
G01 F80.00
G01 X50.0569 Y53.5739
G01 X50.0643 Y53.5746
G01 X50.1263 Y53.5839
G01 X50.1907 Y53.6001
G01 X50.2531 Y53.6224
G01 X50.3098 Y53.6491
G01 X50.3164 Y53.6526
G01 X50.3701 Y53.6849
G01 X50.4204 Y53.7221
G01 X50.4262 Y53.7269
G01 X50.4726 Y53.7690
G01 X50.5171 Y53.8182
G01 X50.5567 Y53.8715
G01 X50.5890 Y53.9252
G01 X50.5925 Y53.9318
G01 X50.6177 Y53.9850
G01 X50.6205 Y53.9919
G01 X50.6415 Y54.0509
G01 X50.6569 Y54.1117
G01 X50.6583 Y54.1190
G01 X50.6670 Y54.1773
G01 X50.6677 Y54.1847
G01 X50.6707 Y54.2473
G01 X50.6674 Y54.3136
G01 X50.6577 Y54.3792
G01 X50.6425 Y54.4400
G01 X50.6404 Y54.4472
G01 X50.6205 Y54.5026
G01 X50.6177 Y54.5095
G01 X50.5908 Y54.5661
G01 X50.5567 Y54.6230
G01 X50.5171 Y54.6764
G01 X50.4752 Y54.7228
G01 X50.4699 Y54.7281
G01 X50.4234 Y54.7701
G01 X50.3701 Y54.8096
G01 X50.3164 Y54.8419
G01 X50.3098 Y54.8455
G01 X50.2531 Y54.8721
G01 X50.1942 Y54.8933
G01 X50.1870 Y54.8955
G01 X50.1263 Y54.9106
G01 X50.0625 Y54.9202
G01 X49.9943 Y54.9236
G01 X49.1943 Y54.9236
G01 X49.1318 Y54.9206
G01 X49.1243 Y54.9199
G01 X49.0624 Y54.9106
G01 X48.9980 Y54.8945
G01 X48.9355 Y54.8721
G01 X48.8755 Y54.8438
G01 X48.8186 Y54.8096
G01 X48.7652 Y54.7701
G01 X48.7161 Y54.7255
G01 X48.6715 Y54.6764
G01 X48.6320 Y54.6230
G01 X48.5978 Y54.5661
G01 X48.5695 Y54.5061
G01 X48.5471 Y54.4436
G01 X48.5310 Y54.3792
G01 X48.5212 Y54.3136
G01 X48.5180 Y54.2473
G01 X48.5212 Y54.1810
G01 X48.5310 Y54.1153
G01 X48.5471 Y54.0509
G01 X48.5695 Y53.9885
G01 X48.5978 Y53.9285
G01 X48.6320 Y53.8715
G01 X48.6715 Y53.8182
G01 X48.7161 Y53.7690
G01 X48.7652 Y53.7245
G01 X48.8186 Y53.6849
G01 X48.8722 Y53.6526
G01 X48.8788 Y53.6491
G01 X48.9355 Y53.6224
G01 X48.9944 Y53.6012
G01 X49.0016 Y53.5991
G01 X49.0624 Y53.5839
G01 X49.1262 Y53.5744
G01 X49.1943 Y53.5709
G01 X49.9943 Y53.5709
G00 Z2.0000
G00 X49.9943 Y56.1109
G01 F60.00
G01 Z-0.2001
G01 F80.00
G01 X50.0569 Y56.1139
G01 X50.0643 Y56.1146
G01 X50.1263 Y56.1239
G01 X50.1907 Y56.1401
G01 X50.2531 Y56.1624
G01 X50.3098 Y56.1891
G01 X50.3164 Y56.1926
G01 X50.3701 Y56.2249
G01 X50.4204 Y56.2621
G01 X50.4262 Y56.2669
G01 X50.4726 Y56.3090
G01 X50.5171 Y56.3582
G01 X50.5567 Y56.4115
G01 X50.5890 Y56.4652
G01 X50.5925 Y56.4718
G01 X50.6177 Y56.5250
G01 X50.6205 Y56.5319
G01 X50.6415 Y56.5909
G01 X50.6569 Y56.6517
G01 X50.6583 Y56.6590
G01 X50.6670 Y56.7173
G01 X50.6677 Y56.7247
G01 X50.6707 Y56.7873
G01 X50.6674 Y56.8536
G01 X50.6577 Y56.9192
G01 X50.6425 Y56.9800
G01 X50.6404 Y56.9872
G01 X50.6205 Y57.0426
G01 X50.6177 Y57.0495
G01 X50.5908 Y57.1061
G01 X50.5567 Y57.1630
G01 X50.5171 Y57.2164
G01 X50.4752 Y57.2628
G01 X50.4699 Y57.2681
G01 X50.4234 Y57.3101
G01 X50.3701 Y57.3496
G01 X50.3164 Y57.3819
G01 X50.3098 Y57.3855
G01 X50.2531 Y57.4121
G01 X50.1942 Y57.4333
G01 X50.1870 Y57.4355
G01 X50.1263 Y57.4506
G01 X50.0625 Y57.4602
G01 X49.9943 Y57.4636
G01 X49.1943 Y57.4636
G01 X49.1318 Y57.4606
G01 X49.1243 Y57.4599
G01 X49.0624 Y57.4506
G01 X48.9980 Y57.4345
G01 X48.9355 Y57.4121
G01 X48.8755 Y57.3838
G01 X48.8186 Y57.3496
G01 X48.7652 Y57.3101
G01 X48.7161 Y57.2655
G01 X48.6715 Y57.2164
G01 X48.6320 Y57.1630
G01 X48.5978 Y57.1061
G01 X48.5695 Y57.0461
G01 X48.5471 Y56.9836
G01 X48.5310 Y56.9192
G01 X48.5212 Y56.8536
G01 X48.5180 Y56.7873
G01 X48.5212 Y56.7210
G01 X48.5310 Y56.6553
G01 X48.5471 Y56.5909
G01 X48.5695 Y56.5285
G01 X48.5978 Y56.4685
G01 X48.6320 Y56.4115
G01 X48.6715 Y56.3582
G01 X48.7161 Y56.3090
G01 X48.7652 Y56.2645
G01 X48.8186 Y56.2249
G01 X48.8722 Y56.1926
G01 X48.8788 Y56.1891
G01 X48.9355 Y56.1624
G01 X48.9944 Y56.1412
G01 X49.0016 Y56.1391
G01 X49.0624 Y56.1239
G01 X49.1262 Y56.1144
G01 X49.1943 Y56.1109
G01 X49.9943 Y56.1109
G00 Z2.0000
G00 X49.9943 Y58.6509
G01 F60.00
G01 Z-0.2001
G01 F80.00
G01 X50.0569 Y58.6539
G01 X50.0643 Y58.6546
G01 X50.1263 Y58.6639
G01 X50.1907 Y58.6801
G01 X50.2497 Y58.7011
G01 X50.2566 Y58.7039
G01 X50.3131 Y58.7308
G01 X50.3701 Y58.7649
G01 X50.4204 Y58.8021
G01 X50.4262 Y58.8069
G01 X50.4726 Y58.8490
G01 X50.5171 Y58.8982
G01 X50.5567 Y58.9515
G01 X50.5890 Y59.0052
G01 X50.5925 Y59.0118
G01 X50.6177 Y59.0650
G01 X50.6205 Y59.0719
G01 X50.6415 Y59.1309
G01 X50.6569 Y59.1917
G01 X50.6583 Y59.1990
G01 X50.6670 Y59.2573
G01 X50.6677 Y59.2647
G01 X50.6707 Y59.3273
G01 X50.6674 Y59.3936
G01 X50.6577 Y59.4592
G01 X50.6425 Y59.5200
G01 X50.6404 Y59.5272
G01 X50.6205 Y59.5826
G01 X50.6177 Y59.5895
G01 X50.5908 Y59.6461
G01 X50.5567 Y59.7030
G01 X50.5195 Y59.7534
G01 X50.5147 Y59.7592
G01 X50.4726 Y59.8055
G01 X50.4234 Y59.8501
G01 X50.3701 Y59.8896
G01 X50.3164 Y59.9219
G01 X50.3098 Y59.9255
G01 X50.2531 Y59.9521
G01 X50.1942 Y59.9733
G01 X50.1870 Y59.9755
G01 X50.1263 Y59.9906
G01 X50.0625 Y60.0002
G01 X49.9943 Y60.0036
G01 X49.1943 Y60.0036
G01 X49.1318 Y60.0006
G01 X49.1243 Y59.9999
G01 X49.0624 Y59.9906
G01 X48.9980 Y59.9745
G01 X48.9355 Y59.9521
G01 X48.8755 Y59.9238
G01 X48.8186 Y59.8896
G01 X48.7652 Y59.8501
G01 X48.7161 Y59.8055
G01 X48.6715 Y59.7564
G01 X48.6320 Y59.7030
G01 X48.5978 Y59.6461
G01 X48.5695 Y59.5861
G01 X48.5471 Y59.5236
G01 X48.5310 Y59.4592
G01 X48.5212 Y59.3936
G01 X48.5180 Y59.3273
G01 X48.5212 Y59.2610
G01 X48.5310 Y59.1953
G01 X48.5471 Y59.1309
G01 X48.5695 Y59.0685
G01 X48.5978 Y59.0085
G01 X48.6320 Y58.9515
G01 X48.6715 Y58.8982
G01 X48.7161 Y58.8490
G01 X48.7652 Y58.8045
G01 X48.8186 Y58.7649
G01 X48.8722 Y58.7326
G01 X48.8788 Y58.7291
G01 X48.9355 Y58.7024
G01 X48.9944 Y58.6812
G01 X49.0016 Y58.6791
G01 X49.0624 Y58.6639
G01 X49.1262 Y58.6544
G01 X49.1943 Y58.6509
G01 X49.9943 Y58.6509
G00 Z2.0000
G00 X49.9943 Y61.1909
G01 F60.00
G01 Z-0.2001
G01 F80.00
G01 X50.0569 Y61.1939
G01 X50.0643 Y61.1946
G01 X50.1263 Y61.2039
G01 X50.1907 Y61.2201
G01 X50.2531 Y61.2424
G01 X50.3098 Y61.2691
G01 X50.3164 Y61.2726
G01 X50.3701 Y61.3049
G01 X50.4234 Y61.3445
G01 X50.4699 Y61.3864
G01 X50.4752 Y61.3917
G01 X50.5171 Y61.4382
G01 X50.5567 Y61.4915
G01 X50.5890 Y61.5452
G01 X50.5925 Y61.5518
G01 X50.6177 Y61.6050
G01 X50.6205 Y61.6119
G01 X50.6415 Y61.6709
G01 X50.6569 Y61.7317
G01 X50.6583 Y61.7390
G01 X50.6670 Y61.7973
G01 X50.6677 Y61.8047
G01 X50.6707 Y61.8673
G01 X50.6674 Y61.9336
G01 X50.6577 Y61.9992
G01 X50.6425 Y62.0600
G01 X50.6404 Y62.0672
G01 X50.6205 Y62.1226
G01 X50.6177 Y62.1295
G01 X50.5908 Y62.1861
G01 X50.5567 Y62.2430
G01 X50.5171 Y62.2964
G01 X50.4752 Y62.3428
G01 X50.4699 Y62.3481
G01 X50.4234 Y62.3901
G01 X50.3701 Y62.4296
G01 X50.3164 Y62.4619
G01 X50.3098 Y62.4655
G01 X50.2531 Y62.4921
G01 X50.1942 Y62.5133
G01 X50.1870 Y62.5155
G01 X50.1263 Y62.5306
G01 X50.0625 Y62.5402
G01 X49.9943 Y62.5436
G01 X49.1943 Y62.5436
G01 X49.1318 Y62.5406
G01 X49.1243 Y62.5399
G01 X49.0624 Y62.5306
G01 X48.9980 Y62.5145
G01 X48.9355 Y62.4921
G01 X48.8755 Y62.4638
G01 X48.8186 Y62.4296
G01 X48.7652 Y62.3901
G01 X48.7161 Y62.3455
G01 X48.6715 Y62.2964
G01 X48.6320 Y62.2430
G01 X48.5978 Y62.1861
G01 X48.5695 Y62.1261
G01 X48.5471 Y62.0636
G01 X48.5310 Y61.9992
G01 X48.5212 Y61.9336
G01 X48.5180 Y61.8673
G01 X48.5212 Y61.8010
G01 X48.5310 Y61.7353
G01 X48.5471 Y61.6709
G01 X48.5695 Y61.6085
G01 X48.5978 Y61.5485
G01 X48.6320 Y61.4915
G01 X48.6715 Y61.4382
G01 X48.7161 Y61.3890
G01 X48.7652 Y61.3445
G01 X48.8186 Y61.3049
G01 X48.8722 Y61.2726
G01 X48.8788 Y61.2691
G01 X48.9355 Y61.2424
G01 X48.9944 Y61.2212
G01 X49.0016 Y61.2191
G01 X49.0624 Y61.2039
G01 X49.1262 Y61.1944
G01 X49.1943 Y61.1909
G01 X49.9943 Y61.1909
G00 Z2.0000
G00 X71.8769 Y59.5689
G01 F60.00
G01 Z-0.2001
G01 F80.00
G01 X71.8832 Y59.5802
G01 X71.9330 Y59.6857
G01 X71.9735 Y59.7990
G01 X72.0028 Y59.9158
G01 X72.0204 Y60.0348
G01 X72.0263 Y60.1550
G01 X72.0204 Y60.2752
G01 X72.0028 Y60.3942
G01 X71.9735 Y60.5110
G01 X71.9330 Y60.6243
G01 X71.8815 Y60.7331
G01 X71.8197 Y60.8363
G01 X71.7480 Y60.9330
G01 X71.6672 Y61.0222
G01 X71.5780 Y61.1030
G01 X71.4813 Y61.1747
G01 X71.3781 Y61.2365
G01 X71.2693 Y61.2880
G01 X71.1560 Y61.3285
G01 X71.0392 Y61.3578
G01 X70.9202 Y61.3754
G01 X70.8000 Y61.3813
G01 X70.6798 Y61.3754
G01 X70.5608 Y61.3578
G01 X70.4440 Y61.3285
G01 X70.3307 Y61.2880
G01 X70.2219 Y61.2365
G01 X70.1187 Y61.1747
G01 X70.0220 Y61.1030
G01 X69.9328 Y61.0222
G01 X69.8520 Y60.9330
G01 X69.7803 Y60.8363
G01 X69.7185 Y60.7331
G01 X69.6685 Y60.6277
G01 X69.6657 Y60.6208
G01 X69.6265 Y60.5110
G01 X69.5980 Y60.3979
G01 X69.5966 Y60.3906
G01 X69.5796 Y60.2752
G01 X69.5737 Y60.1550
G01 X69.5793 Y60.0385
G01 X69.5800 Y60.0311
G01 X69.5972 Y59.9158
G01 X69.6255 Y59.8026
G01 X69.6276 Y59.7955
G01 X69.6670 Y59.6857
G01 X69.7168 Y59.5802
G01 X69.7231 Y59.5689
G01 X69.7231 Y48.2120
G01 X51.4352 Y29.9241
G01 X46.7448 Y29.9241
G01 X29.2802 Y47.3887
G01 X29.2019 Y47.4597
G01 X29.1200 Y47.5205
G01 X29.1138 Y47.5247
G01 X29.0263 Y47.5770
G01 X28.9342 Y47.6206
G01 X28.9273 Y47.6235
G01 X28.8331 Y47.6572
G01 X28.7325 Y47.6826
G01 X28.7251 Y47.6841
G01 X28.6243 Y47.6989
G01 X28.5187 Y47.7041
G01 X20.7098 Y47.7041
G01 X19.1679 Y49.2460
G01 X19.1703 Y49.2989
G01 X19.1629 Y49.4496
G01 X19.1404 Y49.6027
G01 X19.1025 Y49.7546
G01 X19.0496 Y49.9020
G01 X18.9842 Y50.0401
G01 X18.9067 Y50.1696
G01 X18.9025 Y50.1758
G01 X18.8125 Y50.2970
G01 X18.7112 Y50.4089
G01 X18.7059 Y50.4142
G01 X18.5955 Y50.5143
G01 X18.4698 Y50.6077
G01 X18.3403 Y50.6854
G01 X18.3337 Y50.6889
G01 X18.1972 Y50.7534
G01 X18.0551 Y50.8043
G01 X18.0480 Y50.8065
G01 X17.9015 Y50.8431
G01 X17.7485 Y50.8658
G01 X17.5977 Y50.8733
G01 X17.5903 Y50.8733
G01 X17.4432 Y50.8660
G01 X17.4358 Y50.8653
G01 X17.2865 Y50.8431
G01 X17.1400 Y50.8065
G01 X17.1329 Y50.8043
G01 X16.9908 Y50.7534
G01 X16.8509 Y50.6872
G01 X16.7182 Y50.6077
G01 X16.5969 Y50.5178
G01 X16.5911 Y50.5131
G01 X16.4821 Y50.4142
G01 X16.4768 Y50.4089
G01 X16.3755 Y50.2970
G01 X16.2855 Y50.1758
G01 X16.2813 Y50.1696
G01 X16.2038 Y50.0401
G01 X16.1392 Y49.9037
G01 X16.1363 Y49.8967
G01 X16.0855 Y49.7546
G01 X16.0479 Y49.6045
G01 X16.0252 Y49.4515
G01 X16.0177 Y49.2970
G01 X16.0252 Y49.1425
G01 X16.0479 Y48.9895
G01 X16.0855 Y48.8394
G01 X16.1369 Y48.6955
G01 X16.1497 Y48.6681
G01 X12.4873 Y45.0057
G01 X12.4493 Y44.9638
G01 X12.4156 Y44.9183
G01 X12.3865 Y44.8698
G01 X12.3638 Y44.8221
G01 X12.3609 Y44.8152
G01 X12.3432 Y44.7654
G01 X12.3303 Y44.7141
G01 X12.3288 Y44.7068
G01 X12.3214 Y44.6564
G01 X12.3184 Y44.5980
G01 X12.3184 Y44.1896
G01 X12.3009 Y44.1735
G01 X12.2458 Y44.1124
G01 X12.1979 Y44.0478
G01 X12.1565 Y43.9788
G01 X12.1220 Y43.9062
G01 X12.1191 Y43.8993
G01 X12.0927 Y43.8254
G01 X12.0728 Y43.7456
G01 X12.0607 Y43.6642
G01 X12.0567 Y43.5857
G01 X12.0567 Y43.5783
G01 X12.0607 Y43.4998
G01 X12.0721 Y43.4221
G01 X12.0736 Y43.4148
G01 X12.0922 Y43.3404
G01 X12.1205 Y43.2612
G01 X12.1540 Y43.1902
G01 X12.1575 Y43.1835
G01 X12.1979 Y43.1162
G01 X12.2446 Y43.0531
G01 X12.2494 Y43.0473
G01 X12.3022 Y42.9892
G01 X12.3603 Y42.9364
G01 X12.3661 Y42.9316
G01 X12.4292 Y42.8849
G01 X12.4965 Y42.8445
G01 X12.5032 Y42.8410
G01 X12.5742 Y42.8075
G01 X12.6481 Y42.7809
G01 X12.6553 Y42.7787
G01 X12.7314 Y42.7598
G01 X12.8091 Y42.7481
G01 X12.8166 Y42.7474
G01 X12.8913 Y42.7437
G01 X12.8987 Y42.7437
G01 X12.9772 Y42.7477
G01 X13.0549 Y42.7591
G01 X13.0622 Y42.7606
G01 X13.1384 Y42.7797
G01 X13.2123 Y42.8061
G01 X13.2192 Y42.8090
G01 X13.2902 Y42.8426
G01 X13.3576 Y42.8829
G01 X13.3638 Y42.8871
G01 X13.4268 Y42.9339
G01 X13.4851 Y42.9866
G01 X13.4904 Y42.9919
G01 X13.5431 Y43.0502
G01 X13.5921 Y43.1162
G01 X13.6344 Y43.1868
G01 X13.6695 Y43.2612
G01 X13.6973 Y43.3386
G01 X13.7172 Y43.4184
G01 X13.7293 Y43.4998
G01 X13.7333 Y43.5820
G01 X13.7293 Y43.6642
G01 X13.7172 Y43.7456
G01 X13.6973 Y43.8254
G01 X13.6688 Y43.9045
G01 X13.6344 Y43.9772
G01 X13.5910 Y44.0493
G01 X13.5418 Y44.1153
G01 X13.4891 Y44.1735
G01 X13.4716 Y44.1896
G01 X13.4716 Y44.3592
G01 X16.9651 Y47.8527
G01 X16.9925 Y47.8399
G01 X17.1364 Y47.7885
G01 X17.2865 Y47.7509
G01 X17.4414 Y47.7281
G01 X17.5921 Y47.7207
G01 X17.6450 Y47.7231
G01 X19.5023 Y45.8658
G01 X19.5777 Y45.7973
G01 X19.5835 Y45.7926
G01 X19.6655 Y45.7319
G01 X19.7528 Y45.6794
G01 X19.7594 Y45.6759
G01 X19.8516 Y45.6324
G01 X19.9476 Y45.5980
G01 X19.9547 Y45.5958
G01 X20.0536 Y45.5711
G01 X20.1582 Y45.5556
G01 X20.2637 Y45.5504
G01 X28.0727 Y45.5504
G01 X45.5373 Y28.0858
G01 X45.6156 Y28.0149
G01 X45.6974 Y27.9541
G01 X45.7036 Y27.9499
G01 X45.7878 Y27.8994
G01 X45.7944 Y27.8959
G01 X45.8866 Y27.8524
G01 X45.9861 Y27.8168
G01 X46.0850 Y27.7919
G01 X46.0923 Y27.7905
G01 X46.1932 Y27.7756
G01 X46.2968 Y27.7705
G01 X51.8813 Y27.7704
G01 X51.9831 Y27.7753
G01 X51.9905 Y27.7761
G01 X52.0914 Y27.7911
G01 X52.1921 Y27.8163
G01 X52.2934 Y27.8524
G01 X52.3856 Y27.8959
G01 X52.3922 Y27.8994
G01 X52.4795 Y27.9519
G01 X52.5615 Y28.0126
G01 X52.5673 Y28.0173
G01 X52.6427 Y28.0858
G01 X71.5614 Y47.0046
G01 X71.6324 Y47.0829
G01 X71.6964 Y47.1693
G01 X71.7497 Y47.2584
G01 X71.7934 Y47.3505
G01 X71.7962 Y47.3574
G01 X71.8305 Y47.4534
G01 X71.8553 Y47.5523
G01 X71.8568 Y47.5596
G01 X71.8717 Y47.6605
G01 X71.8768 Y47.7641
G01 X71.8769 Y59.5689
G00 Z2.0000
G00 X69.1919 Y28.2400
G01 F60.00
G01 Z-0.2001
G01 F80.00
G01 X69.1867 Y28.3455
G01 X69.1712 Y28.4501
G01 X69.1455 Y28.5526
G01 X69.1112 Y28.6486
G01 X69.1084 Y28.6555
G01 X69.0664 Y28.7443
G01 X69.0628 Y28.7509
G01 X69.0104 Y28.8383
G01 X68.9462 Y28.9246
G01 X68.8764 Y29.0014
G01 X66.6763 Y31.2015
G01 X66.6763 Y31.9087
G01 X66.6755 Y31.9162
G01 X66.6736 Y31.9254
G01 X66.6712 Y31.9325
G01 X66.6682 Y31.9393
G01 X66.6635 Y31.9474
G01 X66.6590 Y31.9534
G01 X66.6540 Y31.9590
G01 X66.6470 Y31.9652
G01 X66.6424 Y31.9685
G01 X66.6360 Y31.9723
G01 X66.6292 Y31.9755
G01 X66.6239 Y31.9775
G01 X66.6186 Y31.9791
G01 X66.6112 Y31.9805
G01 X66.6000 Y31.9813
G01 X64.6000 Y31.9813
G01 X64.5907 Y31.9808
G01 X64.5814 Y31.9791
G01 X64.5743 Y31.9769
G01 X64.5657 Y31.9732
G01 X64.5576 Y31.9685
G01 X64.5516 Y31.9640
G01 X64.5447 Y31.9576
G01 X64.5398 Y31.9520
G01 X64.5355 Y31.9458
G01 X64.5327 Y31.9410
G01 X64.5295 Y31.9342
G01 X64.5275 Y31.9289
G01 X64.5255 Y31.9217
G01 X64.5245 Y31.9162
G01 X64.5237 Y31.9050
G01 X64.5237 Y30.7671
G01 X64.5231 Y30.7550
G01 X64.5237 Y30.7429
G01 X64.5237 Y29.6050
G01 X64.5242 Y29.5957
G01 X64.5264 Y29.5846
G01 X64.5302 Y29.5741
G01 X64.5345 Y29.5657
G01 X64.5398 Y29.5580
G01 X64.5460 Y29.5510
G01 X64.5530 Y29.5448
G01 X64.5607 Y29.5395
G01 X64.5691 Y29.5352
G01 X64.5778 Y29.5319
G01 X64.5869 Y29.5298
G01 X64.5963 Y29.5287
G01 X65.3035 Y29.5287
G01 X67.0381 Y27.7940
G01 X67.0381 Y23.5160
G01 X67.0433 Y23.4105
G01 X67.0585 Y23.3078
G01 X67.0835 Y23.2070
G01 X67.0857 Y23.1998
G01 X67.1201 Y23.1039
G01 X67.1653 Y23.0084
G01 X67.2176 Y22.9209
G01 X67.2218 Y22.9147
G01 X67.2826 Y22.8329
G01 X67.3536 Y22.7546
G01 X67.4319 Y22.6836
G01 X67.5137 Y22.6228
G01 X67.5199 Y22.6186
G01 X67.6074 Y22.5663
G01 X67.6995 Y22.5226
G01 X67.7064 Y22.5198
G01 X67.8024 Y22.4855
G01 X67.9031 Y22.4602
G01 X68.0095 Y22.4443
G01 X68.1150 Y22.4391
G01 X68.2205 Y22.4443
G01 X68.3251 Y22.4598
G01 X68.4276 Y22.4855
G01 X68.5271 Y22.5211
G01 X68.6226 Y22.5663
G01 X68.7133 Y22.6206
G01 X68.7981 Y22.6836
G01 X68.8764 Y22.7546
G01 X68.9474 Y22.8329
G01 X69.0104 Y22.9177
G01 X69.0647 Y23.0084
G01 X69.1099 Y23.1039
G01 X69.1455 Y23.2034
G01 X69.1708 Y23.3041
G01 X69.1867 Y23.4105
G01 X69.1919 Y23.5160
G01 X69.1919 Y28.2400
G00 Z2.0000
G00 X60.9470 Y29.5791
G01 F60.00
G01 Z-0.2001
G01 F80.00
G01 X60.9595 Y29.5826
G01 X61.0658 Y29.6207
G01 X61.0727 Y29.6235
