(G-CODE GENERATED BY FLATCAM v8.994 - www.flatcam.org - Version Date: 2020/11/7)

(Name: ledDeviceServerEsp32Pio-Edge_Cuts.gbr_cutout_cnc)
(Type: G-code from Geometry)
(Units: MM)

(Created on Monday, 22 November 2021 at 13:30)

(This preprocessor is the default preprocessor used by FlatCAM.)
(It is made to work with MACH3 compatible motion controllers.)

(TOOL DIAMETER: 1.1 mm)
(Feedrate_XY: 40.0 mm/min)
(Feedrate_Z: 50.0 mm/min)
(Feedrate rapids 1500.0 mm/min)

(Z_Cut: -1.8 mm)
(DepthPerCut: 0.3 mm <=>6 passes)
(Z_Move: 3.0 mm)
(Z Start: None mm)
(Z End: 15.0 mm)
(X,Y End: None mm)
(Steps per circle: 64)
(Preprocessor Geometry: default)

(X range:   -2.5750 ...   79.5750  mm)
(Y range:   -0.5750 ...   76.5750  mm)

(Spindle Speed: 1000.0 RPM)
G21
G90
G94

G01 F40.00

M5
G00 Z15.0000
G00 X0.0000 Y0.0000
T1
M6    
(MSG, Change to Tool Dia = 1.1000)
M0
G00 Z15.0000

M03 S1000.0
G01 F40.00
G00 X-2.5750 Y36.4500
G01 F50.00
G01 Z-0.3000
G01 F40.00
G01 X-2.5750 Y-0.0250
G01 X-2.5724 Y-0.0789
G01 X-2.5644 Y-0.1323
G01 X-2.5513 Y-0.1847
G01 X-2.5331 Y-0.2355
G01 X-2.5101 Y-0.2843
G01 X-2.4823 Y-0.3306
G01 X-2.4502 Y-0.3739
G01 X-2.4139 Y-0.4139
G01 X-2.3739 Y-0.4502
G01 X-2.3306 Y-0.4823
G01 X-2.2843 Y-0.5101
G01 X-2.2355 Y-0.5331
G01 X-2.1847 Y-0.5513
G01 X-2.1323 Y-0.5644
G01 X-2.0789 Y-0.5724
G01 X-2.0250 Y-0.5750
G01 X36.9500 Y-0.5750
G00 X36.9500 Y-0.5750
G01 F50.00
G01 Z-0.6000
G01 F40.00
G01 X-2.0250 Y-0.5750
G01 X-2.0789 Y-0.5724
G01 X-2.1323 Y-0.5644
G01 X-2.1847 Y-0.5513
G01 X-2.2355 Y-0.5331
G01 X-2.2843 Y-0.5101
G01 X-2.3306 Y-0.4823
G01 X-2.3739 Y-0.4502
G01 X-2.4139 Y-0.4139
G01 X-2.4502 Y-0.3739
G01 X-2.4823 Y-0.3306
G01 X-2.5101 Y-0.2843
G01 X-2.5331 Y-0.2355
G01 X-2.5513 Y-0.1847
G01 X-2.5644 Y-0.1323
G01 X-2.5724 Y-0.0789
G01 X-2.5750 Y-0.0250
G01 X-2.5750 Y36.4500
G00 X-2.5750 Y36.4500
G01 F50.00
G01 Z-0.9000
G01 F40.00
G01 X-2.5750 Y-0.0250
G01 X-2.5724 Y-0.0789
G01 X-2.5644 Y-0.1323
G01 X-2.5513 Y-0.1847
G01 X-2.5331 Y-0.2355
G01 X-2.5101 Y-0.2843
G01 X-2.4823 Y-0.3306
G01 X-2.4502 Y-0.3739
G01 X-2.4139 Y-0.4139
G01 X-2.3739 Y-0.4502
G01 X-2.3306 Y-0.4823
G01 X-2.2843 Y-0.5101
G01 X-2.2355 Y-0.5331
G01 X-2.1847 Y-0.5513
G01 X-2.1323 Y-0.5644
G01 X-2.0789 Y-0.5724
G01 X-2.0250 Y-0.5750
G01 X36.9500 Y-0.5750
G00 X36.9500 Y-0.5750
G01 F50.00
G01 Z-1.2000
G01 F40.00
G01 X-2.0250 Y-0.5750
G01 X-2.0789 Y-0.5724
G01 X-2.1323 Y-0.5644
G01 X-2.1847 Y-0.5513
G01 X-2.2355 Y-0.5331
G01 X-2.2843 Y-0.5101
G01 X-2.3306 Y-0.4823
G01 X-2.3739 Y-0.4502
G01 X-2.4139 Y-0.4139
G01 X-2.4502 Y-0.3739
G01 X-2.4823 Y-0.3306
G01 X-2.5101 Y-0.2843
G01 X-2.5331 Y-0.2355
G01 X-2.5513 Y-0.1847
G01 X-2.5644 Y-0.1323
G01 X-2.5724 Y-0.0789
G01 X-2.5750 Y-0.0250
G01 X-2.5750 Y36.4500
G00 X-2.5750 Y36.4500
G01 F50.00
G01 Z-1.5000
G01 F40.00
G01 X-2.5750 Y-0.0250
G01 X-2.5724 Y-0.0789
G01 X-2.5644 Y-0.1323
G01 X-2.5513 Y-0.1847
G01 X-2.5331 Y-0.2355
G01 X-2.5101 Y-0.2843
G01 X-2.4823 Y-0.3306
G01 X-2.4502 Y-0.3739
G01 X-2.4139 Y-0.4139
G01 X-2.3739 Y-0.4502
G01 X-2.3306 Y-0.4823
G01 X-2.2843 Y-0.5101
G01 X-2.2355 Y-0.5331
G01 X-2.1847 Y-0.5513
G01 X-2.1323 Y-0.5644
G01 X-2.0789 Y-0.5724
G01 X-2.0250 Y-0.5750
G01 X36.9500 Y-0.5750
G00 X36.9500 Y-0.5750
G01 F50.00
G01 Z-1.8000
G01 F40.00
G01 X-2.0250 Y-0.5750
G01 X-2.0789 Y-0.5724
G01 X-2.1323 Y-0.5644
G01 X-2.1847 Y-0.5513
G01 X-2.2355 Y-0.5331
G01 X-2.2843 Y-0.5101
G01 X-2.3306 Y-0.4823
G01 X-2.3739 Y-0.4502
G01 X-2.4139 Y-0.4139
G01 X-2.4502 Y-0.3739
G01 X-2.4823 Y-0.3306
G01 X-2.5101 Y-0.2843
G01 X-2.5331 Y-0.2355
G01 X-2.5513 Y-0.1847
G01 X-2.5644 Y-0.1323
G01 X-2.5724 Y-0.0789
G01 X-2.5750 Y-0.0250
G01 X-2.5750 Y36.4500
G00 Z3.0000
G00 X-2.5750 Y39.5500
G01 F50.00
G01 Z-0.3000
G01 F40.00
G01 X-2.5750 Y76.0250
G01 X-2.5724 Y76.0789
G01 X-2.5644 Y76.1323
G01 X-2.5513 Y76.1847
G01 X-2.5331 Y76.2355
G01 X-2.5101 Y76.2843
G01 X-2.4823 Y76.3306
G01 X-2.4502 Y76.3739
G01 X-2.4139 Y76.4139
G01 X-2.3739 Y76.4502
G01 X-2.3306 Y76.4823
G01 X-2.2843 Y76.5101
G01 X-2.2355 Y76.5331
G01 X-2.1847 Y76.5513
G01 X-2.1323 Y76.5644
G01 X-2.0789 Y76.5724
G01 X-2.0250 Y76.5750
G01 X36.9500 Y76.5750
G00 X36.9500 Y76.5750
G01 F50.00
G01 Z-0.6000
G01 F40.00
G01 X-2.0250 Y76.5750
G01 X-2.0789 Y76.5724
G01 X-2.1323 Y76.5644
G01 X-2.1847 Y76.5513
G01 X-2.2355 Y76.5331
G01 X-2.2843 Y76.5101
G01 X-2.3306 Y76.4823
G01 X-2.3739 Y76.4502
G01 X-2.4139 Y76.4139
G01 X-2.4502 Y76.3739
G01 X-2.4823 Y76.3306
G01 X-2.5101 Y76.2843
G01 X-2.5331 Y76.2355
G01 X-2.5513 Y76.1847
G01 X-2.5644 Y76.1323
G01 X-2.5724 Y76.0789
G01 X-2.5750 Y76.0250
G01 X-2.5750 Y39.5500
G00 X-2.5750 Y39.5500
G01 F50.00
G01 Z-0.9000
G01 F40.00
G01 X-2.5750 Y76.0250
G01 X-2.5724 Y76.0789
G01 X-2.5644 Y76.1323
G01 X-2.5513 Y76.1847
G01 X-2.5331 Y76.2355
G01 X-2.5101 Y76.2843
G01 X-2.4823 Y76.3306
G01 X-2.4502 Y76.3739
G01 X-2.4139 Y76.4139
G01 X-2.3739 Y76.4502
G01 X-2.3306 Y76.4823
G01 X-2.2843 Y76.5101
G01 X-2.2355 Y76.5331
G01 X-2.1847 Y76.5513
G01 X-2.1323 Y76.5644
G01 X-2.0789 Y76.5724
G01 X-2.0250 Y76.5750
G01 X36.9500 Y76.5750
G00 X36.9500 Y76.5750
G01 F50.00
G01 Z-1.2000
G01 F40.00
G01 X-2.0250 Y76.5750
G01 X-2.0789 Y76.5724
G01 X-2.1323 Y76.5644
G01 X-2.1847 Y76.5513
G01 X-2.2355 Y76.5331
G01 X-2.2843 Y76.5101
G01 X-2.3306 Y76.4823
G01 X-2.3739 Y76.4502
G01 X-2.4139 Y76.4139
G01 X-2.4502 Y76.3739
G01 X-2.4823 Y76.3306
G01 X-2.5101 Y76.2843
G01 X-2.5331 Y76.2355
G01 X-2.5513 Y76.1847
G01 X-2.5644 Y76.1323
G01 X-2.5724 Y76.0789
G01 X-2.5750 Y76.0250
G01 X-2.5750 Y39.5500
G00 X-2.5750 Y39.5500
G01 F50.00
G01 Z-1.5000
G01 F40.00
G01 X-2.5750 Y76.0250
G01 X-2.5724 Y76.0789
G01 X-2.5644 Y76.1323
G01 X-2.5513 Y76.1847
G01 X-2.5331 Y76.2355
G01 X-2.5101 Y76.2843
G01 X-2.4823 Y76.3306
G01 X-2.4502 Y76.3739
G01 X-2.4139 Y76.4139
G01 X-2.3739 Y76.4502
G01 X-2.3306 Y76.4823
G01 X-2.2843 Y76.5101
G01 X-2.2355 Y76.5331
G01 X-2.1847 Y76.5513
G01 X-2.1323 Y76.5644
G01 X-2.0789 Y76.5724
G01 X-2.0250 Y76.5750
G01 X36.9500 Y76.5750
G00 X36.9500 Y76.5750
G01 F50.00
G01 Z-1.8000
G01 F40.00
G01 X-2.0250 Y76.5750
G01 X-2.0789 Y76.5724
G01 X-2.1323 Y76.5644
G01 X-2.1847 Y76.5513
G01 X-2.2355 Y76.5331
G01 X-2.2843 Y76.5101
G01 X-2.3306 Y76.4823
G01 X-2.3739 Y76.4502
G01 X-2.4139 Y76.4139
G01 X-2.4502 Y76.3739
G01 X-2.4823 Y76.3306
G01 X-2.5101 Y76.2843
G01 X-2.5331 Y76.2355
G01 X-2.5513 Y76.1847
G01 X-2.5644 Y76.1323
G01 X-2.5724 Y76.0789
G01 X-2.5750 Y76.0250
G01 X-2.5750 Y39.5500
G00 Z3.0000
G00 X40.0500 Y76.5750
G01 F50.00
G01 Z-0.3000
G01 F40.00
G01 X79.0250 Y76.5750
G01 X79.0789 Y76.5724
G01 X79.1323 Y76.5644
G01 X79.1847 Y76.5513
G01 X79.2355 Y76.5331
G01 X79.2843 Y76.5101
G01 X79.3306 Y76.4823
G01 X79.3739 Y76.4502
G01 X79.4139 Y76.4139
G01 X79.4502 Y76.3739
G01 X79.4823 Y76.3306
G01 X79.5101 Y76.2843
G01 X79.5331 Y76.2355
G01 X79.5513 Y76.1847
G01 X79.5644 Y76.1323
G01 X79.5724 Y76.0789
G01 X79.5750 Y76.0250
G01 X79.5750 Y39.5500
G00 X79.5750 Y39.5500
G01 F50.00
G01 Z-0.6000
G01 F40.00
G01 X79.5750 Y76.0250
G01 X79.5724 Y76.0789
G01 X79.5644 Y76.1323
G01 X79.5513 Y76.1847
G01 X79.5331 Y76.2355
G01 X79.5101 Y76.2843
G01 X79.4823 Y76.3306
G01 X79.4502 Y76.3739
G01 X79.4139 Y76.4139
G01 X79.3739 Y76.4502
G01 X79.3306 Y76.4823
G01 X79.2843 Y76.5101
G01 X79.2355 Y76.5331
G01 X79.1847 Y76.5513
G01 X79.1323 Y76.5644
G01 X79.0789 Y76.5724
G01 X79.0250 Y76.5750
G01 X40.0500 Y76.5750
G00 X40.0500 Y76.5750
G01 F50.00
G01 Z-0.9000
G01 F40.00
G01 X79.0250 Y76.5750
G01 X79.0789 Y76.5724
G01 X79.1323 Y76.5644
G01 X79.1847 Y76.5513
G01 X79.2355 Y76.5331
G01 X79.2843 Y76.5101
G01 X79.3306 Y76.4823
G01 X79.3739 Y76.4502
G01 X79.4139 Y76.4139
G01 X79.4502 Y76.3739
G01 X79.4823 Y76.3306
G01 X79.5101 Y76.2843
G01 X79.5331 Y76.2355
G01 X79.5513 Y76.1847
G01 X79.5644 Y76.1323
G01 X79.5724 Y76.0789
G01 X79.5750 Y76.0250
G01 X79.5750 Y39.5500
G00 X79.5750 Y39.5500
G01 F50.00
G01 Z-1.2000
G01 F40.00
G01 X79.5750 Y76.0250
G01 X79.5724 Y76.0789
G01 X79.5644 Y76.1323
G01 X79.5513 Y76.1847
G01 X79.5331 Y76.2355
G01 X79.5101 Y76.2843
G01 X79.4823 Y76.3306
G01 X79.4502 Y76.3739
G01 X79.4139 Y76.4139
G01 X79.3739 Y76.4502
G01 X79.3306 Y76.4823
G01 X79.2843 Y76.5101
G01 X79.2355 Y76.5331
G01 X79.1847 Y76.5513
G01 X79.1323 Y76.5644
G01 X79.0789 Y76.5724
G01 X79.0250 Y76.5750
G01 X40.0500 Y76.5750
G00 X40.0500 Y76.5750
G01 F50.00
G01 Z-1.5000
G01 F40.00
G01 X79.0250 Y76.5750
G01 X79.0789 Y76.5724
G01 X79.1323 Y76.5644
G01 X79.1847 Y76.5513
G01 X79.2355 Y76.5331
G01 X79.2843 Y76.5101
G01 X79.3306 Y76.4823
G01 X79.3739 Y76.4502
G01 X79.4139 Y76.4139
G01 X79.4502 Y76.3739
G01 X79.4823 Y76.3306
G01 X79.5101 Y76.2843
G01 X79.5331 Y76.2355
G01 X79.5513 Y76.1847
G01 X79.5644 Y76.1323
G01 X79.5724 Y76.0789
G01 X79.5750 Y76.0250
G01 X79.5750 Y39.5500
G00 X79.5750 Y39.5500
G01 F50.00
G01 Z-1.8000
G01 F40.00
G01 X79.5750 Y76.0250
G01 X79.5724 Y76.0789
G01 X79.5644 Y76.1323
G01 X79.5513 Y76.1847
G01 X79.5331 Y76.2355
G01 X79.5101 Y76.2843
G01 X79.4823 Y76.3306
G01 X79.4502 Y76.3739
G01 X79.4139 Y76.4139
G01 X79.3739 Y76.4502
G01 X79.3306 Y76.4823
G01 X79.2843 Y76.5101
G01 X79.2355 Y76.5331
G01 X79.1847 Y76.5513
G01 X79.1323 Y76.5644
G01 X79.0789 Y76.5724
G01 X79.0250 Y76.5750
G01 X40.0500 Y76.5750
G00 Z3.0000
G00 X79.5750 Y36.4500
G01 F50.00
G01 Z-0.3000
G01 F40.00
G01 X79.5750 Y-0.0250
G01 X79.5724 Y-0.0789
G01 X79.5644 Y-0.1323
G01 X79.5513 Y-0.1847
G01 X79.5331 Y-0.2355
G01 X79.5101 Y-0.2843
G01 X79.4823 Y-0.3306
G01 X79.4502 Y-0.3739
G01 X79.4139 Y-0.4139
G01 X79.3739 Y-0.4502
G01 X79.3306 Y-0.4823
G01 X79.2843 Y-0.5101
G01 X79.2355 Y-0.5331
G01 X79.1847 Y-0.5513
G01 X79.1323 Y-0.5644
G01 X79.0789 Y-0.5724
G01 X79.0250 Y-0.5750
G01 X40.0500 Y-0.5750
G00 X40.0500 Y-0.5750
G01 F50.00
G01 Z-0.6000
G01 F40.00
G01 X79.0250 Y-0.5750
G01 X79.0789 Y-0.5724
G01 X79.1323 Y-0.5644
G01 X79.1847 Y-0.5513
G01 X79.2355 Y-0.5331
G01 X79.2843 Y-0.5101
G01 X79.3306 Y-0.4823
G01 X79.3739 Y-0.4502
G01 X79.4139 Y-0.4139
G01 X79.4502 Y-0.3739
G01 X79.4823 Y-0.3306
G01 X79.5101 Y-0.2843
G01 X79.5331 Y-0.2355
G01 X79.5513 Y-0.1847
G01 X79.5644 Y-0.1323
G01 X79.5724 Y-0.0789
G01 X79.5750 Y-0.0250
G01 X79.5750 Y36.4500
G00 X79.5750 Y36.4500
G01 F50.00
G01 Z-0.9000
G01 F40.00
G01 X79.5750 Y-0.0250
G01 X79.5724 Y-0.0789
G01 X79.5644 Y-0.1323
G01 X79.5513 Y-0.1847
G01 X79.5331 Y-0.2355
G01 X79.5101 Y-0.2843
G01 X79.4823 Y-0.3306
G01 X79.4502 Y-0.3739
G01 X79.4139 Y-0.4139
G01 X79.3739 Y-0.4502
G01 X79.3306 Y-0.4823
G01 X79.2843 Y-0.5101
G01 X79.2355 Y-0.5331
G01 X79.1847 Y-0.5513
G01 X79.1323 Y-0.5644
G01 X79.0789 Y-0.5724
G01 X79.0250 Y-0.5750
G01 X40.0500 Y-0.5750
G00 X40.0500 Y-0.5750
G01 F50.00
G01 Z-1.2000
G01 F40.00
G01 X79.0250 Y-0.5750
G01 X79.0789 Y-0.5724
G01 X79.1323 Y-0.5644
G01 X79.1847 Y-0.5513
G01 X79.2355 Y-0.5331
G01 X79.2843 Y-0.5101
G01 X79.3306 Y-0.4823
G01 X79.3739 Y-0.4502
G01 X79.4139 Y-0.4139
G01 X79.4502 Y-0.3739
G01 X79.4823 Y-0.3306
G01 X79.5101 Y-0.2843
G01 X79.5331 Y-0.2355
G01 X79.5513 Y-0.1847
G01 X79.5644 Y-0.1323
G01 X79.5724 Y-0.0789
G01 X79.5750 Y-0.0250
G01 X79.5750 Y36.4500
G00 X79.5750 Y36.4500
G01 F50.00
G01 Z-1.5000
G01 F40.00
G01 X79.5750 Y-0.0250
G01 X79.5724 Y-0.0789
G01 X79.5644 Y-0.1323
G01 X79.5513 Y-0.1847
G01 X79.5331 Y-0.2355
G01 X79.5101 Y-0.2843
G01 X79.4823 Y-0.3306
G01 X79.4502 Y-0.3739
G01 X79.4139 Y-0.4139
G01 X79.3739 Y-0.4502
G01 X79.3306 Y-0.4823
G01 X79.2843 Y-0.5101
G01 X79.2355 Y-0.5331
G01 X79.1847 Y-0.5513
G01 X79.1323 Y-0.5644
G01 X79.0789 Y-0.5724
G01 X79.0250 Y-0.5750
G01 X40.0500 Y-0.5750
G00 X40.0500 Y-0.5750
G01 F50.00
G01 Z-1.8000
G01 F40.00
G01 X79.0250 Y-0.5750
G01 X79.0789 Y-0.5724
G01 X79.1323 Y-0.5644
G01 X79.1847 Y-0.5513
G01 X79.2355 Y-0.5331
G01 X79.2843 Y-0.5101
G01 X79.3306 Y-0.4823
G01 X79.3739 Y-0.4502
G01 X79.4139 Y-0.4139
G01 X79.4502 Y-0.3739
G01 X79.4823 Y-0.3306
G01 X79.5101 Y-0.2843
G01 X79.5331 Y-0.2355
G01 X79.5513 Y-0.1847
G01 X79.5644 Y-0.1323
G01 X79.5724 Y-0.0789
G01 X79.5750 Y-0.0250
G01 X79.5750 Y36.4500
G00 Z3.0000
M05
G00 Z3.0000
G00 Z15.00


